; generated by PrusaSlicer 2.7.0+linux-x64-GTK3 on 2023-12-05 at 15:10:17 UTC


;
;

;
;
; 

; external perimeters extrusion width = 0.45mm
; perimeters extrusion width = 0.45mm
; infill extrusion width = 0.45mm
; solid infill extrusion width = 0.45mm
; top infill extrusion width = 0.40mm
; first layer extrusion width = 0.42mm

M73 P0 R146
M201 X2500 Y2500 Z400 E5000 ; sets maximum accelerations, mm/sec^2
M203 X180 Y180 Z12 E80 ; sets maximum feedrates, mm / sec
M204 P2000 R1250 T2500 ; sets acceleration (P, T) and retract acceleration (R), mm/sec^2
M205 X8.00 Y8.00 Z2.00 E10.00 ; sets the jerk limits, mm/sec
M205 S0 T0 ; sets the minimum extruding and travel feed rate, mm/sec

; printing object tfslot_complete.stl id:0 copy 0
; stop printing object tfslot_complete.stl id:0 copy 0

;TYPE:Custom
M862.3 P "MINI" ; printer model check
G90 ; use absolute coordinates
M83 ; extruder relative mode
M104 S170 ; set extruder temp for bed leveling
M140 S60 ; set bed temp
M109 R170 ; wait for bed leveling temp
M190 S60 ; wait for bed temp
M204 T1250 ; set travel acceleration
G28 ; home all without mesh bed level
G29 ; mesh bed leveling 
M204 T2500 ; restore travel acceleration
M104 S215 ; set extruder temp
G92 E0
G1 Y-2 X179 F2400
G1 Z3 F720
M109 S215 ; wait for extruder temp

; intro line
G1 X170 F1000
G1 Z0.2 F720
G1 X110 E8 F900
G1 X40 E10 F700
G92 E0

M221 S95 ; set flow
G21 ; set units to millimeters
G90 ; use absolute coordinates
M83 ; use relative distances for extrusion
M900 K0.2 ; Filament gcode LA 1.5
; ; Filament gcode LA 1.0
M107
;LAYER_CHANGE
;Z:0.2
;HEIGHT:0.2
;BEFORE_LAYER_CHANGE
G92 E0.0
;0.2


G1 E-3.2 F4200
G1 Z.2 F720
;AFTER_LAYER_CHANGE
;0.2
G1 X67.355 Y67.891 F9000
G1 Z.2 F720
G1 E3.2 F2400
M204 P600
;TYPE:Skirt/Brim
;WIDTH:0.42
G1 F1200
G1 X68.931 Y66.804 E.06003
G1 X69.994 Y66.4 E.03566
G1 X71.895 Y66.169 E.06004
G1 X72.46 Y66.168 E.01772
G1 X106.156 Y70.139 E1.06383
G1 X107.409 Y70.681 E.0428
G1 X108.255 Y72.5 E.0629
G1 X108.255 Y107.5 E1.0974
G1 X107.864 Y108.807 E.04277
G1 X106.156 Y109.861 E.06293
G1 X72.46 Y113.832 E1.06383
G1 X71.895 Y113.831 E.01772
G1 X69.994 Y113.6 E.06004
G1 X68.931 Y113.196 E.03566
G1 X67.355 Y112.109 E.06003
G1 X66.601 Y111.257 E.03567
G1 X65.711 Y109.562 E.06003
G1 X65.439 Y108.457 E.03568
G1 X65.439 Y71.543 E1.15741
G1 X65.711 Y70.438 E.03568
G1 X66.601 Y68.743 E.06003
G1 X67.315 Y67.936 E.03378
M204 P1000
; printing object tfslot_complete.stl id:0 copy 0
G1 E-2.24 F4200
;WIPE_START
G1 F7200
G1 X67.355 Y67.891 E-.03337
G1 X68.731 Y66.941 E-.92663
;WIPE_END
G1 Z.4 F720
G1 X70.507 Y104.301 F9000
G1 Z.2 F720
G1 E3.2 F2400
M204 P600
;TYPE:Perimeter
;WIDTH:0.419999
G1 F1200
G1 X70.86 Y104.346 E.01116
G1 X71.456 Y104.358 E.01869
G1 X71.523 Y104.489 E.00461
G1 X71.744 Y104.608 E.00787
G1 X73.291 Y105.195 E.05188
G1 X74.18 Y106.198 E.04202
G1 X74.5 Y107.5 E.04204
G1 X74.34 Y108.151 E.02102
G1 X74.18 Y108.802 E.02102
G1 X73.291 Y109.805 E.04202
G1 X72.037 Y110.281 E.04206
G1 X70.706 Y110.119 E.04204
G1 X69.603 Y109.357 E.04203
G1 X68.98 Y108.17 E.04203
G1 X68.98 Y106.83 E.04201
G1 X69.613 Y105.623 E.04273
G1 X70.081 Y105.271 E.01836
G1 X70.34 Y105.025 E.0112
G1 X70.488 Y104.717 E.01071
G1 X70.505 Y104.361 E.01117
M204 P1000
G1 X70.064 Y103.803 F9000
M204 P600
G1 F1200
G1 X70.464 Y103.916 E.01303
G1 X70.973 Y103.976 E.01607
G1 X71.643 Y103.983 E.02101
G1 X71.745 Y104.184 E.00707
G1 X71.877 Y104.256 E.00471
G1 X73.511 Y104.875 E.05479
G1 X74.523 Y106.018 E.04787
G1 X74.889 Y107.5 E.04786
G1 X74.706 Y108.241 E.02393
G1 X74.523 Y108.982 E.02393
G1 X73.511 Y110.125 E.04787
G1 X72.084 Y110.666 E.04785
G1 X70.568 Y110.482 E.04788
G1 X69.312 Y109.615 E.04785
G1 X68.603 Y108.263 E.04787
G1 X68.603 Y106.737 E.04785
G1 X69.318 Y105.372 E.04831
G1 X69.918 Y104.922 E.02352
G1 X70.107 Y104.671 E.00985
G1 X70.14 Y104.398 E.00862
G1 X70.072 Y103.863 E.01691
M204 P1000
G1 E-2.24 F4200
;WIPE_START
G1 F7200
G1 X70.064 Y103.803 E-.03354
G1 X70.464 Y103.916 E-.23034
G1 X70.973 Y103.976 E-.28402
G1 X71.643 Y103.983 E-.37131
G1 X71.676 Y104.049 E-.04079
;WIPE_END
G1 Z.4 F720
G1 X70.507 Y75.699 F9000
G1 Z.2 F720
G1 E3.2 F2400
M204 P600
G1 F1200
G1 X70.511 Y75.39 E.00969
G1 X70.399 Y75.066 E.01075
G1 X70.145 Y74.777 E.01206
G1 X69.613 Y74.377 E.02087
G1 X68.98 Y73.17 E.04273
G1 X68.98 Y71.83 E.04201
G1 X69.603 Y70.643 E.04203
G1 X70.706 Y69.881 E.04203
G1 X72.037 Y69.719 E.04204
G1 X73.291 Y70.195 E.04206
G1 X74.18 Y71.198 E.04202
G1 X74.5 Y72.5 E.04204
G1 X74.18 Y73.802 E.04204
G1 X73.291 Y74.805 E.04202
G1 X71.744 Y75.392 E.05188
G1 X71.523 Y75.511 E.00787
G1 X71.456 Y75.642 E.00461
G1 X71.119 Y75.645 E.01057
G1 X70.567 Y75.693 E.01737
M204 P1000
G1 X70.064 Y76.197 F9000
M204 P600
G1 F1200
G1 X70.14 Y75.602 E.01881
G1 X70.107 Y75.329 E.00862
G1 X69.918 Y75.078 E.00985
G1 X69.318 Y74.628 E.02352
G1 X68.603 Y73.263 E.04831
G1 X68.603 Y71.737 E.04785
G1 X69.312 Y70.385 E.04787
G1 X70.568 Y69.518 E.04785
G1 X72.084 Y69.334 E.04788
G1 X73.511 Y69.875 E.04785
G1 X74.523 Y71.018 E.04787
G1 X74.889 Y72.5 E.04786
G1 X74.523 Y73.982 E.04786
G1 X73.511 Y75.125 E.04787
G1 X71.745 Y75.816 E.05946
G1 X71.643 Y76.017 E.00707
G1 X71.122 Y76.022 E.01634
G1 X70.604 Y76.067 E.0163
G1 X70.123 Y76.183 E.01551
M204 P1000
G1 E-2.24 F4200
;WIPE_START
G1 F7200
G1 X70.064 Y76.197 E-.0336
G1 X70.14 Y75.602 E-.33241
G1 X70.107 Y75.329 E-.15239
G1 X69.918 Y75.078 E-.17412
G1 X69.532 Y74.788 E-.26748
;WIPE_END
G1 Z.4 F720
G1 X70.023 Y103.396 F9000
G1 Z.2 F720
G1 E3.2 F2400
M204 P600
;TYPE:External perimeter
G1 F1200
G1 X70.48 Y103.535 E.01498
G1 X70.976 Y103.599 E.01568
G1 X71.889 Y103.608 E.02863
G1 X71.889 Y103.727 E.00373
G1 X72.011 Y103.903 E.00671
G1 X73.732 Y104.556 E.05771
G1 X74.867 Y105.837 E.05366
G1 X75.277 Y107.5 E.0537
G1 X75.072 Y108.331 E.02684
G1 X74.867 Y109.163 E.02687
G1 X73.732 Y110.444 E.05366
G1 X72.131 Y111.052 E.0537
G1 X70.431 Y110.845 E.0537
G1 X69.021 Y109.872 E.05371
G1 X68.226 Y108.356 E.05367
G1 X68.226 Y106.644 E.05368
G1 X69.024 Y105.122 E.05388
G1 X69.628 Y104.668 E.02369
G1 X69.755 Y104.537 E.00572
G1 X69.748 Y104.306 E.00725
G1 X69.579 Y103.216 E.03458
;WIDTH:0.375339
G1 X69.579 Y76.784 E.7306
;WIDTH:0.390322
G1 X69.587 Y76.651 E.00385
;WIDTH:0.419999
G1 X69.69 Y76.149 E.01607
G1 X69.765 Y75.502 E.02042
G1 X69.692 Y75.38 E.00446
G1 X69.024 Y74.878 E.0262
G1 X68.226 Y73.356 E.05388
G1 X68.226 Y71.644 E.05368
G1 X69.021 Y70.128 E.05367
G1 X70.431 Y69.155 E.05371
G1 X72.131 Y68.948 E.0537
G1 X73.732 Y69.556 E.0537
G1 X74.867 Y70.837 E.05366
G1 X75.277 Y72.5 E.0537
G1 X74.867 Y74.163 E.0537
G1 X73.732 Y75.444 E.05366
G1 X72.011 Y76.097 E.05771
G1 X71.889 Y76.273 E.00671
G1 X71.889 Y76.392 E.00373
G1 X71.126 Y76.399 E.02392
G1 X70.511 Y76.458 E.01937
G1 X70.023 Y76.604 E.01597
G1 X69.918 Y76.717 E.00484
;WIDTH:0.390322
G1 X69.912 Y76.784 E.00194
;WIDTH:0.375339
G1 X69.912 Y103.216 E.7306
;WIDTH:0.377858
G1 X69.913 Y103.245 E.00081
;WIDTH:0.419999
G1 X69.988 Y103.348 E.00399
M204 P1000
G1 E-2.24 F4200
;WIPE_START
G1 F7200
G1 X70.023 Y103.396 E-.03292
G1 X70.48 Y103.535 E-.26471
G1 X70.976 Y103.599 E-.27715
G1 X71.671 Y103.606 E-.38522
;WIPE_END
G1 Z.4 F720
G1 X74.074 Y106.48 F9000
G1 Z.2 F720
G1 E3.2 F2400
M204 P600
;TYPE:Solid infill
;WIDTH:0.44624
G1 F1200
G1 X73.068 Y105.473 E.04774
G1 X72.149 Y105.125 E.03296
G1 X74.029 Y107.005 E.08916
G1 X74.151 Y107.5 E.0171
G1 X74.112 Y107.658 E.00546
G1 X71.145 Y104.691 E.14072
G1 X70.841 Y104.684 E.0102
G1 X70.784 Y104.901 E.00752
G1 X73.999 Y108.116 E.15248
G1 X73.886 Y108.573 E.01579
G1 X70.578 Y105.265 E.15689
G1 X70.285 Y105.542 E.01352
G1 X73.641 Y108.898 E.15917
G1 X73.373 Y109.201 E.01357
G1 X69.959 Y105.787 E.16192
G1 X69.878 Y105.848 E.0034
G1 X69.731 Y106.129 E.01064
G1 X73.105 Y109.503 E.16002
G1 X72.698 Y109.667 E.01472
G1 X69.534 Y106.503 E.15006
G1 X69.338 Y106.877 E.01416
G1 X72.285 Y109.824 E.13977
G1 X71.995 Y109.934 E.0104
G1 X71.801 Y109.91 E.00656
G1 X69.319 Y107.429 E.11769
G1 X69.319 Y107.999 E.01912
G1 X71.151 Y109.831 E.08689
G1 X70.83 Y109.792 E.01084
G1 X69.9 Y109.15 E.0379
G1 X69.449 Y108.699 E.02139
M204 P1000
G1 E-2.24 F4200
;WIPE_START
G1 F7200
G1 X69.9 Y109.15 E-.35345
G1 X70.801 Y109.772 E-.60655
;WIPE_END
G1 Z.4 F720
G1 X74.071 Y71.468 F9000
G1 Z.2 F720
G1 E3.2 F2400
M204 P600
;WIDTH:0.434067
G1 F1200
G1 X73.082 Y70.478 E.04551
G1 X72.19 Y70.141 E.03101
G1 X74.02 Y71.971 E.08417
G1 X74.151 Y72.5 E.01772
G1 X74.12 Y72.624 E.00416
G1 X71.61 Y70.113 E.11547
G1 X71.117 Y70.173 E.01615
G1 X74.011 Y73.068 E.13314
G1 X73.902 Y73.511 E.01484
G1 X70.693 Y70.303 E.14758
G1 X70.366 Y70.528 E.01291
G1 X73.685 Y73.848 E.15268
G1 X73.425 Y74.141 E.01274
G1 X70.038 Y70.754 E.15579
G1 X69.864 Y70.874 E.00687
G1 X69.775 Y71.044 E.00624
G1 X73.165 Y74.435 E.15595
G1 X73.092 Y74.518 E.0036
G1 X72.804 Y74.627 E.01002
G1 X69.585 Y71.407 E.14808
G1 X69.394 Y71.77 E.01334
G1 X72.403 Y74.779 E.1384
G1 X72.002 Y74.931 E.01395
G1 X69.319 Y72.248 E.12341
G1 X69.319 Y72.801 E.01799
G1 X71.602 Y75.084 E.10501
G1 X71.299 Y75.249 E.01122
G1 X71.27 Y75.304 E.00202
G1 X69.211 Y73.246 E.09468
M204 P1000
G1 E-2.24 F4200
;WIPE_START
G1 F7200
G1 X70.436 Y74.471 E-.96
;WIPE_END
G1 Z.4 F720
G1 X85.641 Y74.088 F9000
G1 Z.2 F720
G1 E3.2 F2400
M204 P600
;TYPE:Perimeter
;WIDTH:0.419999
G1 F1200
G1 X85.578 Y74.279 E.00631
G1 X85.584 Y80.553 E.19672
G1 X85.643 Y81.273 E.02265
G1 X85.364 Y81.247 E.00879
G1 X81.364 Y81.238 E.12542
G1 X81.364 Y78.064 E.09952
G1 X82.671 Y78.064 E.04098
G1 X83.089 Y77.967 E.01345
G1 X83.338 Y77.788 E.00962
G1 X83.536 Y77.496 E.01106
G1 X83.614 Y77.121 E.01201
G1 X83.614 Y73.664 E.10839
G1 X85.847 Y73.664 E.07001
G1 X85.766 Y73.713 E.00297
G1 X85.66 Y74.031 E.01051
M204 P1000
G1 X85.987 Y74.183 F9000
M204 P600
G1 F1200
G1 X85.955 Y74.279 E.00317
G1 X85.961 Y80.532 E.19606
G1 X85.995 Y81.096 E.01772
G1 X86.102 Y81.733 E.02025
G1 X85.901 Y81.684 E.00649
G1 X85.363 Y81.624 E.01697
G1 X80.987 Y81.614 E.13721
G1 X80.987 Y77.687 E.12313
G1 X82.671 Y77.687 E.0528
G1 X82.922 Y77.629 E.00808
G1 X83.071 Y77.521 E.00577
G1 X83.19 Y77.346 E.00664
G1 X83.237 Y77.121 E.00721
G1 X83.237 Y73.287 E.12021
G1 X85.741 Y73.287 E.07851
;WIDTH:0.444651
G1 X86.52 Y73.299 E.02602
;WIDTH:0.44629
G1 X104.081 Y73.297 E.589
;WIDTH:0.463419
G1 X105.01 Y73.306 E.03248
G1 X105.073 Y73.756 E.01589
G1 X104.573 Y73.708 E.01756
;WIDTH:0.451399
G1 X104.065 Y73.7 E.01726
;WIDTH:0.446206
G1 X86.52 Y73.701 E.58834
;WIDTH:0.450551
G1 X86.42 Y73.706 E.00339
G1 X86.068 Y73.939 E.01431
;WIDTH:0.419999
G1 X86.005 Y74.126 E.00619
M204 P1000
G1 X86.332 Y74.279 F9000
M204 P600
;TYPE:External perimeter
G1 F1200
G1 X86.336 Y79.513 E.16411
G1 X86.361 Y80.948 E.045
G1 X86.437 Y81.449 E.01589
;WIDTH:0.42075
G1 X86.529 Y82.004 E.01767
;WIDTH:0.4423
G1 X86.521 Y82.384 E.01262
G1 X86.373 Y82.2 E.00784
;WIDTH:0.424331
G1 X85.886 Y82.064 E.01604
;WIDTH:0.419999
G1 X85.363 Y82.001 E.01652
G1 X80.609 Y81.99 E.14906
G1 X80.609 Y77.31 E.14674
G1 X82.671 Y77.31 E.06465
G1 X82.804 Y77.255 E.00451
G1 X82.859 Y77.121 E.00454
G1 X82.859 Y72.91 E.13203
G1 X105.367 Y72.907 E.70572
G1 X105.437 Y73.54 E.01997
G1 X105.532 Y74.038 E.0159
G1 X105.646 Y74.484 E.01443
;WIDTH:0.394275
G1 X105.599 Y74.378 E.00339
;WIDTH:0.419999
G1 X105.301 Y74.215 E.01065
G1 X105.08 Y74.158 E.00716
G1 X104.565 Y74.101 E.01625
G1 X104.065 Y74.091 E.01568
G1 X86.52 Y74.09 E.55011
G1 X86.369 Y74.166 E.0053
G1 X86.351 Y74.222 E.00184
M204 P1000
G1 E-2.24 F4200
;WIPE_START
G1 F7200
G1 X86.332 Y74.279 E-.0333
G1 X86.333 Y75.951 E-.9267
;WIPE_END
G1 Z.4 F720
G1 X105.646 Y74.484 F9000
G1 Z.2 F720
G1 E3.2 F2400
M204 P600
;WIDTH:0.38292
G1 F1200
G1 X105.645 Y105.529 E.87768
M204 P1000
G1 E-2.24 F4200
;WIPE_START
G1 F7200
G1 X105.645 Y103.797 E-.96
;WIPE_END
G1 Z.4 F720
G1 X86.519 Y97.651 F9000
G1 Z.2 F720
G1 E3.2 F2400
M204 P600
;WIDTH:0.445326
G1 F1200
G1 X86.521 Y97.616 E.00117
;WIDTH:0.4423
G1 X86.521 Y82.384 E.50583
M204 P1000
G1 E-2.24 F4200
;WIPE_START
G1 F7200
M73 P0 R145
G1 X86.521 Y84.116 E-.96
;WIPE_END
G1 Z.4 F720
G1 X85.643 Y98.727 F9000
G1 Z.2 F720
G1 E3.2 F2400
M204 P600
;TYPE:Perimeter
;WIDTH:0.419999
G1 F1200
G1 X85.612 Y98.946 E.00694
G1 X85.583 Y99.499 E.01736
G1 X85.578 Y105.721 E.19509
G1 X85.766 Y106.287 E.0187
G1 X85.865 Y106.336 E.00346
G1 X83.614 Y106.336 E.07058
G1 X83.614 Y102.879 E.10839
G1 X83.536 Y102.504 E.01201
G1 X83.338 Y102.212 E.01106
G1 X83.089 Y102.033 E.00962
G1 X82.671 Y101.936 E.01345
G1 X81.364 Y101.936 E.04098
G1 X81.364 Y98.762 E.09952
G1 X84.927 Y98.754 E.11172
G1 X85.583 Y98.729 E.02058
M204 P1000
G1 X86.102 Y98.267 F9000
M204 P600
G1 F1200
G1 X85.988 Y98.966 E.02221
G1 X85.96 Y99.499 E.01673
G1 X85.955 Y105.721 E.19509
G1 X86.068 Y106.061 E.01123
;WIDTH:0.444651
G1 X86.52 Y106.299 E.01706
;WIDTH:0.446206
G1 X104.065 Y106.3 E.58834
;WIDTH:0.447069
G1 X104.103 Y106.299 E.00128
;WIDTH:0.470199
G1 X105.069 Y106.246 E.03437
G1 X104.998 Y106.691 E.01601
G1 X104.065 Y106.703 E.03315
;WIDTH:0.446206
G1 X86.52 Y106.701 E.58834
;WIDTH:0.444651
G1 X85.741 Y106.713 E.02602
;WIDTH:0.419999
G1 X83.237 Y106.713 E.07851
G1 X83.237 Y102.879 E.12021
G1 X83.19 Y102.654 E.00721
G1 X83.071 Y102.479 E.00664
G1 X82.922 Y102.371 E.00577
G1 X82.671 Y102.313 E.00808
G1 X80.987 Y102.313 E.0528
G1 X80.987 Y98.386 E.12313
G1 X85.482 Y98.366 E.14094
G1 X86.043 Y98.276 E.01781
M204 P1000
G1 X86.519 Y97.651 F9000
M204 P600
;TYPE:External perimeter
;WIDTH:0.445326
G1 F1200
G1 X86.528 Y97.918 E.00894
;WIDTH:0.426999
G1 X86.455 Y98.444 E.01696
;WIDTH:0.419999
G1 X86.365 Y98.987 E.01726
G1 X86.337 Y99.499 E.01608
G1 X86.332 Y105.721 E.19509
G1 X86.369 Y105.834 E.00373
G1 X86.52 Y105.91 E.0053
G1 X104.065 Y105.909 E.55011
G1 X104.865 Y105.857 E.02514
G1 X105.301 Y105.785 E.01386
G1 X105.599 Y105.619 E.0107
G1 X105.422 Y106.563 E.03011
G1 X105.358 Y107.093 E.01674
G1 X82.859 Y107.09 E.70544
G1 X82.859 Y102.879 E.13203
G1 X82.804 Y102.745 E.00454
G1 X82.671 Y102.69 E.00451
G1 X80.609 Y102.69 E.06465
G1 X80.609 Y98.01 E.14674
G1 X85.363 Y97.999 E.14906
G1 X85.857 Y97.942 E.01559
;WIDTH:0.422932
G1 X86.324 Y97.813 E.01531
;WIDTH:0.445326
G1 X86.473 Y97.689 E.00649
M204 P1000
G1 E-2.24 F4200
;WIPE_START
G1 F7200
G1 X86.519 Y97.651 E-.03306
G1 X86.528 Y97.918 E-.14805
;WIPE_END
G1 E-.77889 F4200
G1 Z.4 F720
G1 X85.413 Y99.694 F9000
G1 Z.2 F720
G1 E3.2 F2400
M204 P600
;TYPE:Solid infill
;WIDTH:0.439848
G1 F1200
G1 X84.811 Y99.093 E.02808
G1 X84.251 Y99.094 E.01848
G1 X85.243 Y100.086 E.0463
G1 X85.243 Y100.647 E.01852
G1 X83.691 Y99.095 E.07244
G1 X83.131 Y99.097 E.01848
G1 X85.242 Y101.207 E.09851
G1 X85.242 Y101.768 E.01852
G1 X82.572 Y99.098 E.12462
G1 X82.012 Y99.1 E.01848
G1 X85.241 Y102.329 E.15072
G1 X85.241 Y102.89 E.01852
G1 X81.703 Y99.352 E.16514
G1 X81.703 Y99.914 E.01855
G1 X85.24 Y103.451 E.16509
G1 X85.24 Y104.012 E.01852
G1 X83.917 Y102.689 E.06175
G1 X83.851 Y102.369 E.01078
G1 X83.581 Y101.972 E.01585
G1 X83.239 Y101.727 E.01389
G1 X82.836 Y101.608 E.01387
G1 X81.703 Y100.475 E.05288
G1 X81.703 Y101.036 E.01852
G1 X82.438 Y101.771 E.03431
M204 P1000
G1 E-2.24 F4200
;WIPE_START
G1 F7200
G1 X81.703 Y101.036 E-.57603
G1 X81.703 Y100.475 E-.31089
G1 X81.796 Y100.568 E-.07308
;WIPE_END
G1 Z.4 F720
G1 X83.783 Y103.117 F9000
G1 Z.2 F720
G1 E3.2 F2400
M204 P600
G1 F1200
G1 X85.239 Y104.573 E.06796
G1 X85.239 Y105.133 E.01848
G1 X83.953 Y103.848 E.06
G1 X83.953 Y104.409 E.01852
G1 X85.238 Y105.694 E.05998
G1 X85.238 Y105.745 E.00168
G1 X85.322 Y105.997 E.00877
G1 X84.979 Y105.997 E.01132
G1 X83.953 Y104.97 E.04791
G1 X83.953 Y105.532 E.01855
G1 X84.588 Y106.166 E.02962
M204 P1000
G1 E-2.24 F4200
;WIPE_START
G1 F7200
G1 X83.953 Y105.532 E-.49726
G1 X83.953 Y104.97 E-.31144
G1 X84.146 Y105.163 E-.1513
;WIPE_END
G1 Z.4 F720
G1 X84.792 Y73.834 F9000
G1 Z.2 F720
G1 E3.2 F2400
M204 P600
;WIDTH:0.424818
G1 F1200
G1 X85.238 Y74.28 E.02003
G1 X85.239 Y74.82 E.01715
G1 X84.422 Y74.003 E.03669
G1 X83.953 Y74.003 E.01489
G1 X83.953 Y74.075 E.00229
G1 X85.239 Y75.361 E.05775
G1 X85.24 Y75.901 E.01715
G1 X83.953 Y74.615 E.05777
G1 X83.953 Y75.155 E.01715
G1 X85.24 Y76.442 E.0578
G1 X85.24 Y76.982 E.01715
