; generated by Slic3r 1.3.1-dev (Build 6eeea77) on 2020-12-21 at 10:19:14

; external perimeters extrusion width = 0.44mm (2.86mm^3/s)
; perimeters extrusion width = 0.56mm (4.14mm^3/s)
; infill extrusion width = 0.50mm (3.66mm^3/s)
; solid infill extrusion width = 0.56mm (3.10mm^3/s)
; top infill extrusion width = 0.45mm (2.44mm^3/s)

M107
G92 E0
;D3D:START:START
T0
M104 S215 T0

G21
G90
M107
T0
G28
G29
M109 T0 S215 T0
G0 F3000
M107
T0
G92 E0
G0 X0 Y149 Z0.1 F3600
G1 Y49 E6.5 F1200
G0 Z1
G92 E0
; Filament gcode

G21 ; set units to millimeters
G90 ; use absolute coordinates
M82 ; use absolute distances for extrusion
G92 E0
G1 Z0.300 F6000.000
G1 E-2.00000 F1200.00000
G92 E0
G1 Z0.800 F6000.000
G1 X50.465 Y65.039 F6000.000
G1 Z0.300 F6000.000
G1 E2.00000 F1200.00000
G1 F1800.000
G1 X52.395 Y63.755 E2.10372
G1 X55.124 Y63.181 E2.22845
G1 X57.900 Y63.181 E2.35261
G1 X58.963 Y63.265 E2.40033
G1 X96.063 Y69.165 E4.08066
G1 X98.257 Y69.916 E4.18438
G1 X100.069 Y71.363 E4.28810
G1 X101.287 Y73.337 E4.39182
G1 X101.771 Y75.852 E4.50641
G1 X101.771 Y76.002 E4.51312
G1 X101.374 Y78.287 E4.61684
G1 X100.230 Y80.303 E4.72057
G1 X98.472 Y81.816 E4.82429
G1 X96.417 Y82.623 E4.92302
G1 X83.868 Y85.307 E5.49704
G1 X80.603 Y85.913 E5.64559
G1 X77.072 Y86.417 E5.80515
G1 X73.549 Y86.731 E5.96336
G1 X73.106 Y86.755 E5.98319
G1 X70.123 Y86.817 E6.11666
G1 X69.599 Y86.807 E6.14006
G1 X66.671 Y86.639 E6.27125
G1 X66.030 Y86.571 E6.30011
G1 X63.388 Y86.161 E6.41968
G1 X62.639 Y86.000 E6.45396
G1 X60.259 Y85.349 E6.56434
G1 X59.406 Y85.053 E6.60473
G1 X57.324 Y84.171 E6.70583
G1 X56.475 Y83.739 E6.74844
G1 X53.260 Y81.805 E6.91629
G1 X51.507 Y80.287 E7.02001
G1 X50.703 Y79.049 E7.08601
G1 X49.770 Y77.198 E7.17875
G1 X49.520 Y76.640 E7.20610
G1 X48.908 Y75.092 E7.28054
G1 X48.485 Y73.437 E7.35694
G1 X48.280 Y71.787 E7.43134
G1 X48.280 Y70.118 E7.50600
G1 X48.405 Y69.118 E7.55107
G1 X49.080 Y66.899 E7.65479
G1 X50.429 Y65.087 E7.75583
G1 X50.826 Y65.230 F6000.000
G1 F1800.000
G1 X52.732 Y64.032 E7.85653
G1 X55.124 Y63.567 E7.96554
G1 X57.900 Y63.567 E8.08970
G1 X58.903 Y63.646 E8.13470
G1 X96.003 Y69.546 E9.81503
G1 X98.129 Y70.286 E9.91573
G1 X99.866 Y71.718 E10.01643
G1 X100.999 Y73.663 E10.11713
G1 X101.386 Y75.852 E10.21655
G1 X101.386 Y76.002 E10.22326
G1 X100.989 Y78.218 E10.32396
G1 X99.847 Y80.159 E10.42466
G1 X98.104 Y81.583 E10.52536
G1 X96.337 Y82.246 E10.60979
G1 X83.798 Y84.928 E11.18334
G1 X80.533 Y85.534 E11.33188
G1 X77.018 Y86.035 E11.49069
G1 X73.515 Y86.347 E11.64797
G1 X73.098 Y86.369 E11.66667
G1 X70.115 Y86.431 E11.80014
G1 X69.621 Y86.422 E11.82222
G1 X66.694 Y86.254 E11.95337
G1 X66.089 Y86.190 E11.98058
G1 X63.447 Y85.780 E12.10015
G1 X62.741 Y85.629 E12.13248
G1 X60.360 Y84.977 E12.24286
G1 X59.556 Y84.698 E12.28095
G1 X57.475 Y83.816 E12.38205
G1 X56.674 Y83.408 E12.42224
G1 X53.459 Y81.474 E12.59008
G1 X51.764 Y79.992 E12.69078
G1 X51.048 Y78.876 E12.75011
G1 X50.114 Y77.024 E12.84285
G1 X49.878 Y76.498 E12.86864
G1 X49.267 Y74.951 E12.94308
G1 X48.868 Y73.390 E13.01513
G1 X48.663 Y71.739 E13.08953
G1 X48.663 Y70.165 E13.15994
G1 X48.787 Y69.165 E13.20501
G1 X49.454 Y67.015 E13.30572
G1 X50.789 Y65.277 E13.40373
G1 E11.40373 F1200.00000
G92 E0
G1 Z0.800 F6000.000
G1 X70.979 Y77.956 F6000.000
G1 Z0.300 F6000.000
G1 E2.00000 F1200.00000
G1 F1800.000
G1 X67.021 Y77.956 E2.17700
G1 X67.021 Y78.864 E2.21763
G1 X64.618 Y78.491 E2.32642
G1 X64.944 Y78.166 E2.34701
G1 X65.143 Y77.908 E2.36156
G1 X65.309 Y77.628 E2.37612
G1 X65.438 Y77.330 E2.39067
G1 X65.529 Y77.017 E2.40523
G1 X65.555 Y76.848 E2.41288
G1 X78.437 Y76.848 E2.98909
G1 X78.464 Y77.019 E2.99681
G1 X78.555 Y77.332 E3.01141
G1 X78.685 Y77.632 E3.02600
G1 X78.863 Y77.933 E3.04165
G1 X79.159 Y78.279 E3.06202
G1 X76.016 Y78.721 E3.20399
G1 X72.912 Y78.990 E3.34333
G1 X70.979 Y79.030 E3.42984
G1 X70.979 Y78.016 E3.47518
G1 X70.593 Y78.342 F6000.000
G1 F1800.000
G1 X67.407 Y78.342 E3.61769
G1 X67.407 Y79.288 E3.66002
G1 X67.133 Y79.272 E3.67228
G1 X64.555 Y78.872 E3.78900
G1 X63.588 Y78.607 E3.83382
G1 X64.075 Y78.378 E3.85788
G1 X64.448 Y78.116 E3.87824
G1 X64.654 Y77.910 E3.89127
G1 X64.823 Y77.691 E3.90366
G1 X64.964 Y77.453 E3.91604
G1 X65.074 Y77.199 E3.92842
G1 X65.151 Y76.933 E3.94081
G1 X65.195 Y76.660 E3.95319
G1 X65.201 Y76.463 E3.96200
G1 X78.792 Y76.463 E4.56991
G1 X78.798 Y76.660 E4.57875
G1 X78.841 Y76.935 E4.59118
G1 X78.919 Y77.201 E4.60360
G1 X79.029 Y77.456 E4.61603
G1 X79.178 Y77.708 E4.62910
G1 X79.475 Y78.055 E4.64954
G1 X79.700 Y78.242 E4.66261
G1 X80.104 Y78.498 E4.68402
G1 X79.269 Y78.653 E4.72200
G1 X76.059 Y79.105 E4.86700
G1 X72.933 Y79.375 E5.00736
G1 X70.593 Y79.423 E5.11205
G1 X70.593 Y78.402 E5.15775
G1 E3.15775 F1200.00000
G92 E0
G1 Z0.800 F6000.000
G1 X83.409 Y77.456 F6000.000
G1 Z0.300 F6000.000
G1 E2.00000 F1200.00000
G1 F1800.000
G1 X83.536 Y77.019 E2.02036
G1 X83.563 Y76.848 E2.02809
G1 X85.188 Y76.848 E2.10077
G1 X85.210 Y77.054 E2.11004
G1 X83.467 Y77.443 E2.18992
G1 X82.704 Y77.846 F6000.000
G1 F1800.000
G1 X82.822 Y77.708 E2.19807
G1 X82.971 Y77.456 E2.21114
G1 X83.081 Y77.201 E2.22357
G1 X83.159 Y76.935 E2.23599
G1 X83.202 Y76.660 E2.24841
G1 X83.208 Y76.463 E2.25725
G1 X88.331 Y76.463 E2.48639
G1 X88.356 Y76.665 E2.49552
G1 X85.730 Y77.334 E2.61673
G1 X82.790 Y77.989 E2.75149
G1 X82.735 Y77.898 E2.75626
G1 E0.75626 F1200.00000
G92 E0
G1 Z0.800 F6000.000
G1 X61.005 Y77.713 F6000.000
G1 Z0.300 F6000.000
G1 E2.00000 F1200.00000
G1 F1800.000
G1 X60.248 Y77.393 E2.03678
G1 X59.025 Y76.630 E2.10123
G1 X59.073 Y76.463 E2.10903
G1 X60.799 Y76.463 E2.18623
G1 X60.805 Y76.660 E2.19504
G1 X60.849 Y76.933 E2.20742
G1 X60.926 Y77.199 E2.21981
G1 X61.036 Y77.453 E2.23219
G1 X61.115 Y77.587 E2.23917
G1 X61.044 Y77.668 E2.24398
G1 E0.24398 F1200.00000
G92 E0
G1 Z0.800 F6000.000
G1 X67.793 Y78.727 F6000.000
G1 Z0.300 F6000.000
G1 E2.00000 F1200.00000
G1 F1800.000
G1 X67.793 Y79.697 E2.04337
G1 X67.092 Y79.656 E2.07475
G1 X64.474 Y79.249 E2.19327
G1 X62.121 Y78.605 E2.30241
G1 X60.070 Y77.736 E2.40205
G1 X58.353 Y76.666 E2.49255
G1 X57.709 Y76.077 E2.53155
G1 X61.213 Y76.077 E2.68826
G1 X61.183 Y76.395 E2.70254
G1 X61.190 Y76.623 E2.71275
G1 X61.226 Y76.849 E2.72297
G1 X61.289 Y77.068 E2.73318
G1 X61.380 Y77.278 E2.74339
G1 X61.499 Y77.479 E2.75385
G1 X61.751 Y77.774 E2.77122
G1 X61.931 Y77.923 E2.78168
G1 X62.124 Y78.045 E2.79189
G1 X62.331 Y78.143 E2.80210
G1 X62.548 Y78.213 E2.81232
G1 X62.772 Y78.256 E2.82253
G1 X63.000 Y78.270 E2.83274
G1 X63.228 Y78.256 E2.84296
G1 X63.452 Y78.213 E2.85317
G1 X63.669 Y78.143 E2.86338
G1 X63.881 Y78.043 E2.87383
G1 X64.199 Y77.820 E2.89121
G1 X64.364 Y77.655 E2.90166
G1 X64.504 Y77.474 E2.91188
G1 X64.620 Y77.278 E2.92209
G1 X64.711 Y77.068 E2.93230
G1 X64.774 Y76.849 E2.94252
G1 X64.810 Y76.623 E2.95273
G1 X64.817 Y76.395 E2.96294
G1 X64.787 Y76.077 E2.97723
G1 X79.205 Y76.077 E3.62215
G1 X79.175 Y76.395 E3.63642
G1 X79.183 Y76.624 E3.64668
G1 X79.219 Y76.850 E3.65693
G1 X79.282 Y77.071 E3.66719
G1 X79.374 Y77.281 E3.67744
G1 X79.493 Y77.483 E3.68793
G1 X79.746 Y77.779 E3.70538
G1 X79.927 Y77.929 E3.71587
G1 X80.121 Y78.052 E3.72613
G1 X80.328 Y78.149 E3.73638
G1 X80.546 Y78.220 E3.74664
G1 X80.771 Y78.263 E3.75689
G1 X81.000 Y78.278 E3.76714
G1 X81.229 Y78.263 E3.77740
G1 X81.454 Y78.220 E3.78765
G1 X81.672 Y78.149 E3.79791
G1 X81.879 Y78.052 E3.80816
G1 X82.073 Y77.929 E3.81841
G1 X82.254 Y77.779 E3.82891
G1 X82.507 Y77.483 E3.84636
G1 X82.626 Y77.281 E3.85685
G1 X82.718 Y77.071 E3.86710
G1 X82.781 Y76.850 E3.87736
G1 X82.817 Y76.624 E3.88761
G1 X82.825 Y76.395 E3.89786
G1 X82.795 Y76.077 E3.91214
G1 X91.181 Y76.077 E4.28724
G1 X91.208 Y76.277 E4.29626
G1 X88.976 Y76.906 E4.39998
G1 X85.820 Y77.709 E4.54567
G1 X82.588 Y78.429 E4.69379
G1 X79.331 Y79.034 E4.84193
G1 X76.103 Y79.488 E4.98776
G1 X72.954 Y79.760 E5.12915
G1 X70.207 Y79.817 E5.25201
G1 X70.207 Y78.727 E5.30076
G1 X67.853 Y78.727 E5.40609
G1 X67.397 Y78.671 F6000.000
G1 E3.40609 F1200.00000
G92 E0
G1 Z0.800 F6000.000
G1 X91.194 Y76.177 F6000.000
G1 Z0.300 F6000.000
G1 E2.00000 F1200.00000
G1 F1800.000
G1 X91.602 Y76.121 E2.02164
G1 F1800.000
G1 X92.161 Y76.042 E2.04521
G1 F1800.000
G1 X92.463 Y75.997 E2.05475
G1 F1800.000
G1 X92.765 Y75.951 E2.06110
G1 F1800.000
G1 X92.939 Y75.927 E2.06284
G1 X95.000 Y75.927 E2.08331
G1 E0.08331 F1200.00000
G92 E0
G1 Z0.800 F6000.000
G1 X56.904 Y73.679 F6000.000
G1 Z0.300 F6000.000
G1 E2.00000 F1200.00000
G1 F1800.000
G1 X56.716 Y73.714 E2.00856
G1 X56.178 Y72.354 E2.07397
G1 X56.003 Y70.948 E2.13735
G1 X56.904 Y70.948 E2.17762
G1 X56.904 Y73.619 E2.29706
G1 X57.289 Y74.893 F6000.000
G1 F1800.000
G1 X57.128 Y74.945 E2.30462
G1 X56.358 Y73.857 E2.36423
G1 X55.801 Y72.451 E2.43190
G1 X55.615 Y70.952 E2.49944
G1 X55.664 Y70.563 E2.51699
G1 X57.289 Y70.563 E2.58970
G1 X57.289 Y74.833 E2.78072
G1 X57.675 Y76.046 F6000.000
G1 F1800.000
G1 X56.995 Y75.424 E2.82192
G1 X56.016 Y74.043 E2.89767
G1 X55.425 Y72.547 E2.96961
G1 X55.227 Y70.952 E3.04149
G1 X55.323 Y70.177 E3.07642
G1 X57.675 Y70.177 E3.18163
G1 X57.675 Y75.986 E3.44144
G1 X57.423 Y75.735 F6000.000
G1 X57.545 Y75.927 F6000.000
G1 F1800.000
G1 X56.750 Y75.927 E3.44934
G1 E1.44934 F1200.00000
G92 E0
G1 Z0.800 F6000.000
G1 X56.689 Y73.063 F6000.000
G1 Z0.300 F6000.000
G1 E2.00000 F1200.00000
G1 F1800.000
G1 X56.638 Y72.796 E2.00122
G1 F1800.000
G1 X56.587 Y72.529 E2.00553
G1 F1800.000
G1 X56.537 Y72.263 E2.01293
G1 F1800.000
G1 X56.490 Y71.515 E2.04084
G1 F1800.000
G1 X56.467 Y71.141 E2.05798
G1 E0.05798 F1200.00000
G92 E0
G1 Z0.800 F6000.000
G1 X60.191 Y76.656 F6000.000
G1 Z0.300 F6000.000
G1 E2.00000 F1200.00000
G1 F1800.000
G1 X60.441 Y77.022 E2.01972
G1 X60.767 Y77.403 E2.04209
G1 X61.199 Y77.785 F6000.000
G1 F1800.000
G1 X61.648 Y78.079 E2.05385
G1 F1800.000
G1 X61.771 Y78.153 E2.05572
G1 F1800.000
G1 X62.235 Y78.375 E2.05938
G1 X62.744 Y78.510 E2.06313
G1 F1800.000
G1 X63.025 Y78.556 E2.06718
G1 X63.140 Y78.526 E2.06887
G1 F1800.000
G1 X63.446 Y78.435 E2.07004
G1 X64.202 Y78.575 F6000.000
G1 F1800.000
G1 X64.353 Y78.448 E2.07029
G1 X65.117 Y78.541 F6000.000
G1 F1800.000
G1 X65.598 Y78.615 E2.09248
G1 X66.949 Y77.263 E2.17961
G1 X66.949 Y77.819 E2.20494
G1 X66.079 Y78.690 E2.26107
G1 X66.181 Y76.920 F6000.000
G1 F1800.000
G1 X65.554 Y77.548 E2.30152
G1 X65.488 Y77.774 E2.31226
G1 X65.339 Y78.117 E2.32931
G1 X65.075 Y78.534 E2.35179
G1 X65.117 Y78.541 E2.35369
G1 X66.737 Y76.920 E2.45812
G1 X67.292 Y76.920 E2.48344
G1 X66.329 Y77.884 E2.54555
G1 X66.885 Y77.884 E2.57088
G1 X67.848 Y76.920 E2.63298
G1 X68.404 Y76.920 E2.65831
G1 X67.440 Y77.884 E2.72041
G1 X67.996 Y77.884 E2.74574
G1 X68.959 Y76.920 E2.80785
G1 X69.515 Y76.920 E2.83317
G1 X68.552 Y77.884 E2.89528
G1 X69.107 Y77.884 E2.92061
G1 X70.071 Y76.920 E2.98271
G1 X70.627 Y76.920 E3.00804
G1 X69.663 Y77.884 E3.07014
G1 X70.219 Y77.884 E3.09547
G1 X71.182 Y76.920 E3.15758
G1 X71.738 Y76.920 E3.18290
G1 X70.774 Y77.884 E3.24501
G1 X71.051 Y77.884 E3.25759
G1 X71.051 Y78.163 E3.27034
G1 X72.294 Y76.920 E3.35046
G1 X72.849 Y76.920 E3.37579
G1 X71.051 Y78.719 E3.49173
G1 X71.051 Y78.950 E3.50223
G1 X71.383 Y78.943 E3.51738
G1 X73.405 Y76.920 E3.64773
G1 X73.961 Y76.920 E3.67306
G1 X71.950 Y78.931 E3.80265
G1 X72.518 Y78.919 E3.82852
G1 X74.516 Y76.920 E3.95735
G1 X75.072 Y76.920 E3.98268
G1 X73.122 Y78.871 E4.10841
G1 X73.730 Y78.818 E4.13624
G1 X75.628 Y76.920 E4.25858
G1 X76.184 Y76.920 E4.28390
G1 X74.338 Y78.766 E4.40285
G1 X74.946 Y78.713 E4.43068
G1 X76.739 Y76.920 E4.54624
G1 X77.295 Y76.920 E4.57157
G1 X75.555 Y78.661 E4.68374
G1 X76.195 Y78.576 E4.71317
G1 X77.851 Y76.920 E4.81990
G1 X78.406 Y76.920 E4.84523
G1 X76.842 Y78.485 E4.94610
G1 X77.488 Y78.394 E4.97586
G1 X78.574 Y77.308 E5.04586
G1 X78.654 Y77.494 E5.05506
G1 X78.762 Y77.676 E5.06472
G1 X78.135 Y78.303 E5.10515
G1 E3.10515 F1200.00000
G92 E0
G1 Z0.800 F6000.000
G1 X80.306 Y78.370 F6000.000
G1 Z0.300 F6000.000
G1 E2.00000 F1200.00000
G1 F1800.000
G1 X80.489 Y78.456 E2.00079
G1 F1800.000
G1 X80.638 Y78.515 E2.00254
G1 X80.736 Y78.515 E2.00360
G1 F1800.000
G1 X80.998 Y78.499 E2.00434
G1 X81.756 Y78.357 F6000.000
G1 F1800.000
G1 X81.999 Y78.278 E2.00617
G1 F1800.000
G1 X82.127 Y78.228 E2.00798
G1 F1800.000
G1 X82.591 Y78.033 E2.01784
G1 X83.085 Y77.726 F6000.000
G1 F1800.000
G1 X83.146 Y77.586 E2.01801
G1 X83.708 Y77.116 F6000.000
G1 F1800.000
G1 X84.165 Y77.065 E2.01956
G1 X85.429 Y77.203 F6000.000
G1 F1800.000
G1 X85.637 Y76.903 E2.03781
G1 X85.835 Y76.878 E2.04780
G1 F1800.000
G1 X86.232 Y76.828 E2.06325
G1 F1800.000
G1 X86.630 Y76.779 E2.07414
G1 F1800.000
G1 X87.027 Y76.729 E2.08049
G1 F1800.000
G1 X87.424 Y76.679 E2.08228
G1 X88.535 Y76.540 F6000.000
G1 F1800.000
G1 X89.032 Y76.476 E2.10512
G1 F1800.000
G1 X89.362 Y76.430 E2.11684
G1 F1800.000
G1 X89.692 Y76.384 E2.12510
G1 F1800.000
G1 X90.023 Y76.339 E2.12989
G1 F1800.000
G1 X90.353 Y76.293 E2.13122
G1 Z0.500 F6000.000
G1 E0.13122 F1200.00000
G92 E0
G1 Z1.000 F6000.000
G1 X66.232 Y77.758 F6000.000
G1 Z0.500 F6000.000
G1 E2.00000 F1200.00000
G1 F1800.000
G1 X66.232 Y78.541 E2.03132
G1 X64.997 Y78.350 E2.08127
G1 X65.412 Y77.778 E2.10951
G1 X65.652 Y77.172 E2.13558
G1 X65.724 Y76.796 E2.15088
G1 X78.229 Y76.796 E2.65089
G1 X78.271 Y77.062 E2.66166
G1 X78.371 Y77.408 E2.67608
G1 X78.544 Y77.791 E2.69288
G1 X78.762 Y78.135 E2.70915
G1 X75.993 Y78.525 E2.82096
G1 X72.902 Y78.792 E2.94504
G1 X71.768 Y78.815 E2.99037
G1 X71.768 Y77.758 E3.03264
G1 X66.292 Y77.758 E3.25164
G1 X66.749 Y78.275 F6000.000
G1 F1800.000
G1 X66.749 Y79.145 E3.28642
G1 X64.569 Y78.806 E3.37463
G1 X63.722 Y78.575 E3.40974
G1 X64.131 Y78.371 E3.42801
G1 X64.370 Y78.209 E3.43955
G1 X64.636 Y77.967 E3.45396
G1 X64.955 Y77.527 E3.47568
G1 X65.153 Y77.027 E3.49718
G1 X65.211 Y76.726 E3.50943
G1 X65.232 Y76.279 E3.52732
G1 X78.720 Y76.279 E4.06663
G1 X78.732 Y76.667 E4.08213
G1 X78.776 Y76.949 E4.09357
G1 X78.858 Y77.229 E4.10522
G1 X79.001 Y77.545 E4.11910
G1 X79.157 Y77.791 E4.13075
G1 X79.343 Y78.016 E4.14241
G1 X79.599 Y78.249 E4.15628
G1 X79.917 Y78.465 E4.17163
G1 X79.258 Y78.587 E4.19840
G1 X76.052 Y79.039 E4.32788
G1 X72.929 Y79.308 E4.45320
G1 X71.251 Y79.343 E4.52031
G1 X71.251 Y78.275 E4.56302
G1 X66.809 Y78.275 E4.74067
G1 E2.74067 F1200.00000
G92 E0
G1 Z1.000 F6000.000
G1 X83.703 Y77.188 F6000.000
G1 Z0.500 F6000.000
G1 E2.00000 F1200.00000
G1 F1800.000
G1 X83.771 Y76.796 E2.01589
G1 X84.189 Y76.796 E2.03258
G1 X84.219 Y77.073 E2.04369
G1 X83.762 Y77.175 E2.06244
G1 X83.280 Y76.279 F6000.000
G1 F1800.000
G1 X88.503 Y76.279 E2.27125
G1 X88.537 Y76.551 E2.28220
G1 X85.715 Y77.269 E2.39863
G1 X82.756 Y77.929 E2.51983
G1 X82.997 Y77.550 E2.53777
G1 X83.118 Y77.291 E2.54921
G1 X83.208 Y77.014 E2.56086
G1 X83.268 Y76.672 E2.57473
G1 X83.279 Y76.339 E2.58804
G1 E0.58804 F1200.00000
G92 E0
G1 Z1.000 F6000.000
G1 X61.107 Y77.684 F6000.000
G1 Z0.500 F6000.000
G1 E2.00000 F1200.00000
G1 F1800.000
G1 X60.279 Y77.334 E2.03597
G1 X58.948 Y76.504 E2.09866
G1 X59.012 Y76.279 E2.10801
G1 X60.770 Y76.279 E2.17831
G1 X60.783 Y76.667 E2.19383
G1 X60.845 Y77.022 E2.20824
G1 X61.085 Y77.629 E2.23432
G1 E0.23432 F1200.00000
G92 E0
G1 Z1.000 F6000.000
G1 X56.706 Y72.465 F6000.000
G1 Z0.500 F6000.000
G1 E2.00000 F1200.00000
G1 F1800.000
G1 X56.454 Y72.513 E2.01027
G1 X56.371 Y72.305 E2.01922
G1 X56.227 Y71.146 E2.06591
G1 X56.706 Y71.146 E2.08503
G1 X56.706 Y72.405 E2.13537
G1 X57.223 Y70.629 F6000.000
G1 F1800.000
G1 X57.223 Y74.590 E2.29373
G1 X57.007 Y74.658 E2.30280
G1 X56.416 Y73.826 E2.34362
G1 X55.866 Y72.434 E2.40345
G1 X55.682 Y70.952 E2.46316
G1 X55.722 Y70.629 E2.47617
G1 X57.163 Y70.629 E2.53377
G1 E0.53377 F1200.00000
G92 E0
G1 Z1.000 F6000.000
G1 X57.680 Y75.822 F6000.000
G1 Z0.500 F6000.000
G1 E2.00000 F1200.00000
G1 F2160.000
G1 X61.337 Y75.822 E2.11229
G1 X61.253 Y76.174 E2.12339
G1 X61.231 Y76.397 E2.13026
G1 X61.238 Y76.620 E2.13714
G1 X61.287 Y76.897 E2.14578
G1 X61.448 Y77.305 E2.15924
G1 X61.706 Y77.660 E2.17271
G1 X61.914 Y77.849 E2.18135
G1 X62.097 Y77.974 E2.18813
G1 X62.256 Y78.060 E2.19369
G1 X62.506 Y78.151 E2.20186
G1 X62.725 Y78.200 E2.20875
G1 X63.005 Y78.222 E2.21739
