; generated by Slic3r 1.3.1-dev (Build 6eeea77) on 2020-12-21 at 10:18:36

; external perimeters extrusion width = 0.44mm (2.86mm^3/s)
; perimeters extrusion width = 0.56mm (4.14mm^3/s)
; infill extrusion width = 0.50mm (3.66mm^3/s)
; solid infill extrusion width = 0.56mm (3.10mm^3/s)
; top infill extrusion width = 0.45mm (2.44mm^3/s)

M107
G92 E0
;D3D:START:START
T0
M104 S215 T0

G21
G90
M107
T0
G28
G29
M109 T0 S215 T0
G0 F3000
M107
T0
G92 E0
G0 X0 Y149 Z0.1 F3600
G1 Y49 E6.5 F1200
G0 Z1
G92 E0
; Filament gcode

G21 ; set units to millimeters
G90 ; use absolute coordinates
M82 ; use absolute distances for extrusion
G92 E0
G1 Z0.300 F6000.000
G1 E-2.00000 F1200.00000
G92 E0
G1 Z0.800 F6000.000
G1 X49.770 Y58.199 F6000.000
G1 Z0.300 F6000.000
G1 E2.00000 F1200.00000
G1 F1800.000
G1 X51.528 Y56.687 E2.10372
G1 X53.693 Y55.856 E2.20744
G1 X55.000 Y55.729 E2.26617
G1 X95.000 Y55.729 E4.05536
G1 X97.285 Y56.126 E4.15908
G1 X99.301 Y57.270 E4.26280
G1 X100.813 Y59.028 E4.36652
G1 X101.644 Y61.193 E4.47024
G1 X101.771 Y62.500 E4.52897
G1 X101.771 Y87.350 E5.64051
G1 X101.374 Y89.635 E5.74423
G1 X100.230 Y91.651 E5.84795
G1 X98.472 Y93.163 E5.95167
G1 X96.307 Y93.994 E6.05539
G1 X95.000 Y94.121 E6.11412
G1 X58.010 Y94.121 E7.76867
G1 X55.725 Y93.724 E7.87239
G1 X53.709 Y92.580 E7.97612
G1 X51.989 Y90.448 E8.09862
G1 X48.979 Y84.598 E8.39290
G1 X48.229 Y81.500 E8.53548
G1 X48.229 Y62.500 E9.38534
G1 X48.626 Y60.215 E9.48906
G1 X49.741 Y58.251 E9.59010
G1 X50.153 Y58.343 F6000.000
G1 F1800.000
G1 X51.896 Y56.919 E9.69080
G1 X55.000 Y56.114 E9.83422
G1 X95.000 Y56.114 E11.62342
G1 X97.216 Y56.511 E11.72412
G1 X99.157 Y57.653 E11.82482
G1 X100.581 Y59.396 E11.92552
G1 X101.386 Y62.500 E12.06894
G1 X101.386 Y87.350 E13.18048
G1 X100.989 Y89.566 E13.28118
G1 X99.847 Y91.507 E13.38188
G1 X98.104 Y92.931 E13.48258
G1 X95.000 Y93.736 E13.62600
G1 X58.010 Y93.736 E15.28056
G1 X55.794 Y93.339 E15.38126
G1 X53.853 Y92.197 E15.48196
G1 X52.332 Y90.272 E15.59174
G1 X49.322 Y84.422 E15.88602
G1 X48.614 Y81.500 E16.02048
G1 X48.614 Y62.500 E16.87034
G1 X49.011 Y60.284 E16.97105
G1 X50.122 Y58.395 E17.06906
G1 E15.06906 F1200.00000
G92 E0
G1 Z0.800 F6000.000
G1 X73.296 Y84.596 F6000.000
G1 Z0.300 F6000.000
G1 E2.00000 F1200.00000
G1 F1800.000
G1 X64.704 Y84.596 E2.38434
G1 X64.704 Y79.804 E2.59871
G1 X73.296 Y79.804 E2.98305
G1 X73.296 Y84.536 E3.19473
G1 X72.911 Y84.211 F6000.000
G1 F1800.000
G1 X65.089 Y84.211 E3.54457
G1 X65.089 Y80.189 E3.72444
G1 X72.911 Y80.189 E4.07428
G1 X72.911 Y84.151 E4.25147
G1 X72.525 Y83.825 F6000.000
G1 F1800.000
G1 X65.475 Y83.825 E4.56681
G1 X65.475 Y80.575 E4.71219
G1 X72.525 Y80.575 E5.02753
G1 X72.525 Y83.765 E5.17022
G1 X72.673 Y84.197 F6000.000
G1 E3.17022 F1200.00000
G92 E0
G1 Z0.800 F6000.000
G1 X59.006 Y80.504 F6000.000
G1 Z0.300 F6000.000
G1 E2.00000 F1200.00000
G1 F1800.000
G1 X55.996 Y80.504 E2.13464
G1 X55.996 Y63.496 E2.89538
G1 X94.004 Y63.496 E4.59545
G1 X94.004 Y86.354 E5.61786
G1 X59.006 Y86.354 E7.18330
G1 X59.006 Y80.564 E7.44228
G1 X58.621 Y80.889 F6000.000
G1 F1800.000
G1 X55.611 Y80.889 E7.57692
G1 X55.611 Y63.111 E8.37216
G1 X94.389 Y63.111 E10.10673
G1 X94.389 Y86.739 E11.16364
G1 X58.621 Y86.739 E12.76357
G1 X58.621 Y80.949 E13.02255
G1 X58.235 Y81.275 F6000.000
G1 F1800.000
G1 X55.225 Y81.275 E13.15719
G1 X55.225 Y62.725 E13.98693
G1 X94.775 Y62.725 E15.75599
G1 X94.775 Y87.125 E16.84740
G1 X58.235 Y87.125 E18.48183
G1 X58.235 Y81.335 E18.74081
G1 X58.054 Y80.918 F6000.000
G1 E16.74081 F1200.00000
G92 E0
G1 Z0.800 F6000.000
G1 X59.078 Y84.805 F6000.000
G1 Z0.300 F6000.000
G1 E2.00000 F1200.00000
G1 F1800.000
G1 X59.078 Y85.354 E2.02475
G1 X64.632 Y79.800 E2.37858
G1 X64.632 Y80.350 E2.40333
G1 X59.078 Y85.903 E2.75716
G1 X59.078 Y86.282 E2.77421
G1 X59.249 Y86.282 E2.78190
G1 X64.632 Y80.899 E3.12485
G1 X64.632 Y81.448 E3.14960
G1 X59.798 Y86.282 E3.45756
G1 X60.348 Y86.282 E3.48230
G1 X64.632 Y81.998 E3.75526
G1 X64.632 Y82.547 E3.78001
G1 X60.897 Y86.282 E4.01797
G1 X61.446 Y86.282 E4.04271
G1 X64.632 Y83.096 E4.24568
G1 X64.632 Y83.645 E4.27042
G1 X61.995 Y86.282 E4.43839
G1 X62.545 Y86.282 E4.46314
G1 X64.632 Y84.195 E4.59611
G1 X64.632 Y84.668 E4.61744
G1 X64.707 Y84.668 E4.62086
G1 X63.094 Y86.282 E4.72366
G1 X63.643 Y86.282 E4.74840
G1 X65.257 Y84.668 E4.85120
G1 X65.806 Y84.668 E4.87595
G1 X64.193 Y86.282 E4.97875
G1 X64.742 Y86.282 E5.00350
G1 X66.355 Y84.668 E5.10630
G1 X66.905 Y84.668 E5.13104
G1 X65.291 Y86.282 E5.23384
G1 X65.840 Y86.282 E5.25859
G1 X67.454 Y84.668 E5.36139
G1 X68.003 Y84.668 E5.38614
G1 X66.390 Y86.282 E5.48894
G1 X66.939 Y86.282 E5.51368
G1 X68.552 Y84.668 E5.61648
G1 X69.102 Y84.668 E5.64123
G1 X67.488 Y86.282 E5.74403
G1 X68.038 Y86.282 E5.76878
G1 X69.651 Y84.668 E5.87158
G1 X70.200 Y84.668 E5.89632
G1 X68.587 Y86.282 E5.99913
G1 X69.136 Y86.282 E6.02387
G1 X70.750 Y84.668 E6.12667
G1 X71.299 Y84.668 E6.15142
G1 X69.685 Y86.282 E6.25422
G1 X70.235 Y86.282 E6.27897
G1 X71.848 Y84.668 E6.38177
G1 X72.397 Y84.668 E6.40651
G1 X70.784 Y86.282 E6.50931
G1 X71.333 Y86.282 E6.53406
G1 X72.947 Y84.668 E6.63686
G1 X73.496 Y84.668 E6.66161
G1 X71.883 Y86.282 E6.76441
G1 E4.76441 F1200.00000
G92 E0
G1 Z0.800 F6000.000
G1 X93.304 Y86.282 F6000.000
G1 Z0.300 F6000.000
G1 E2.00000 F1200.00000
G1 F1800.000
G1 X93.932 Y85.654 E2.03997
G1 X93.932 Y85.105 E2.06471
G1 X92.755 Y86.282 E2.13968
G1 X92.206 Y86.282 E2.16442
G1 X93.932 Y84.556 E2.27438
G1 X93.932 Y84.007 E2.29913
G1 X91.657 Y86.282 E2.44409
G1 X91.107 Y86.282 E2.46883
G1 X93.932 Y83.457 E2.64879
G1 X93.932 Y82.908 E2.67353
G1 X90.558 Y86.282 E2.88848
G1 X90.009 Y86.282 E2.91323
G1 X93.932 Y82.359 E3.16318
G1 X93.932 Y81.809 E3.18792
G1 X89.459 Y86.282 E3.47287
G1 X88.910 Y86.282 E3.49761
G1 X93.932 Y81.260 E3.81755
G1 X93.932 Y80.711 E3.84230
G1 X88.361 Y86.282 E4.19724
G1 X87.812 Y86.282 E4.22198
G1 X93.932 Y80.162 E4.61192
G1 X93.932 Y79.612 E4.63666
G1 X87.262 Y86.282 E5.06159
G1 X86.713 Y86.282 E5.08634
G1 X93.932 Y79.063 E5.54627
G1 X93.932 Y78.514 E5.57101
G1 X86.164 Y86.282 E6.06594
G1 X85.615 Y86.282 E6.09068
G1 X93.932 Y77.965 E6.62060
G1 X93.932 Y77.415 E6.64535
G1 X85.065 Y86.282 E7.21027
G1 X84.516 Y86.282 E7.23501
G1 X93.932 Y76.866 E7.83493
G1 X93.932 Y76.317 E7.85967
G1 X83.967 Y86.282 E8.49459
G1 X83.417 Y86.282 E8.51933
G1 X93.932 Y75.767 E9.18924
G1 X93.932 Y75.218 E9.21398
G1 X82.868 Y86.282 E9.91889
G1 X82.319 Y86.282 E9.94363
G1 X93.932 Y74.669 E10.68354
G1 X93.932 Y74.120 E10.70828
G1 X81.770 Y86.282 E11.48318
G1 X81.220 Y86.282 E11.50793
G1 X93.932 Y73.570 E12.31782
G1 X93.932 Y73.021 E12.34257
G1 X80.671 Y86.282 E13.18746
G1 X80.122 Y86.282 E13.21220
G1 X93.932 Y72.472 E14.09209
G1 X93.932 Y71.922 E14.11684
G1 X79.572 Y86.282 E15.03172
G1 X79.023 Y86.282 E15.05647
G1 X93.932 Y71.373 E16.00635
G1 X93.932 Y70.824 E16.03109
G1 X78.474 Y86.282 E17.01597
G1 X77.925 Y86.282 E17.04072
G1 X93.932 Y70.275 E18.06059
G1 X93.932 Y69.725 E18.08534
G1 X77.375 Y86.282 E19.14021
G1 X76.826 Y86.282 E19.16495
G1 X93.932 Y69.176 E20.25482
G1 X93.932 Y68.627 E20.27957
G1 X76.277 Y86.282 E21.40443
G1 X75.727 Y86.282 E21.42918
G1 X93.932 Y68.077 E22.58904
G1 X93.932 Y67.528 E22.61378
G1 X75.178 Y86.282 E23.80864
G1 X74.629 Y86.282 E23.83339
G1 X93.932 Y66.979 E25.06324
G1 X93.932 Y66.430 E25.08799
G1 X74.080 Y86.282 E26.35284
G1 X73.530 Y86.282 E26.37758
G1 X93.932 Y65.880 E27.67743
G1 X93.932 Y65.331 E27.70218
G1 X72.981 Y86.282 E29.03702
G1 X72.432 Y86.282 E29.06177
G1 X93.932 Y64.782 E30.43161
G1 X93.932 Y64.233 E30.45635
G1 X73.368 Y84.796 E31.76653
G1 X73.368 Y84.247 E31.79127
G1 X93.932 Y63.683 E33.10145
G1 X93.932 Y63.568 E33.10663
G1 X93.497 Y63.568 E33.12619
G1 X73.368 Y83.697 E34.40870
G1 X73.368 Y83.148 E34.43344
G1 X92.948 Y63.568 E35.68095
G1 X92.399 Y63.568 E35.70569
G1 X73.368 Y82.599 E36.91820
G1 X73.368 Y82.050 E36.94295
G1 X91.850 Y63.568 E38.12046
G1 X91.300 Y63.568 E38.14521
G1 X73.368 Y81.500 E39.28772
G1 X73.368 Y80.951 E39.31247
G1 X90.751 Y63.568 E40.41999
G1 X90.202 Y63.568 E40.44474
G1 X73.368 Y80.402 E41.51726
G1 X73.368 Y79.852 E41.54201
G1 X89.652 Y63.568 E42.57953
G1 X89.103 Y63.568 E42.60428
G1 X72.940 Y79.732 E43.63411
G1 X72.390 Y79.732 E43.65886
G1 X88.554 Y63.568 E44.68869
G1 X88.005 Y63.568 E44.71344
G1 X71.841 Y79.732 E45.74327
G1 X71.292 Y79.732 E45.76802
G1 X87.455 Y63.568 E46.79785
G1 X86.906 Y63.568 E46.82260
G1 X70.743 Y79.732 E47.85243
G1 X70.193 Y79.732 E47.87718
G1 X86.357 Y63.568 E48.90701
G1 X85.807 Y63.568 E48.93176
G1 X69.644 Y79.732 E49.96160
G1 X69.095 Y79.732 E49.98634
G1 X85.258 Y63.568 E51.01618
G1 X84.709 Y63.568 E51.04092
G1 X68.545 Y79.732 E52.07076
G1 X67.996 Y79.732 E52.09550
G1 X84.160 Y63.568 E53.12534
G1 X83.610 Y63.568 E53.15008
G1 X67.447 Y79.732 E54.17992
G1 X66.898 Y79.732 E54.20466
G1 X83.061 Y63.568 E55.23450
G1 X82.512 Y63.568 E55.25924
G1 X66.348 Y79.732 E56.28908
G1 X65.799 Y79.732 E56.31383
G1 X81.963 Y63.568 E57.34366
G1 X81.413 Y63.568 E57.36841
G1 X65.250 Y79.732 E58.39824
G1 X64.700 Y79.732 E58.42299
G1 X80.864 Y63.568 E59.45282
G1 X80.315 Y63.568 E59.47757
G1 X64.151 Y79.732 E60.50740
G1 X64.005 Y79.732 E60.51401
G1 X64.005 Y79.878 E60.52061
G1 X59.078 Y84.805 E60.83449
G1 X59.078 Y84.255 E60.85923
G1 X79.765 Y63.568 E62.17729
G1 X79.216 Y63.568 E62.20203
G1 X59.078 Y83.706 E63.48509
G1 X59.078 Y83.157 E63.50984
G1 X78.667 Y63.568 E64.75790
G1 X78.118 Y63.568 E64.78264
G1 X59.078 Y82.608 E65.99571
G1 X59.078 Y82.058 E66.02045
G1 X77.568 Y63.568 E67.19852
G1 X77.019 Y63.568 E67.22327
G1 X59.078 Y81.509 E68.36634
G1 X59.078 Y80.960 E68.39108
G1 X76.470 Y63.568 E69.49916
G1 X75.920 Y63.568 E69.52390
G1 X59.057 Y80.432 E70.59834
G1 X58.508 Y80.432 E70.62308
G1 X75.371 Y63.568 E71.69752
G1 X74.822 Y63.568 E71.72226
G1 X57.958 Y80.432 E72.79670
G1 X57.409 Y80.432 E72.82144
G1 X74.273 Y63.568 E73.89588
G1 X73.723 Y63.568 E73.92062
G1 X56.860 Y80.432 E74.99506
G1 X56.311 Y80.432 E75.01980
G1 X73.174 Y63.568 E76.09424
G1 X72.625 Y63.568 E76.11898
G1 X56.068 Y80.125 E77.17386
G1 X56.068 Y79.575 E77.19861
G1 X72.075 Y63.568 E78.21848
G1 X71.526 Y63.568 E78.24323
G1 X56.068 Y79.026 E79.22811
G1 X56.068 Y78.477 E79.25286
G1 X70.977 Y63.568 E80.20274
G1 X70.428 Y63.568 E80.22749
G1 X56.068 Y77.928 E81.14238
G1 X56.068 Y77.378 E81.16712
G1 X69.878 Y63.568 E82.04702
G1 X69.329 Y63.568 E82.07176
G1 X56.068 Y76.829 E82.91666
G1 X56.068 Y76.280 E82.94140
G1 X68.780 Y63.568 E83.75130
G1 X68.231 Y63.568 E83.77605
G1 X56.068 Y75.731 E84.55095
G1 X56.068 Y75.181 E84.57570
G1 X67.681 Y63.568 E85.31560
G1 X67.132 Y63.568 E85.34035
G1 X56.068 Y74.632 E86.04526
G1 X56.068 Y74.083 E86.07000
G1 X66.583 Y63.568 E86.73991
G1 X66.033 Y63.568 E86.76466
G1 X56.068 Y73.533 E87.39957
G1 X56.068 Y72.984 E87.42432
G1 X65.484 Y63.568 E88.02424
G1 X64.935 Y63.568 E88.04899
G1 X56.068 Y72.435 E88.61391
G1 X56.068 Y71.886 E88.63865
G1 X64.386 Y63.568 E89.16858
G1 X63.836 Y63.568 E89.19333
G1 X56.068 Y71.336 E89.68825
G1 X56.068 Y70.787 E89.71300
G1 X63.287 Y63.568 E90.17293
G1 X62.738 Y63.568 E90.19768
G1 X56.068 Y70.238 E90.62261
G1 X56.068 Y69.688 E90.64736
G1 X62.188 Y63.568 E91.03730
G1 X61.639 Y63.568 E91.06204
G1 X56.068 Y69.139 E91.41699
G1 X56.068 Y68.590 E91.44173
G1 X61.090 Y63.568 E91.76168
G1 X60.541 Y63.568 E91.78642
G1 X56.068 Y68.041 E92.07137
G1 X56.068 Y67.491 E92.09612
G1 X59.991 Y63.568 E92.34607
G1 X59.442 Y63.568 E92.37082
G1 X56.068 Y66.942 E92.58577
G1 X56.068 Y66.393 E92.61052
G1 X58.893 Y63.568 E92.79047
G1 X58.343 Y63.568 E92.81522
G1 X56.068 Y65.843 E92.96018
G1 X56.068 Y65.294 E92.98493
G1 X57.794 Y63.568 E93.09489
G1 X57.245 Y63.568 E93.11964
G1 X56.068 Y64.745 E93.19461
G1 X56.068 Y64.196 E93.21935
G1 X56.696 Y63.568 E93.25933
G1 Z0.500 F6000.000
G1 E91.25933 F1200.00000
G92 E0
G1 Z1.000 F6000.000
G1 X64.506 Y79.606 F6000.000
G1 Z0.500 F6000.000
G1 E2.00000 F1200.00000
G1 F1800.000
G1 X73.494 Y79.606 E2.35940
G1 X73.494 Y84.794 E2.56686
G1 X64.506 Y84.794 E2.92627
G1 X64.506 Y79.666 E3.13132
G1 X65.023 Y80.123 F6000.000
G1 F1800.000
G1 X72.977 Y80.123 E3.44938
G1 X72.977 Y84.277 E3.61548
G1 X65.023 Y84.277 E3.93354
G1 X65.023 Y80.183 E4.09724
G1 X65.480 Y80.580 F6000.000
G1 F1800.000
G1 X72.520 Y80.580 E4.31341
G1 X72.520 Y83.820 E4.41290
G1 X65.480 Y83.820 E4.62907
G1 X65.480 Y80.640 E4.72672
G1 X65.332 Y80.209 F6000.000
G1 E2.72672 F1200.00000
G92 E0
G1 Z1.000 F6000.000
G1 X59.204 Y80.306 F6000.000
G1 Z0.500 F6000.000
G1 E2.00000 F1200.00000
G1 F2400.000
G1 X56.194 Y80.306 E2.12036
G1 X56.194 Y63.694 E2.78459
G1 X93.806 Y63.694 E4.28851
G1 X93.806 Y85.906 E5.17666
G1 X59.204 Y85.906 E6.56024
G1 X59.204 Y80.366 E6.78176
G1 X58.687 Y80.823 F6000.000
G1 F2400.000
G1 X55.677 Y80.823 E6.90211
G1 X55.677 Y63.177 E7.60769
G1 X94.323 Y63.177 E9.15297
G1 X94.323 Y86.423 E10.08247
G1 X58.687 Y86.423 E11.50740
G1 X58.687 Y80.883 E11.72892
G1 X58.230 Y81.280 F6000.000
G1 F2160.000
G1 X55.220 Y81.280 E11.82134
G1 X55.220 Y62.720 E12.39125
G1 X94.780 Y62.720 E13.60598
G1 X94.780 Y86.880 E14.34784
G1 X58.230 Y86.880 E15.47015
G1 X58.230 Y81.340 E15.64026
G1 X58.048 Y80.924 F6000.000
G1 E13.64026 F1200.00000
G92 E0
G1 Z1.000 F6000.000
G1 X56.291 Y78.999 F6000.000
G1 Z0.500 F6000.000
G1 E2.00000 F1200.00000
G1 F1800.000
G1 X57.501 Y80.209 E2.06924
G1 X58.241 Y80.209 E2.09917
G1 X56.291 Y78.259 E2.21073
G1 X56.291 Y77.519 E2.24065
G1 X58.981 Y80.209 E2.39454
G1 X59.720 Y80.209 E2.42446
G1 X56.291 Y76.780 E2.62067
G1 X56.291 Y76.040 E2.65060
G1 X64.409 Y84.158 E3.11504
G1 X64.409 Y83.418 E3.14497
G1 X56.291 Y75.300 E3.60942
G1 X56.291 Y74.560 E3.63934
G1 X64.409 Y82.679 E4.10379
G1 X64.409 Y81.939 E4.13371
G1 X56.291 Y73.820 E4.59816
G1 X56.291 Y73.081 E4.62809
G1 X64.409 Y81.199 E5.09253
G1 X64.409 Y80.459 E5.12246
G1 X56.291 Y72.341 E5.58691
G1 X56.291 Y71.601 E5.61683
G1 X64.409 Y79.720 E6.08128
G1 X64.409 Y79.509 E6.08978
G1 X64.939 Y79.509 E6.11120
G1 X56.291 Y70.861 E6.60594
G1 X56.291 Y70.121 E6.63587
G1 X65.679 Y79.509 E7.17293
G1 X66.418 Y79.509 E7.20286
G1 X56.291 Y69.382 E7.78224
G1 X56.291 Y68.642 E7.81217
G1 X67.158 Y79.509 E8.43387
G1 X67.898 Y79.509 E8.46380
G1 X56.291 Y67.902 E9.12783
G1 X56.291 Y67.162 E9.15776
G1 X68.638 Y79.509 E9.86411
G1 X69.378 Y79.509 E9.89403
G1 X56.291 Y66.422 E10.64271
G1 X56.291 Y65.683 E10.67263
G1 X70.117 Y79.509 E11.46363
G1 X70.857 Y79.509 E11.49356
G1 X56.291 Y64.943 E12.32687
G1 X56.291 Y64.203 E12.35680
G1 X71.597 Y79.509 E13.23244
G1 X72.337 Y79.509 E13.26237
G1 X56.618 Y63.791 E14.16160
G1 X57.358 Y63.791 E14.19152
G1 X73.077 Y79.509 E15.09075
G1 X73.816 Y79.509 E15.12068
G1 X58.098 Y63.791 E16.01990
G1 X58.838 Y63.791 E16.04983
G1 X80.856 Y85.809 E17.30947
G1 X81.596 Y85.809 E17.33940
G1 X59.577 Y63.791 E18.59904
G1 X60.317 Y63.791 E18.62896
G1 X82.336 Y85.809 E19.88860
G1 X83.076 Y85.809 E19.91853
G1 X61.057 Y63.791 E21.17817
G1 X61.797 Y63.791 E21.20810
G1 X83.815 Y85.809 E22.46774
G1 X84.555 Y85.809 E22.49766
G1 X62.537 Y63.791 E23.75730
G1 X63.276 Y63.791 E23.78723
G1 X85.295 Y85.809 E25.04687
G1 X86.035 Y85.809 E25.07680
G1 X64.016 Y63.791 E26.33644
G1 X64.756 Y63.791 E26.36636
G1 X86.774 Y85.809 E27.62600
G1 X87.514 Y85.809 E27.65593
G1 X65.496 Y63.791 E28.91557
G1 X66.236 Y63.791 E28.94549
G1 X88.254 Y85.809 E30.20513
G1 X88.994 Y85.809 E30.23506
G1 X66.975 Y63.791 E31.49470
G1 X67.715 Y63.791 E31.52463
G1 X89.734 Y85.809 E32.78427
G1 X90.473 Y85.809 E32.81419
G1 X68.455 Y63.791 E34.07383
G1 X69.195 Y63.791 E34.10376
G1 X91.213 Y85.809 E35.36340
G1 X91.953 Y85.809 E35.39333
G1 X69.935 Y63.791 E36.65297
G1 X70.674 Y63.791 E36.68289
G1 X92.693 Y85.809 E37.94253
G1 X93.433 Y85.809 E37.97246
G1 X71.414 Y63.791 E39.23210
G1 X72.154 Y63.791 E39.26203
G1 X93.709 Y85.346 E40.49517
G1 X93.709 Y84.606 E40.52509
G1 X72.894 Y63.791 E41.71592
G1 X73.634 Y63.791 E41.74584
G1 X93.709 Y83.866 E42.89434
G1 X93.709 Y83.127 E42.92427
G1 X74.373 Y63.791 E44.03044
G1 X75.113 Y63.791 E44.06037
G1 X93.709 Y82.387 E45.12422
G1 X93.709 Y81.647 E45.15415
G1 X75.853 Y63.791 E46.17568
G1 X76.593 Y63.791 E46.20561
G1 X93.709 Y80.907 E47.18481
G1 X93.709 Y80.168 E47.21474
G1 X77.332 Y63.791 E48.15163
