; generated by PrusaSlicer 2.4.0-beta3 on 2021-12-08 at 12:00:28 UTC

; 

; external perimeters extrusion width = 0.45mm
; perimeters extrusion width = 0.45mm
; infill extrusion width = 0.45mm
; solid infill extrusion width = 0.45mm
; top infill extrusion width = 0.45mm
; first layer extrusion width = 0.45mm

M107
;TYPE:Custom
;D3D:START:START
T0
M104 S215 T0

G21
G90
M107
T0
G28
G29
M109 T0 S215 T0
G0 F3000
M107
T0
G92 E0
G0 X0 Y149 Z0.1 F3600
G1 Y49 E6.5 F1200
G0 Z1
G92 E0
G21 ; set units to millimeters
G90 ; use absolute coordinates
M82 ; use absolute distances for extrusion
G92 E0
; Filament gcode
M107
;LAYER_CHANGE
;Z:0.3
;HEIGHT:0.3
G1 Z.3 F6000
G1 E-2 F1200
G92 E0
G1 X50.427 Y50.098 F6000
G1 E2.02 F1200
;TYPE:Skirt/Brim
;WIDTH:0.45
G1 F1800
G1 X52.002 Y49.01 E2.10564
G1 X54.586 Y48.031 E2.22921
G1 X56.486 Y47.8 E2.31484
G1 X57.859 Y47.798 E2.37626
G1 X91.441 Y51.769 E3.88881
G1 X93.482 Y52.409 E3.98451
G1 X95.149 Y53.75 E4.0802
G1 X96.214 Y55.605 E4.1759
G1 X96.534 Y57.5 E4.26185
G1 X96.534 Y92.5 E5.8274
G1 X96.138 Y94.602 E5.92309
G1 X95.002 Y96.416 E6.01879
G1 X93.285 Y97.691 E6.11448
G1 X91.441 Y98.231 E6.20044
G1 X57.859 Y102.202 E7.71299
G1 X56.486 Y102.2 E7.77441
G1 X54.586 Y101.969 E7.86004
G1 X52.002 Y100.99 E7.98361
G1 X50.427 Y99.902 E8.06925
G1 X48.595 Y97.835 E8.19279
G1 X47.706 Y96.14 E8.27843
G1 X47.044 Y93.457 E8.402
G1 X47.044 Y56.543 E10.05318
G1 X47.706 Y53.86 E10.17675
G1 X48.595 Y52.165 E10.26238
G1 X50.387 Y50.143 E10.38324
G1 X50.646 Y50.415 F6000
G1 F1800
G1 X52.222 Y49.328 E10.46888
G1 X54.632 Y48.414 E10.58419
G1 X56.533 Y48.183 E10.66982
G1 X57.814 Y48.181 E10.72714
G1 X91.395 Y52.152 E12.23969
G1 X93.362 Y52.783 E12.33211
G1 X94.947 Y54.109 E12.42452
G1 X95.916 Y55.934 E12.51693
G1 X96.148 Y57.5 E12.58775
G1 X96.148 Y92.5 E14.1533
G1 X95.752 Y94.528 E14.24571
G1 X94.622 Y96.257 E14.33812
G1 X92.923 Y97.433 E14.43054
G1 X91.395 Y97.848 E14.50136
G1 X57.814 Y101.819 E16.01391
G1 X56.533 Y101.817 E16.07123
G1 X54.632 Y101.586 E16.15686
G1 X52.222 Y100.672 E16.27218
G1 X50.646 Y99.585 E16.35781
G1 X48.937 Y97.656 E16.4731
G1 X48.047 Y95.96 E16.55874
G1 X47.43 Y93.457 E16.67405
G1 X47.43 Y56.543 E18.32523
G1 X48.047 Y54.04 E18.44054
G1 X48.937 Y52.344 E18.52618
G1 X50.606 Y50.46 E18.63878
G1 E16.63878 F1200
G92 E0
G1 X71.681 Y67.4 F6000
G1 E2.02 F1200
;TYPE:External perimeter
;WIDTH:0.227813
G1 F1800
G1 X71.681 Y82.6 E2.30815
G1 E.30815 F1200
G92 E0
G1 X67.396 Y83.596 F6000
G1 E2.02 F1200
;TYPE:Perimeter
;WIDTH:0.45
G1 F1800
G1 X70.767 Y83.596 E2.17078
G1 X70.767 Y91.504 E2.52448
G1 X68.446 Y91.504 E2.6283
G1 X68.446 Y87.104 E2.82511
G1 X66.196 Y87.104 E2.92575
G1 X66.196 Y83.596 E3.08264
G1 X67.336 Y83.596 E3.13364
G1 X66.61 Y83.211 F6000
G1 F1800
G1 X71.152 Y83.211 E3.33681
G1 X71.152 Y91.111 E3.69017
G1 X90.152 Y91.111 E4.54004
G1 X90.152 Y91.889 E4.57488
G1 X68.06 Y91.889 E5.56306
G1 X68.06 Y87.489 E5.75987
G1 X65.81 Y87.489 E5.86051
G1 X65.81 Y83.211 E6.0519
G1 X66.55 Y83.211 E6.085
G1 X65.824 Y82.825 F6000
;TYPE:External perimeter
G1 F1800
G1 X71.538 Y82.825 E6.34056
G1 X71.538 Y90.725 E6.69392
G1 X90.538 Y90.725 E7.54379
G1 X90.538 Y92.275 E7.61312
G1 X67.674 Y92.275 E8.6358
G1 X67.674 Y87.875 E8.83261
G1 X65.424 Y87.875 E8.93325
G1 X65.424 Y82.825 E9.15914
G1 X65.764 Y82.825 E9.17435
G1 X66.165 Y83.034 F6000
G1 E7.17435 F1200
G92 E0
G1 X90.681 Y90.5 F6000
G1 E2.02 F1200
;WIDTH:0.227825
G1 F1800
G1 X90.681 Y59.5 E2.60772
G1 E.60772 F1200
G92 E0
G1 X68.446 Y62.896 F6000
G1 E2.02 F1200
;TYPE:Perimeter
;WIDTH:0.45
G1 F1800
G1 X68.446 Y58.496 E2.21681
G1 X70.767 Y58.496 E2.32063
G1 X70.767 Y66.404 E2.67433
G1 X66.196 Y66.404 E2.87879
G1 X66.196 Y62.896 E3.03568
G1 X68.386 Y62.896 E3.13364
G1 E1.13364 F1200
G92 E0
G1 X65.81 Y65.589 F6000
G1 E2.02 F1200
G1 F1800
G1 X65.81 Y62.511 E2.15771
G1 X68.06 Y62.511 E2.25835
G1 X68.06 Y58.111 E2.45517
G1 X90.152 Y58.111 E3.44335
G1 X90.152 Y58.889 E3.47818
G1 X71.152 Y58.889 E4.32805
G1 X71.152 Y66.789 E4.68141
G1 X65.81 Y66.789 E4.92037
G1 X65.81 Y65.649 E4.97136
G1 X65.424 Y66.375 F6000
;TYPE:External perimeter
G1 F1800
G1 X65.424 Y62.125 E5.16146
G1 X67.674 Y62.125 E5.2621
G1 X67.674 Y57.725 E5.45892
G1 X90.538 Y57.725 E6.48159
G1 X90.538 Y59.275 E6.55092
G1 X71.538 Y59.275 E7.40079
G1 X71.538 Y67.175 E7.75416
G1 X65.424 Y67.175 E8.02761
G1 X65.424 Y66.435 E8.06071
G1 X65.639 Y66.038 F6000
G1 E6.06071 F1200
G92 E0
G1 X70.194 Y58.265 F6000
G1 E2.02 F1200
;TYPE:Solid infill
;WIDTH:0.461573
G1 F1800
G1 X70.824 Y58.895 E2.06108
G1 X70.824 Y59.457 E2.08696
G1 X69.806 Y58.438 E2.15334
G1 X69.244 Y58.438 E2.17922
G1 X70.824 Y60.019 E2.2822
G1 X70.824 Y60.581 E2.30807
G1 X68.682 Y58.438 E2.44765
G1 X68.388 Y58.438 E2.46122
G1 X68.388 Y58.706 E2.47353
G1 X70.824 Y61.142 E2.63229
G1 X70.824 Y61.704 E2.65817
G1 X68.388 Y59.267 E2.81694
G1 X68.388 Y59.829 E2.84282
G1 X70.824 Y62.266 E3.00158
G1 X70.824 Y62.827 E3.02746
G1 X68.388 Y60.391 E3.18622
G1 X68.388 Y60.952 E3.2121
G1 X70.824 Y63.389 E3.37087
G1 X70.824 Y63.951 E3.39675
G1 X68.388 Y61.514 E3.55551
G1 X68.388 Y62.076 E3.58139
G1 X70.824 Y64.513 E3.74015
G1 X70.824 Y65.074 E3.76603
G1 X68.388 Y62.638 E3.9248
G1 X68.388 Y62.838 E3.93405
G1 X68.027 Y62.838 E3.95068
G1 X70.824 Y65.636 E4.13296
G1 X70.824 Y66.198 E4.15884
G1 X67.465 Y62.838 E4.37772
G1 X66.903 Y62.838 E4.40359
G1 X70.527 Y66.462 E4.63967
G1 X69.965 Y66.462 E4.66555
G1 X66.342 Y62.838 E4.90163
G1 X66.138 Y62.838 E4.91102
G1 X66.138 Y63.196 E4.92751
G1 X69.403 Y66.462 E5.14027
G1 X68.842 Y66.462 E5.16615
G1 X66.138 Y63.758 E5.34232
G1 X66.138 Y64.32 E5.36819
G1 X68.28 Y66.462 E5.50776
G1 X67.718 Y66.462 E5.53364
G1 X66.138 Y64.881 E5.63661
G1 X66.138 Y65.443 E5.66249
G1 X67.156 Y66.462 E5.72886
G1 X66.595 Y66.462 E5.75474
G1 X65.964 Y65.831 E5.79581
G1 E3.79581 F1200
G92 E0
G1 X70.959 Y58.5 F6000
G1 E2.02 F1200
;TYPE:Gap fill
;WIDTH:0.457525
G1 F1800
G1 X89.959 Y58.5 E2.88645
G1 E.88645 F1200
G92 E0
G1 X70.998 Y84.169 F6000
G1 E2.02 F1200
;TYPE:Solid infill
;WIDTH:0.461462
G1 F1800
G1 X70.368 Y83.538 E2.06106
G1 X69.806 Y83.538 E2.08692
G1 X70.824 Y84.557 E2.15325
G1 X70.824 Y85.118 E2.17912
G1 X69.245 Y83.538 E2.28203
G1 X68.683 Y83.538 E2.3079
G1 X70.824 Y85.68 E2.44739
G1 X70.824 Y86.241 E2.47325
G1 X68.121 Y83.538 E2.64932
G1 X67.56 Y83.538 E2.67518
G1 X70.824 Y86.803 E2.88783
G1 X70.824 Y87.365 E2.9137
G1 X66.998 Y83.538 E3.16292
G1 X66.437 Y83.538 E3.18879
G1 X70.824 Y87.926 E3.47459
G1 X70.824 Y88.488 E3.50045
G1 X66.138 Y83.801 E3.80573
G1 X66.138 Y84.363 E3.8316
G1 X70.824 Y89.049 E4.13688
G1 X70.824 Y89.611 E4.16274
G1 X66.138 Y84.924 E4.46802
G1 X66.138 Y85.486 E4.49389
G1 X67.814 Y87.162 E4.60306
G1 X67.252 Y87.162 E4.62892
G1 X66.138 Y86.047 E4.70152
G1 X66.138 Y86.609 E4.72738
G1 X66.864 Y87.335 E4.7747
G1 X68.214 Y87.562 F6000
G1 F1800
G1 X70.824 Y90.172 E4.94472
G1 X70.824 Y90.734 E4.97059
G1 X68.388 Y88.297 E5.12931
G1 X68.388 Y88.859 E5.15517
G1 X70.824 Y91.295 E5.31389
G1 X70.824 Y91.562 E5.32615
G1 X70.529 Y91.562 E5.33976
G1 X68.388 Y89.42 E5.47924
G1 X68.388 Y89.982 E5.5051
G1 X69.968 Y91.562 E5.60801
G1 X69.406 Y91.562 E5.63387
G1 X68.388 Y90.543 E5.7002
G1 X68.388 Y91.105 E5.72606
G1 X69.018 Y91.735 E5.76711
G1 X70.959 Y91.5 F6000
;TYPE:Gap fill
;WIDTH:0.457525
G1 F1800
G1 X89.959 Y91.5 E6.63356
G1 E4.63356 F1200
G92 E0
G1 X57.549 Y89.734 F6000
G1 E2.02 F1200
;TYPE:Perimeter
;WIDTH:0.45
G1 F1800
G1 X58.389 Y90.053 E2.06018
G1 X59.333 Y91.118 E2.12385
G1 X59.673 Y92.5 E2.18752
G1 X59.333 Y93.882 E2.25119
G1 X58.389 Y94.947 E2.31485
G1 X57.058 Y95.452 E2.37853
G1 X55.645 Y95.281 E2.44219
G1 X54.473 Y94.472 E2.50586
G1 X53.812 Y93.212 E2.56953
G1 X53.812 Y91.788 E2.6332
G1 X54.473 Y90.528 E2.69687
G1 X55.682 Y89.694 E2.76258
G1 X55.682 Y89.196 E2.78482
G1 X56.303 Y89.196 E2.81259
G1 X56.303 Y89.262 E2.81551
G1 X57.493 Y89.713 E2.87242
G1 X57.312 Y89.232 F6000
G1 F1800
G1 X58.614 Y89.726 E2.93475
G1 X59.684 Y90.933 E3.00692
G1 X60.071 Y92.5 E3.07909
G1 X59.684 Y94.067 E3.15126
G1 X58.614 Y95.274 E3.22343
G1 X57.106 Y95.846 E3.29561
G1 X55.504 Y95.652 E3.36778
G1 X54.176 Y94.735 E3.43995
G1 X53.426 Y93.307 E3.51212
G1 X53.426 Y91.693 E3.58429
G1 X54.176 Y90.265 E3.65647
G1 X55.297 Y89.491 E3.71737
G1 X55.297 Y88.811 E3.74781
G1 X56.689 Y88.811 E3.81008
G1 X56.689 Y88.995 E3.81834
G1 X57.256 Y89.21 E3.84546
G1 X57.074 Y88.729 F6000
;TYPE:External perimeter
G1 F1800
G1 X58.84 Y89.399 E3.92992
G1 X60.036 Y90.749 E4.01059
G1 X60.468 Y92.5 E4.09127
G1 X60.036 Y94.251 E4.17194
G1 X58.84 Y95.601 E4.25262
G1 X57.154 Y96.241 E4.3333
G1 X55.363 Y96.023 E4.41397
G1 X53.879 Y94.999 E4.49464
G1 X53.041 Y93.402 E4.57532
G1 X53.041 Y91.598 E4.656
G1 X53.879 Y90.001 E4.73667
G1 X54.911 Y89.289 E4.79277
G1 X54.911 Y88.425 E4.83141
G1 X57.074 Y88.425 E4.92817
G1 X57.074 Y88.669 E4.9391
G1 X57.168 Y89.118 F6000
G1 E2.9391 F1200
G92 E0
G1 X54.893 Y88.2 F6000
G1 E2.02 F1200
;WIDTH:0.477731
G1 F1800
G1 X54.893 Y61.8 E3.28578
G1 X55.682 Y60.714 F6000
;TYPE:Perimeter
;WIDTH:0.45
G1 F1800
G1 X55.682 Y60.306 E3.30403
G1 X54.473 Y59.472 E3.36974
G1 X53.812 Y58.212 E3.43341
G1 X53.812 Y56.788 E3.49708
G1 X54.473 Y55.528 E3.56075
G1 X55.645 Y54.719 E3.62442
G1 X57.058 Y54.548 E3.68808
G1 X58.389 Y55.053 E3.75176
G1 X59.333 Y56.118 E3.81542
G1 X59.673 Y57.5 E3.87909
G1 X59.333 Y58.882 E3.94276
G1 X58.389 Y59.947 E4.00643
G1 X56.303 Y60.738 E4.1062
G1 X56.303 Y60.804 E4.10913
G1 X55.682 Y60.804 E4.1369
G1 X55.682 Y60.774 E4.13821
G1 X55.889 Y61.189 F6000
G1 F1800
G1 X55.297 Y61.189 E4.16469
G1 X55.297 Y60.509 E4.19513
G1 X54.176 Y59.735 E4.25603
G1 X53.426 Y58.307 E4.32821
G1 X53.426 Y56.693 E4.40038
G1 X54.176 Y55.265 E4.47255
G1 X55.504 Y54.348 E4.54473
G1 X57.106 Y54.154 E4.61689
G1 X58.614 Y54.726 E4.68907
G1 X59.684 Y55.933 E4.76124
G1 X60.071 Y57.5 E4.83341
G1 X59.684 Y59.067 E4.90559
G1 X58.614 Y60.274 E4.97775
G1 X56.689 Y61.005 E5.06988
G1 X56.689 Y61.189 E5.07814
G1 X55.949 Y61.189 E5.11124
G1 X56.674 Y61.575 F6000
;TYPE:External perimeter
G1 F1800
G1 X54.911 Y61.575 E5.19011
G1 X54.911 Y60.711 E5.22875
G1 X53.879 Y59.999 E5.28485
G1 X53.041 Y58.402 E5.36552
G1 X53.041 Y56.598 E5.4462
G1 X53.879 Y55.001 E5.52688
G1 X55.363 Y53.977 E5.60755
G1 X57.154 Y53.759 E5.68822
G1 X58.84 Y54.399 E5.7689
G1 X60.036 Y55.749 E5.84958
G1 X60.468 Y57.5 E5.93025
G1 X60.036 Y59.251 E6.01093
G1 X58.84 Y60.601 E6.0916
G1 X57.074 Y61.271 E6.17607
G1 X57.074 Y61.575 E6.18967
G1 X56.734 Y61.575 E6.20488
G1 X56.405 Y61.28 F6000
G1 E4.20488 F1200
G92 E0
G1 X59.761 Y56.888 F6000
G1 E2.02 F1200
;TYPE:Solid infill
;WIDTH:0.451969
G1 F1800
G1 X57.543 Y54.67 E2.161
G1 X57.065 Y54.489 E2.18398
G1 X56.841 Y54.516 E2.19414
G1 X59.703 Y57.378 E2.3761
G1 X59.733 Y57.5 E2.38176
G1 X59.643 Y57.866 E2.3987
G1 X56.352 Y54.575 E2.60792
G1 X55.863 Y54.634 E2.63006
G1 X59.534 Y58.306 E2.86347
G1 X59.426 Y58.745 E2.88383
G1 X55.458 Y54.778 E3.1361
G1 X55.134 Y55.002 E3.15381
G1 X59.224 Y59.092 E3.41387
G1 X58.967 Y59.382 E3.43133
G1 X54.81 Y55.225 E3.69563
G1 X54.485 Y55.449 E3.71334
G1 X58.709 Y59.673 E3.98189
G1 X58.452 Y59.964 E3.99935
G1 X54.273 Y55.785 E4.26503
G1 X54.084 Y56.144 E4.28328
G1 X58.07 Y60.13 E4.5367
G1 X57.673 Y60.281 E4.55581
G1 X53.896 Y56.504 E4.79595
G1 X53.754 Y56.774 E4.80967
G1 X53.754 Y56.91 E4.81579
G1 X57.275 Y60.432 E5.03968
G1 X56.878 Y60.582 E5.05879
G1 X53.754 Y57.458 E5.25741
G1 X53.754 Y58.007 E5.28206
G1 X56.481 Y60.733 E5.45541
G1 X56.361 Y60.778 E5.46116
G1 X56.361 Y60.862 E5.4649
G1 X56.061 Y60.862 E5.47839
G1 X53.705 Y58.505 E5.62821
G1 E3.62821 F1200
G92 E0
G1 X59.584 Y91.172 F6000
G1 E2.02 F1200
;WIDTH:0.464717
G1 F1800
G1 X58.412 Y89.999 E2.09702
G1 X57.5 Y89.653 E2.14231
G1 X59.532 Y91.686 E2.27582
G1 X59.718 Y92.438 E2.31175
G1 X56.587 Y89.307 E2.51731
G1 X56.361 Y89.222 E2.52855
G1 X56.361 Y89.138 E2.53242
G1 X55.852 Y89.138 E2.55605
G1 X59.63 Y92.916 E2.80416
G1 X59.518 Y93.371 E2.82589
G1 X55.624 Y89.477 E3.0816
G1 X55.624 Y89.663 E3.09026
G1 X55.4 Y89.818 E3.10294
G1 X59.406 Y93.825 E3.36606
G1 X59.385 Y93.91 E3.37012
G1 X59.169 Y94.154 E3.38526
G1 X55.065 Y90.049 E3.65481
G1 X54.73 Y90.281 E3.67371
G1 X58.903 Y94.454 E3.94779
G1 X58.637 Y94.754 E3.96641
G1 X54.409 Y90.526 E4.24409
G1 X54.214 Y90.897 E4.26356
G1 X58.343 Y95.027 E4.53473
G1 X57.933 Y95.182 E4.55512
G1 X54.019 Y91.269 E4.81214
G1 X53.824 Y91.64 E4.83161
G1 X57.522 Y95.338 E5.07447
G1 X57.112 Y95.494 E5.09485
G1 X53.754 Y92.136 E5.31538
G1 X53.754 Y92.702 E5.34167
G1 X56.494 Y95.442 E5.52163
G1 X55.85 Y95.364 E5.55177
G1 X53.8 Y93.314 E5.68637
G1 X54.426 Y94.506 E5.74887
G1 X55.118 Y95.198 E5.79435
;LAYER_CHANGE
;Z:0.5
;HEIGHT:0.2
G1 Z.5 F6000
G1 E3.79435 F1200
G92 E0
G1 X71.734 Y67.4 F6000
G1 E2.02 F1200
;TYPE:External perimeter
;WIDTH:0.311316
G1 F2160
G1 X71.734 Y82.6 E2.33548
G1 E.33548 F1200
G92 E0
G1 X66.239 Y85.861 F6000
G1 E2.02 F1200
;TYPE:Perimeter
;WIDTH:0.45
G1 F1800
G1 X66.239 Y83.639 E2.08994
G1 X70.829 Y83.639 E2.23443
G1 X70.829 Y91.461 E2.48065
G1 X68.489 Y91.461 E2.55432
G1 X68.489 Y87.061 E2.69283
G1 X66.239 Y87.061 E2.76365
G1 X66.239 Y85.921 E2.79954
G1 X65.831 Y86.668 F6000
G1 F2400
G1 X65.831 Y83.232 E2.9077
G1 X71.236 Y83.232 E3.07782
G1 X71.236 Y91.132 E3.32651
G1 X90.236 Y91.132 E3.92462
G1 X90.236 Y91.868 E3.94778
G1 X68.081 Y91.868 E4.64518
G1 X68.081 Y87.468 E4.78369
G1 X65.831 Y87.468 E4.85452
G1 X65.831 Y86.728 E4.87781
G1 X65.424 Y87.475 F6000
;TYPE:External perimeter
G1 F2160
G1 X65.424 Y82.825 E5.02419
G1 X71.643 Y82.825 E5.21995
G1 X71.643 Y90.725 E5.46863
G1 X90.643 Y90.725 E6.06674
G1 X90.643 Y92.275 E6.11553
G1 X67.674 Y92.275 E6.83856
G1 X67.674 Y87.875 E6.97707
G1 X65.424 Y87.875 E7.0479
G1 X65.424 Y87.535 E7.05861
G1 X65.644 Y87.141 F6000
G1 E5.05861 F1200
G92 E0
G1 X90.699 Y90.5 F6000
G1 E2.02 F1200
;WIDTH:0.37968
G1 F2160
G1 X90.699 Y59.5 E2.82729
G1 E.82729 F1200
G92 E0
G1 X68.489 Y62.939 F6000
G1 E2.02 F1200
;TYPE:Perimeter
;WIDTH:0.45
G1 F1800
G1 X68.489 Y58.539 E2.15851
G1 X70.829 Y58.539 E2.23217
G1 X70.829 Y66.361 E2.4784
G1 X66.239 Y66.361 E2.62289
G1 X66.239 Y62.939 E2.7306
G1 X68.429 Y62.939 E2.79954
G1 E.79954 F1200
G92 E0
G1 X65.831 Y65.568 F6000
G1 E2.02 F1200
G1 F2400
G1 X65.831 Y62.532 E2.11557
G1 X68.081 Y62.532 E2.1864
G1 X68.081 Y58.132 E2.3249
G1 X90.236 Y58.132 E3.02231
G1 X90.236 Y58.868 E3.04547
G1 X71.236 Y58.868 E3.64358
G1 X71.236 Y66.768 E3.89227
G1 X65.831 Y66.768 E4.06239
G1 X65.831 Y65.628 E4.09827
G1 X65.424 Y66.375 F6000
;TYPE:External perimeter
G1 F2160
G1 X65.424 Y62.125 E4.23206
G1 X67.674 Y62.125 E4.30289
G1 X67.674 Y57.725 E4.4414
G1 X90.643 Y57.725 E5.16443
G1 X90.643 Y59.275 E5.21322
G1 X71.643 Y59.275 E5.81133
G1 X71.643 Y67.175 E6.06002
G1 X65.424 Y67.175 E6.25577
G1 X65.424 Y66.435 E6.27906
G1 X65.639 Y66.037 F6000
G1 E4.27906 F1200
G92 E0
G1 X71.073 Y65.76 F6000
G1 E2.02 F1200
;TYPE:Solid infill
;WIDTH:0.460494
G1 F1800
G1 X70.411 Y66.422 E2.05023
G1 X69.82 Y66.422 E2.0693
G1 X70.89 Y65.353 E2.11813
G1 X70.89 Y64.762 E2.1372
G1 X69.23 Y66.422 E2.213
G1 X68.639 Y66.422 E2.23207
G1 X70.89 Y64.172 E2.33484
G1 X70.89 Y63.581 E2.35391
G1 X68.049 Y66.422 E2.48364
G1 X67.458 Y66.422 E2.50271
G1 X70.89 Y62.99 E2.65942
G1 X70.89 Y62.4 E2.67849
G1 X66.868 Y66.422 E2.86216
G1 X66.277 Y66.422 E2.88123
G1 X70.89 Y61.809 E3.09186
G1 X70.89 Y61.219 E3.11093
G1 X66.177 Y65.931 E3.32612
G1 X66.177 Y65.341 E3.34519
G1 X70.89 Y60.628 E3.56038
G1 X70.89 Y60.038 E3.57945
G1 X68.427 Y62.5 E3.69189
G1 X68.427 Y62.878 E3.7041
G1 X68.049 Y62.878 E3.71631
G1 X66.177 Y64.75 E3.80179
G1 X66.177 Y64.159 E3.82086
G1 X67.459 Y62.878 E3.87938
G1 X66.868 Y62.878 E3.89845
G1 X66.177 Y63.569 E3.93
G1 X66.177 Y62.978 E3.94906
G1 X66.461 Y62.695 E3.96201
G1 X68.244 Y62.093 F6000
G1 F1800
G1 X70.89 Y59.447 E4.08282
G1 X70.89 Y58.857 E4.10188
G1 X68.427 Y61.319 E4.21433
G1 X68.427 Y60.728 E4.2334
G1 X70.678 Y58.478 E4.33616
G1 X70.087 Y58.478 E4.35523
G1 X68.427 Y60.138 E4.43102
G1 X68.427 Y59.547 E4.45009
G1 X69.497 Y58.478 E4.49892
G1 X68.906 Y58.478 E4.51799
G1 X68.244 Y59.14 E4.54821
G1 E2.54821 F1200
G92 E0
G1 X71.032 Y58.5 F6000
G1 E2.02 F1200
;TYPE:Gap fill
;WIDTH:0.371684
