; generated by PrusaSlicer 2.4.0-beta3 on 2021-12-08 at 09:58:07 UTC

; 

; external perimeters extrusion width = 0.45mm
; perimeters extrusion width = 0.45mm
; infill extrusion width = 0.45mm
; solid infill extrusion width = 0.45mm
; top infill extrusion width = 0.40mm
; first layer extrusion width = 0.42mm

M73 P0 R123
M201 X2500 Y2500 Z400 E5000 ; sets maximum accelerations, mm/sec^2
M203 X180 Y180 Z12 E80 ; sets maximum feedrates, mm/sec
M204 P1250 R1250 T2500 ; sets acceleration (P, T) and retract acceleration (R), mm/sec^2
M205 X8.00 Y8.00 Z2.00 E10.00 ; sets the jerk limits, mm/sec
M205 S0 T0 ; sets the minimum extruding and travel feed rate, mm/sec
M107
;TYPE:Custom
G90 ; use absolute coordinates
M83 ; extruder relative mode
M104 S170 ; set extruder temp for bed leveling
M140 S60 ; set bed temp
M109 R170 ; wait for bed leveling temp
M190 S60 ; wait for bed temp
M204 T1250 ; set travel acceleration
G28 ; home all without mesh bed level
G29 ; mesh bed leveling 
M204 T2500 ; restore travel acceleration
M104 S215 ; set extruder temp
G92 E0
G1 Y-2 X179 F2400
G1 Z3 F720
M109 S215 ; wait for extruder temp

; intro line
G1 X170 F1000
G1 Z0.2 F720
G1 X110 E8 F900
G1 X40 E10 F700
G92 E0

M221 S95 ; set flow
G21 ; set units to millimeters
G90 ; use absolute coordinates
M83 ; use relative distances for extrusion
M900 K0.2 ; Filament gcode LA 1.5
; ; Filament gcode LA 1.0
M107
;LAYER_CHANGE
;Z:0.2
;HEIGHT:0.2
;BEFORE_LAYER_CHANGE
G92 E0.0
;0.2


G1 E-3.2 F4200
G1 Z.2 F720
;AFTER_LAYER_CHANGE
;0.2
G1 Z.4
G1 X72.476 Y68.418 F9000
G1 Z.2 F720
G1 E3.2 F2400
M204 P800
;TYPE:Skirt/Brim
;WIDTH:0.42
G1 F1200
G1 X74.271 Y67.392 E.06483
G1 X76.002 Y67.106 E.055
G1 X99.368 Y67.106 E.73262
G1 X101.397 Y67.503 E.06483
G1 X103.128 Y68.633 E.06483
G1 X104.307 Y70.332 E.06483
G1 X104.761 Y72.5 E.06945
G1 X104.761 Y107.5 E1.0974
G1 X104.365 Y109.529 E.06483
G1 X103.234 Y111.26 E.06483
G1 X101.536 Y112.439 E.06483
G1 X99.368 Y112.894 E.06945
G1 X76.002 Y112.894 E.73262
G1 X73.972 Y112.497 E.06483
G1 X72.241 Y111.367 E.06483
G1 X71.199 Y109.956 E.055
G1 X68.949 Y105.556 E.15495
G1 X68.358 Y103.1 E.0792
G1 X68.358 Y76.9 E.82148
G1 X68.949 Y74.444 E.0792
G1 X71.199 Y70.044 E.15495
G1 X72.439 Y68.465 E.06295
M204 P1000
G1 X72.739 Y68.704 F9000
M204 P800
G1 F1200
G1 X72.777 Y68.657 E.0019
G1 X74.528 Y67.705 E.0625
G1 X76.002 Y67.483 E.04671
G1 X99.368 Y67.483 E.73262
G1 X101.321 Y67.879 E.0625
G1 X102.966 Y69.005 E.0625
G1 X104.043 Y70.682 E.0625
G1 X104.384 Y72.5 E.05799
G1 X104.384 Y107.5 E1.0974
G1 X103.988 Y109.454 E.0625
G1 X102.863 Y111.099 E.0625
G1 X101.185 Y112.176 E.0625
G1 X99.368 Y112.517 E.05799
G1 X76.002 Y112.517 E.73262
G1 X74.048 Y112.121 E.0625
M73 P0 R122
G1 X72.403 Y110.995 E.0625
G1 X71.535 Y109.784 E.04671
G1 X69.285 Y105.384 E.15495
G1 X68.735 Y103.1 E.07366
G1 X68.735 Y76.9 E.82148
G1 X69.285 Y74.616 E.07366
G1 X71.535 Y70.216 E.15495
G1 X72.702 Y68.751 E.05872
M204 P1000
G1 X73 Y68.993 F9000
M204 P800
G1 F1200
G1 X73.077 Y68.899 E.00381
G1 X74.782 Y68.024 E.06008
G1 X76.002 Y67.86 E.0386
G1 X99.368 Y67.86 E.73262
G1 X101.243 Y68.256 E.06008
G1 X102.798 Y69.376 E.06008
G1 X103.768 Y71.028 E.06008
G1 X104.007 Y72.5 E.04676
G1 X104.007 Y107.5 E1.0974
G1 X103.612 Y109.375 E.06008
G1 X102.492 Y110.93 E.06008
G1 X100.839 Y111.9 E.06008
G1 X99.368 Y112.14 E.04676
G1 X76.002 Y112.14 E.73262
G1 X74.127 Y111.744 E.06008
G1 X72.572 Y110.624 E.06008
G1 X71.871 Y109.612 E.0386
G1 X69.621 Y105.212 E.15495
G1 X69.112 Y103.1 E.06812
G1 X69.112 Y76.9 E.82148
G1 X69.621 Y74.788 E.06812
G1 X71.871 Y70.388 E.15495
G1 X72.963 Y69.04 E.05439
M204 P1000
G1 X73.259 Y69.284 F9000
M204 P800
G1 F1200
G1 X73.375 Y69.143 E.00572
G1 X75.03 Y68.35 E.05756
G1 X76.002 Y68.238 E.03066
G1 X99.368 Y68.238 E.73262
G1 X101.16 Y68.633 E.05756
G1 X102.621 Y69.745 E.05756
G1 X103.477 Y71.369 E.05756
G1 X103.63 Y72.5 E.03579
G1 X103.63 Y107.5 E1.0974
G1 X103.235 Y109.293 E.05756
G1 X102.122 Y110.753 E.05756
G1 X100.499 Y111.61 E.05756
G1 X99.368 Y111.762 E.03579
G1 X76.002 Y111.762 E.73262
G1 X74.209 Y111.367 E.05756
G1 X72.749 Y110.255 E.05756
G1 X72.207 Y109.441 E.03066
G1 X69.957 Y105.041 E.15495
G1 X69.489 Y103.1 E.06259
G1 X69.489 Y76.9 E.82148
G1 X69.957 Y74.959 E.06259
G1 X72.207 Y70.559 E.15495
G1 X73.221 Y69.33 E.04996
M204 P1000
G1 X73.514 Y69.577 F9000
M204 P800
G1 F1200
G1 X73.671 Y69.391 E.00763
G1 X76.002 Y68.615 E.07703
G1 X99.368 Y68.615 E.73262
G1 X101.074 Y69.009 E.05492
G1 X102.434 Y70.114 E.05492
G1 X103.253 Y72.5 E.0791
G1 X103.253 Y107.5 E1.0974
G1 X102.858 Y109.207 E.05492
G1 X101.754 Y110.566 E.05492
G1 X99.368 Y111.385 E.0791
G1 X76.002 Y111.385 E.73262
G1 X74.295 Y110.991 E.05492
G1 X72.542 Y109.269 E.07703
G1 X70.292 Y104.869 E.15495
G1 X69.866 Y103.1 E.05705
G1 X69.866 Y76.9 E.82148
G1 X70.292 Y75.131 E.05705
G1 X72.542 Y70.731 E.15495
G1 X73.475 Y69.623 E.04541
M204 P1000
G1 X73.766 Y69.874 F9000
M204 P800
G1 F1200
G1 X73.965 Y69.644 E.00955
G1 X76.002 Y68.992 E.06705
G1 X99.368 Y68.992 E.73262
G1 X100.984 Y69.386 E.05215
G1 X102.236 Y70.48 E.05215
G1 X102.876 Y72.5 E.06643
G1 X102.876 Y107.5 E1.0974
G1 X102.482 Y109.116 E.05215
G1 X101.387 Y110.369 E.05215
G1 X99.368 Y111.008 E.06643
G1 X76.002 Y111.008 E.73262
G1 X74.386 Y110.614 E.05215
G1 X72.878 Y109.097 E.06705
G1 X70.628 Y104.697 E.15495
G1 X70.243 Y103.1 E.05151
G1 X70.243 Y76.9 E.82148
G1 X70.628 Y75.303 E.05151
G1 X72.878 Y70.903 E.15495
G1 X73.727 Y69.919 E.04072
M204 P1000
G1 X74.013 Y70.174 F9000
M204 P800
G1 F1200
G1 X74.256 Y69.9 E.01147
G1 X76.002 Y69.369 E.05721
G1 X99.368 Y69.369 E.73262
G1 X100.888 Y69.762 E.04923
G1 X102.025 Y70.844 E.04923
G1 X102.499 Y72.5 E.054
G1 X102.499 Y107.5 E1.0974
G1 X102.105 Y109.02 E.04923
G1 X101.023 Y110.158 E.04923
G1 X99.368 Y110.631 E.054
G1 X76.002 Y110.631 E.73262
G1 X74.482 Y110.238 E.04923
G1 X73.214 Y108.926 E.05721
G1 X70.964 Y104.526 E.15495
G1 X70.62 Y103.1 E.04598
G1 X70.62 Y76.9 E.82148
G1 X70.964 Y75.474 E.04598
G1 X73.214 Y71.074 E.15495
G1 X73.973 Y70.219 E.03588
M204 P1000
G1 X74.255 Y70.478 F9000
M204 P800
G1 F1200
G1 X74.545 Y70.163 E.0134
G1 X76.002 Y69.746 E.04752
G1 X99.368 Y69.746 E.73262
G1 X100.785 Y70.139 E.04612
G1 X101.798 Y71.205 E.04612
G1 X102.122 Y72.5 E.04186
G1 X102.122 Y107.5 E1.0974
G1 X101.729 Y108.917 E.04612
G1 X100.663 Y109.931 E.04612
G1 X99.368 Y110.254 E.04186
G1 X76.002 Y110.254 E.73262
G1 X74.584 Y109.861 E.04612
G1 X73.55 Y108.754 E.04752
G1 X71.3 Y104.354 E.15495
G1 X70.997 Y103.1 E.04044
G1 X70.997 Y76.9 E.82148
G1 X71.3 Y75.646 E.04044
G1 X73.55 Y71.246 E.15495
G1 X74.215 Y70.522 E.03083
M204 P1000
G1 X74.49 Y70.786 F9000
M204 P800
G1 F1200
G1 X74.829 Y70.432 E.01535
G1 X76.002 Y70.123 E.03803
G1 X99.368 Y70.123 E.73262
G1 X100.675 Y70.515 E.04278
M73 P1 R122
G1 X101.551 Y71.56 E.04278
G1 X101.745 Y72.5 E.03008
G1 X101.745 Y107.5 E1.0974
G1 X101.353 Y108.807 E.04278
G1 X100.307 Y109.683 E.04278
G1 X99.368 Y109.877 E.03008
G1 X76.002 Y109.877 E.73262
G1 X74.695 Y109.485 E.04278
G1 X73.885 Y108.582 E.03803
G1 X71.635 Y104.182 E.15495
G1 X71.375 Y103.1 E.0349
G1 X71.375 Y76.9 E.82148
G1 X71.635 Y75.818 E.0349
G1 X73.885 Y71.418 E.15495
G1 X74.449 Y70.829 E.02555
M204 P1000
G1 E-2.24 F4200
;WIPE_START
G1 F7200
G1 X74.829 Y70.432 E-.30452
G1 X75.889 Y70.153 E-.60748
;WIPE_END
G1 E-.048 F4200
G1 Z.4 F720
G1 X76.766 Y102.313 F9000
G1 Z.2 F720
G1 E3.2 F2400
M204 P800
;TYPE:Perimeter
G1 F1200
G1 X74.539 Y102.313 E.06983
G1 X74.539 Y98.386 E.12313
G1 X79.201 Y98.376 E.14617
G1 X79.666 Y98.324 E.01469
G1 X79.559 Y98.921 E.01904
G1 X79.515 Y99.476 E.01745
G1 X79.506 Y106.287 E.21355
G1 X97.669 Y106.286 E.56948
G1 X98.198 Y106.276 E.01659
G1 X98.652 Y106.225 E.01434
G1 X98.573 Y106.716 E.01561
G1 X76.789 Y106.713 E.68304
G1 X76.789 Y102.35 E.1368
M204 P1000
G1 X76.412 Y102.69 F9000
M204 P800
;TYPE:External perimeter
G1 F1200
G1 X74.162 Y102.69 E.07055
G1 X74.162 Y98.01 E.14675
G1 X79.179 Y97.999 E.15732
G1 X79.699 Y97.94 E.0164
G1 X80.084 Y97.836 E.01251
G1 X80.084 Y97.988 E.00477
G1 X80.029 Y98.468 E.01516
G1 X79.933 Y98.972 E.01607
G1 X79.892 Y99.492 E.01634
G1 X79.884 Y105.91 E.20125
G1 X97.665 Y105.909 E.55752
G1 X98.173 Y105.899 E.01593
G1 X98.695 Y105.841 E.01646
G1 X99.084 Y105.736 E.01264
G1 X99.084 Y105.98 E.00765
G1 X98.99 Y106.465 E.01551
G1 X98.911 Y107.093 E.01985
G1 X76.412 Y107.09 E.70544
G1 X76.412 Y102.75 E.13608
M204 P1000
G1 X76.234 Y102.331 F9000
G1 E-2.24 F4200
;WIPE_START
G1 F7200
G1 X74.767 Y102.706 E-.912
;WIPE_END
G1 E-.048 F4200
G1 Z.4 F720
G1 X79.507 Y74.49 F9000
G1 Z.2 F720
M73 P1 R121
G1 E3.2 F2400
M204 P800
;TYPE:Perimeter
G1 F1200
G1 X79.515 Y80.524 E.18917
G1 X79.559 Y81.079 E.01745
G1 X79.68 Y81.801 E.02297
G1 X79.273 Y81.702 E.01314
G1 X78.721 Y81.633 E.01745
G1 X78.192 Y81.615 E.01658
G1 X74.539 Y81.613 E.11456
G1 X74.539 Y77.687 E.1231
G1 X76.789 Y77.687 E.07055
G1 X76.789 Y73.287 E.13796
G1 X98.573 Y73.284 E.68304
G1 X98.652 Y73.775 E.01561
G1 X98.198 Y73.724 E.01434
G1 X97.669 Y73.714 E.01659
G1 X79.506 Y73.713 E.56948
G1 X79.507 Y74.43 E.0225
M204 P1000
G1 X79.884 Y74.09 F9000
M204 P800
;TYPE:External perimeter
G1 F1200
G1 X79.892 Y80.508 E.20125
G1 X79.933 Y81.028 E.01634
G1 X80.029 Y81.532 E.01607
G1 X80.084 Y82.012 E.01516
G1 X80.084 Y82.19 E.00558
G1 X79.685 Y82.19 E.01252
G1 X79.205 Y82.073 E.01548
G1 X78.691 Y82.009 E.01623
G1 X78.186 Y81.992 E.01585
G1 X74.162 Y81.99 E.12618
G1 X74.162 Y77.31 E.14674
G1 X76.412 Y77.31 E.07055
G1 X76.412 Y72.91 E.13796
G1 X98.911 Y72.907 E.70544
G1 X98.99 Y73.535 E.01985
G1 X99.084 Y74.02 E.01551
G1 X99.084 Y74.264 E.00765
G1 X98.695 Y74.159 E.01264
G1 X98.173 Y74.101 E.01646
G1 X97.665 Y74.091 E.01593
G1 X79.944 Y74.09 E.55564
M204 P1000
G1 X79.484 Y74.09 F9000
G1 E-2.24 F4200
;WIPE_START
G1 F7200
G1 X79.93 Y75.736 E-.912
;WIPE_END
G1 E-.048 F4200
G1 Z.4 F720
G1 X78.598 Y73.4 F9000
G1 Z.2 F720
G1 E3.2 F2400
M204 P800
;TYPE:Solid infill
;WIDTH:0.422689
G1 F1200
G1 X79.224 Y74.026 E.02795
G1 X79.224 Y74.563 E.01698
G1 X78.231 Y73.57 E.04438
G1 X77.694 Y73.57 E.01696
G1 X79.225 Y75.101 E.0684
G1 X79.226 Y75.639 E.01698
G1 X77.157 Y73.57 E.09241
G1 X77.072 Y73.57 E.00268
G1 X77.072 Y74.022 E.01427
G1 X79.226 Y76.177 E.09623
G1 X79.227 Y76.714 E.01698
G1 X77.072 Y74.559 E.09626
G1 X77.072 Y75.096 E.01696
G1 X79.228 Y77.252 E.09629
G1 X79.228 Y77.79 E.01698
G1 X77.072 Y75.633 E.09632
G1 X77.072 Y76.17 E.01696
G1 X79.229 Y78.328 E.09635
G1 X79.23 Y78.865 E.01698
G1 X77.072 Y76.707 E.09638
G1 X77.072 Y77.244 E.01696
G1 X79.23 Y79.403 E.09641
G1 X79.231 Y79.941 E.01698
G1 X77.072 Y77.781 E.09644
G1 X77.072 Y77.97 E.00595
G1 X76.723 Y77.97 E.01101
G1 X79.232 Y80.479 E.11204
G1 X79.273 Y81.057 E.01832
G1 X76.186 Y77.97 E.13788
G1 X75.649 Y77.97 E.01696
G1 X79.07 Y81.391 E.1528
G1 X78.743 Y81.351 E.01042
G1 X78.484 Y81.342 E.00819
G1 X75.112 Y77.97 E.15059
G1 X74.822 Y77.97 E.00917
G1 X74.822 Y78.217 E.00779
G1 X77.937 Y81.332 E.13914
G1 X77.4 Y81.332 E.01697
G1 X74.822 Y78.754 E.11514
G1 X74.822 Y79.291 E.01696
G1 X76.862 Y81.332 E.09114
G1 X76.325 Y81.331 E.01697
G1 X74.822 Y79.828 E.06715
G1 X74.822 Y80.365 E.01696
G1 X75.788 Y81.331 E.04315
G1 X75.25 Y81.331 E.01697
G1 X74.652 Y80.732 E.02673
M204 P1000
G1 E-2.24 F4200
;WIPE_START
G1 F7200
G1 X75.25 Y81.331 E-.46904
G1 X75.788 Y81.331 E-.29779
G1 X75.602 Y81.146 E-.14516
;WIPE_END
G1 E-.048 F4200
G1 Z.4 F720
G1 X85.923 Y73.499 F9000
G1 Z.2 F720
G1 E3.2 F2400
M204 P800
;TYPE:Gap fill
;WIDTH:0.0954684
G1 F1200
G1 X97.671 Y73.499 E.05133
M204 P1000
M204 P800
;WIDTH:0.0954733
G1 X97.671 Y73.499 E0
M204 P1000
M204 P800
;WIDTH:0.106562
G1 X98.211 Y73.504 E.00286
M204 P1000
M204 P800
;WIDTH:0.106753
G1 X98.214 Y73.504 E.00002
M204 P1000
M204 P800
;WIDTH:0.12466
G1 X98.416 Y73.516 E.00137
M204 P1000
G1 E-2.24 F4200
;WIPE_START
G1 F7200
G1 X98.214 Y73.504 E-.112
;WIPE_END
G1 E-.848 F4200
G1 Z.4 F720
G1 X79.43 Y99.119 F9000
G1 Z.2 F720
G1 E3.2 F2400
M204 P800
;TYPE:Solid infill
;WIDTH:0.426926
G1 F1200
G1 X78.97 Y98.659 E.02074
G1 X78.428 Y98.661 E.0173
G1 X79.232 Y99.464 E.03628
G1 X79.231 Y100.006 E.01732
G1 X77.886 Y98.662 E.06072
G1 X77.345 Y98.663 E.0173
G1 X79.23 Y100.549 E.08516
G1 X79.23 Y101.091 E.01732
G1 X76.803 Y98.664 E.1096
G1 X76.261 Y98.665 E.0173
G1 X79.229 Y101.634 E.13405
G1 X79.228 Y102.176 E.01732
G1 X75.719 Y98.666 E.15849
G1 X75.177 Y98.667 E.0173
G1 X79.228 Y102.718 E.18293
G1 X79.227 Y103.261 E.01732
G1 X74.822 Y98.855 E.19894
G1 X74.822 Y99.398 E.01734
G1 X79.226 Y103.803 E.19891
G1 X79.226 Y104.346 E.01732
G1 X74.822 Y99.941 E.19888
G1 X74.822 Y100.484 E.01734
G1 X76.367 Y102.03 E.0698
G1 X75.824 Y102.03 E.01734
G1 X74.822 Y101.027 E.04528
G1 X74.822 Y101.57 E.01734
G1 X75.451 Y102.2 E.02842
M204 P1000
G1 X76.902 Y102.565 F9000
M204 P800
G1 F1200
G1 X79.225 Y104.888 E.10491
G1 X79.224 Y105.43 E.01732
G1 X77.072 Y103.277 E.09722
G1 X77.072 Y103.82 E.01734
G1 X79.224 Y105.973 E.09719
G1 X79.223 Y106.431 E.01462
G1 X79.139 Y106.431 E.0027
G1 X77.072 Y104.364 E.09334
G1 X77.072 Y104.907 E.01734
G1 X78.595 Y106.43 E.06881
G1 X78.052 Y106.43 E.01734
G1 X77.072 Y105.45 E.04429
G1 X77.072 Y105.993 E.01734
G1 X77.679 Y106.6 E.02742
M204 P1000
G1 E-2.24 F4200
;WIPE_START
G1 F7200
G1 X77.072 Y105.993 E-.47593
G1 X77.072 Y105.45 E-.30095
G1 X77.244 Y105.622 E-.13512
;WIPE_END
G1 E-.048 F4200
G1 Z.4 F720
G1 X85.923 Y106.501 F9000
G1 Z.2 F720
G1 E3.2 F2400
M204 P800
;TYPE:Gap fill
;WIDTH:0.0954686
G1 F1200
G1 X97.671 Y106.501 E.05133
M204 P1000
M204 P800
;WIDTH:0.0954747
G1 X97.671 Y106.501 E0
M204 P1000
M204 P800
;WIDTH:0.106561
G1 X98.211 Y106.496 E.00286
M204 P1000
M204 P800
;WIDTH:0.106754
G1 X98.214 Y106.496 E.00002
M204 P1000
M204 P800
;WIDTH:0.12466
G1 X98.416 Y106.484 E.00137
M204 P1000
M106 S84.15
;LAYER_CHANGE
;Z:0.35
;HEIGHT:0.15
;BEFORE_LAYER_CHANGE
G92 E0.0
;0.35


G1 E-2.24 F4200
;WIPE_START
G1 F7200
G1 X98.214 Y106.496 E-.112
;WIPE_END
G1 E-.848 F4200
G1 Z.4 F720
;AFTER_LAYER_CHANGE
;0.35
G1 X98.214 Y112.894 F9000
G1 Z.35 F720
G1 E3.2 F2400
;TYPE:Skirt/Brim
;WIDTH:0.42
G1 X76.002 Y112.894 E.5372
G1 X73.972 Y112.497 E.05
G1 X72.241 Y111.367 E.05
G1 X71.199 Y109.956 E.04242
G1 X68.949 Y105.556 E.11952
G1 X68.358 Y103.1 E.06109
G1 X68.358 Y76.9 E.63364
G1 X68.949 Y74.444 E.06109
G1 X71.199 Y70.044 E.11952
G1 X72.476 Y68.418 E.05
G1 X74.271 Y67.392 E.05
G1 X76.002 Y67.106 E.04242
G1 X99.368 Y67.106 E.5651
G1 X101.397 Y67.503 E.05
G1 X103.128 Y68.633 E.05
G1 X104.307 Y70.332 E.05
G1 X104.761 Y72.5 E.05357
G1 X104.761 Y107.5 E.84647
G1 X104.365 Y109.529 E.05
G1 X103.234 Y111.26 E.05
G1 X101.536 Y112.439 E.05
G1 X99.368 Y112.894 E.05357
G1 X98.274 Y112.894 E.02645
G1 X98.274 Y112.517 F9000
G1 F2400
G1 X76.002 Y112.517 E.53865
G1 X74.048 Y112.121 E.04821
G1 X72.403 Y110.995 E.04821
G1 X71.535 Y109.784 E.03603
G1 X69.285 Y105.384 E.11952
G1 X68.735 Y103.1 E.05682
G1 X68.735 Y76.9 E.63364
G1 X69.285 Y74.616 E.05682
G1 X71.535 Y70.216 E.11952
G1 X72.777 Y68.657 E.04821
G1 X74.528 Y67.705 E.04821
G1 X76.002 Y67.483 E.03603
G1 X99.368 Y67.483 E.5651
G1 X101.321 Y67.879 E.04821
G1 X102.966 Y69.005 E.04821
G1 X104.043 Y70.682 E.04821
G1 X104.384 Y72.5 E.04473
G1 X104.384 Y107.5 E.84647
G1 X103.988 Y109.454 E.04821
G1 X102.863 Y111.099 E.04821
G1 X101.185 Y112.176 E.04821
G1 X99.368 Y112.517 E.04473
G1 X98.334 Y112.517 E.025
G1 X98.334 Y112.14 F9000
G1 F2400
G1 X76.002 Y112.14 E.5401
G1 X74.127 Y111.744 E.04634
G1 X72.572 Y110.624 E.04634
G1 X71.871 Y109.612 E.02977
G1 X69.621 Y105.212 E.11952
G1 X69.112 Y103.1 E.05255
G1 X69.112 Y76.9 E.63364
G1 X69.621 Y74.788 E.05255
G1 X71.871 Y70.388 E.11952
G1 X73.077 Y68.899 E.04634
G1 X74.782 Y68.024 E.04634
G1 X76.002 Y67.86 E.02977
G1 X99.368 Y67.86 E.5651
G1 X101.243 Y68.256 E.04634
G1 X102.798 Y69.376 E.04634
G1 X103.768 Y71.028 E.04634
G1 X104.007 Y72.5 E.03606
G1 X104.007 Y107.5 E.84647
G1 X103.612 Y109.375 E.04634
G1 X102.492 Y110.93 E.04634
G1 X100.839 Y111.9 E.04634
G1 X99.368 Y112.14 E.03606
G1 X98.394 Y112.14 E.02355
G1 X98.394 Y111.762 F9000
G1 F2400
G1 X76.002 Y111.762 E.54155
G1 X74.209 Y111.367 E.0444
G1 X72.749 Y110.255 E.0444
G1 X72.207 Y109.441 E.02365
G1 X69.957 Y105.041 E.11952
