; generated by PrusaSlicer 2.4.0-beta3 on 2021-12-07 at 13:14:57 UTC

; 

; external perimeters extrusion width = 0.45mm
; perimeters extrusion width = 0.45mm
; infill extrusion width = 0.45mm
; solid infill extrusion width = 0.45mm
; top infill extrusion width = 0.40mm
; first layer extrusion width = 0.42mm

M73 P0 R60
M201 X2500 Y2500 Z400 E5000 ; sets maximum accelerations, mm/sec^2
M203 X180 Y180 Z12 E80 ; sets maximum feedrates, mm/sec
M204 P1250 R1250 T2500 ; sets acceleration (P, T) and retract acceleration (R), mm/sec^2
M205 X8.00 Y8.00 Z2.00 E10.00 ; sets the jerk limits, mm/sec
M205 S0 T0 ; sets the minimum extruding and travel feed rate, mm/sec
M107
;TYPE:Custom
G90 ; use absolute coordinates
M83 ; extruder relative mode
M104 S170 ; set extruder temp for bed leveling
M140 S60 ; set bed temp
M109 R170 ; wait for bed leveling temp
M190 S60 ; wait for bed temp
M204 T1250 ; set travel acceleration
G28 ; home all without mesh bed level
G29 ; mesh bed leveling 
M204 T2500 ; restore travel acceleration
M104 S215 ; set extruder temp
G92 E0
G1 Y-2 X179 F2400
G1 Z3 F720
M109 S215 ; wait for extruder temp

; intro line
G1 X170 F1000
G1 Z0.2 F720
G1 X110 E8 F900
G1 X40 E10 F700
G92 E0

M221 S95 ; set flow
G21 ; set units to millimeters
G90 ; use absolute coordinates
M83 ; use relative distances for extrusion
M900 K0.2 ; Filament gcode LA 1.5
; ; Filament gcode LA 1.0
M107
;LAYER_CHANGE
;Z:0.2
;HEIGHT:0.2
;BEFORE_LAYER_CHANGE
G92 E0.0
;0.2


G1 E-3.2 F4200
G1 Z.2 F720
;AFTER_LAYER_CHANGE
;0.2
G1 Z.4
G1 X81.31 Y66.99 F9000
G1 Z.2 F720
G1 E3.2 F2400
M204 P800
;TYPE:Skirt/Brim
;WIDTH:0.42
G1 F1200
G1 X83.261 Y64.788 E.09225
G1 X84.837 Y63.7 E.06003
G1 X87.589 Y62.657 E.09227
G1 X89.489 Y62.426 E.06003
G1 X92.41 Y62.781 E.09225
G1 X94.2 Y63.46 E.06003
G1 X96.622 Y65.131 E.09227
G1 X97.891 Y66.564 E.06003
G1 X99.259 Y69.17 E.09226
G1 X99.717 Y71.029 E.06003
G1 X99.896 Y72.5 E.04647
G1 X99.896 Y107.5 E1.0974
G1 X99.717 Y108.971 E.04647
G1 X99.259 Y110.83 E.06003
G1 X97.891 Y113.436 E.09226
G1 X96.622 Y114.869 E.06003
G1 X94.2 Y116.54 E.09227
G1 X92.41 Y117.219 E.06003
G1 X89.489 Y117.574 E.09225
G1 X87.589 Y117.343 E.06003
G1 X84.837 Y116.3 E.09227
G1 X83.261 Y115.212 E.06003
G1 X81.31 Y113.01 E.09225
G1 X80.42 Y111.315 E.06003
G1 X79.716 Y108.457 E.09227
G1 X79.716 Y71.543 E1.15743
G1 X80.42 Y68.685 E.09227
G1 X81.282 Y67.043 E.05815
M204 P1000
G1 X81.616 Y67.219 F9000
M204 P800
G1 F1200
G1 X81.644 Y67.165 E.00188
G1 X83.475 Y65.098 E.08659
G1 X85.051 Y64.011 E.06003
G1 X87.634 Y63.031 E.08661
G1 X89.534 Y62.8 E.06003
G1 X92.276 Y63.133 E.08659
G1 X94.066 Y63.812 E.06003
G1 X96.34 Y65.381 E.08661
G1 X97.609 Y66.814 E.06003
G1 X98.893 Y69.26 E.0866
G1 X99.351 Y71.119 E.06003
G1 X99.519 Y72.5 E.04362
G1 X99.519 Y107.5 E1.0974
G1 X99.351 Y108.881 E.04362
G1 X98.893 Y110.74 E.06003
G1 X97.609 Y113.186 E.0866
G1 X96.34 Y114.619 E.06003
G1 X94.066 Y116.188 E.08661
G1 X92.276 Y116.867 E.06003
G1 X89.534 Y117.2 E.08659
G1 X87.634 Y116.969 E.06003
G1 X85.051 Y115.989 E.08661
G1 X83.475 Y114.902 E.06003
G1 X81.644 Y112.835 E.08659
G1 X80.754 Y111.139 E.06003
G1 X80.093 Y108.457 E.08661
G1 X80.093 Y71.543 E1.15743
G1 X80.754 Y68.861 E.08661
G1 X81.588 Y67.272 E.05627
M204 P1000
G1 X81.922 Y67.447 F9000
M204 P800
G1 F1200
G1 X81.978 Y67.341 E.00376
G1 X83.69 Y65.409 E.08093
G1 X85.265 Y64.321 E.06003
G1 X87.679 Y63.405 E.08095
G1 X89.58 Y63.175 E.06003
G1 X92.142 Y63.486 E.08094
G1 X93.933 Y64.165 E.06003
G1 X96.057 Y65.631 E.08095
G1 X97.327 Y67.064 E.06003
G1 X98.527 Y69.35 E.08094
G1 X98.985 Y71.209 E.06003
G1 X99.141 Y72.5 E.04077
G1 X99.141 Y107.5 E1.0974
G1 X98.985 Y108.791 E.04077
G1 X98.527 Y110.65 E.06003
G1 X97.327 Y112.936 E.08094
G1 X96.057 Y114.369 E.06003
G1 X93.933 Y115.835 E.08095
G1 X92.142 Y116.514 E.06003
G1 X89.58 Y116.825 E.08094
G1 X87.679 Y116.595 E.06003
G1 X85.265 Y115.679 E.08095
G1 X83.69 Y114.591 E.06003
G1 X81.978 Y112.659 E.08093
G1 X81.088 Y110.964 E.06003
G1 X80.47 Y108.457 E.08095
G1 X80.47 Y71.543 E1.15743
G1 X81.088 Y69.036 E.08095
G1 X81.894 Y67.5 E.05439
M204 P1000
G1 X82.228 Y67.675 F9000
M204 P800
G1 F1200
G1 X82.312 Y67.516 E.00564
G1 X83.904 Y65.719 E.07528
G1 X85.48 Y64.631 E.06003
G1 X87.725 Y63.78 E.07529
G1 X89.625 Y63.549 E.06003
G1 X92.009 Y63.839 E.07528
G1 X93.799 Y64.517 E.06003
M73 P1 R60
G1 X95.775 Y65.881 E.07529
G1 X97.045 Y67.314 E.06003
G1 X98.16 Y69.44 E.07528
G1 X98.619 Y71.299 E.06003
G1 X98.764 Y72.5 E.03792
G1 X98.764 Y107.5 E1.0974
G1 X98.619 Y108.701 E.03792
G1 X98.16 Y110.56 E.06003
G1 X97.045 Y112.686 E.07528
G1 X95.775 Y114.119 E.06003
G1 X93.799 Y115.483 E.07529
G1 X92.009 Y116.161 E.06003
G1 X89.625 Y116.451 E.07528
G1 X87.725 Y116.22 E.06003
G1 X85.48 Y115.369 E.07529
G1 X83.904 Y114.281 E.06003
G1 X82.312 Y112.484 E.07528
G1 X81.422 Y110.789 E.06003
G1 X80.847 Y108.457 E.07529
G1 X80.847 Y71.543 E1.15743
G1 X81.422 Y69.211 E.07529
G1 X82.2 Y67.728 E.0525
M204 P1000
G1 X82.534 Y67.904 F9000
M204 P800
G1 F1200
G1 X82.646 Y67.691 E.00753
G1 X84.118 Y66.029 E.06962
G1 X85.694 Y64.942 E.06003
G1 X87.77 Y64.154 E.06963
G1 X89.671 Y63.923 E.06003
G1 X91.875 Y64.191 E.06962
G1 X93.665 Y64.87 E.06003
G1 X95.493 Y66.132 E.06963
G1 X96.762 Y67.565 E.06003
G1 X97.794 Y69.531 E.06962
G1 X98.252 Y71.39 E.06003
G1 X98.387 Y72.5 E.03507
G1 X98.387 Y107.5 E1.0974
G1 X98.252 Y108.61 E.03507
G1 X97.794 Y110.469 E.06003
G1 X96.762 Y112.435 E.06962
G1 X95.493 Y113.868 E.06003
G1 X93.665 Y115.13 E.06963
G1 X91.875 Y115.809 E.06003
G1 X89.671 Y116.077 E.06962
G1 X87.77 Y115.846 E.06003
G1 X85.694 Y115.058 E.06963
G1 X84.118 Y113.971 E.06003
G1 X82.646 Y112.309 E.06962
G1 X81.756 Y110.614 E.06003
G1 X81.224 Y108.457 E.06963
G1 X81.224 Y71.543 E1.15743
G1 X81.756 Y69.386 E.06963
G1 X82.506 Y67.957 E.05062
M204 P1000
G1 X82.84 Y68.132 F9000
M204 P800
G1 F1200
G1 X82.98 Y67.866 E.00941
G1 X84.332 Y66.34 E.06396
G1 X85.908 Y65.252 E.06003
G1 X87.816 Y64.528 E.06397
G1 X89.716 Y64.298 E.06003
G1 X91.741 Y64.544 E.06396
G1 X93.531 Y65.223 E.06003
G1 X95.211 Y66.382 E.06397
G1 X96.48 Y67.815 E.06003
G1 X97.428 Y69.621 E.06396
G1 X97.886 Y71.48 E.06003
G1 X98.01 Y72.5 E.03222
G1 X98.01 Y107.5 E1.0974
G1 X97.886 Y108.52 E.03222
G1 X97.428 Y110.379 E.06003
G1 X96.48 Y112.185 E.06396
G1 X95.211 Y113.618 E.06003
G1 X93.531 Y114.777 E.06397
G1 X91.741 Y115.456 E.06003
G1 X89.716 Y115.702 E.06396
G1 X87.816 Y115.472 E.06003
G1 X85.908 Y114.748 E.06397
G1 X84.332 Y113.66 E.06003
G1 X82.98 Y112.134 E.06396
G1 X82.09 Y110.438 E.06003
G1 X81.601 Y108.457 E.06397
G1 X81.601 Y71.543 E1.15743
G1 X82.09 Y69.562 E.06397
G1 X82.812 Y68.185 E.04874
M204 P1000
G1 X83.146 Y68.36 F9000
M204 P800
G1 F1200
G1 X83.313 Y68.042 E.01129
G1 X84.547 Y66.65 E.0583
G1 X86.122 Y65.562 E.06003
G1 X87.861 Y64.903 E.05831
G1 X89.762 Y64.672 E.06003
G1 X91.608 Y64.896 E.0583
G1 X93.398 Y65.575 E.06003
G1 X94.928 Y66.632 E.05831
G1 X96.198 Y68.065 E.06003
G1 X97.062 Y69.711 E.05831
G1 X97.52 Y71.57 E.06003
G1 X97.633 Y72.5 E.02937
G1 X97.633 Y107.5 E1.0974
G1 X97.52 Y108.43 E.02937
M73 P1 R59
G1 X97.062 Y110.289 E.06003
G1 X96.198 Y111.935 E.05831
G1 X94.928 Y113.368 E.06003
G1 X93.398 Y114.425 E.05831
G1 X91.608 Y115.104 E.06003
G1 X89.762 Y115.328 E.0583
G1 X87.861 Y115.097 E.06003
G1 X86.122 Y114.438 E.05831
G1 X84.547 Y113.35 E.06003
G1 X83.313 Y111.958 E.0583
G1 X82.424 Y110.263 E.06003
G1 X81.979 Y108.457 E.05831
G1 X81.979 Y71.543 E1.15743
G1 X82.424 Y69.737 E.05831
G1 X83.118 Y68.414 E.04686
M204 P1000
G1 X83.452 Y68.589 F9000
M204 P800
G1 F1200
G1 X83.647 Y68.217 E.01317
G1 X84.761 Y66.96 E.05264
G1 X86.336 Y65.873 E.06003
G1 X87.907 Y65.277 E.05266
G1 X89.807 Y65.046 E.06003
G1 X91.474 Y65.249 E.05264
G1 X93.264 Y65.928 E.06003
G1 X94.646 Y66.882 E.05265
G1 X95.916 Y68.315 E.06003
G1 X96.696 Y69.801 E.05265
G1 X97.154 Y71.66 E.06003
G1 X97.256 Y72.5 E.02652
G1 X97.256 Y107.5 E1.0974
G1 X97.154 Y108.34 E.02652
G1 X96.696 Y110.199 E.06003
G1 X95.916 Y111.685 E.05265
G1 X94.646 Y113.118 E.06003
G1 X93.264 Y114.072 E.05265
G1 X91.474 Y114.751 E.06003
G1 X89.807 Y114.954 E.05264
G1 X87.907 Y114.723 E.06003
G1 X86.336 Y114.127 E.05266
G1 X84.761 Y113.04 E.06003
G1 X83.647 Y111.783 E.05264
G1 X82.758 Y110.088 E.06003
G1 X82.356 Y108.457 E.05265
G1 X82.356 Y71.543 E1.15743
G1 X82.758 Y69.912 E.05265
G1 X83.424 Y68.642 E.04498
M204 P1000
G1 X83.758 Y68.817 F9000
M204 P800
G1 F1200
G1 X83.981 Y68.392 E.01505
G1 X84.975 Y67.271 E.04699
G1 X86.551 Y66.183 E.06003
G1 X87.952 Y65.651 E.047
G1 X89.853 Y65.421 E.06003
G1 X91.34 Y65.601 E.04699
G1 X93.13 Y66.28 E.06003
G1 X94.364 Y67.132 E.04699
G1 X95.633 Y68.565 E.06003
G1 X96.33 Y69.892 E.04699
G1 X96.788 Y71.751 E.06003
G1 X96.879 Y72.5 E.02367
G1 X96.879 Y107.5 E1.0974
G1 X96.788 Y108.249 E.02367
G1 X96.33 Y110.108 E.06003
G1 X95.633 Y111.435 E.04699
G1 X94.364 Y112.868 E.06003
G1 X93.13 Y113.72 E.04699
G1 X91.34 Y114.399 E.06003
G1 X89.853 Y114.579 E.04699
G1 X87.952 Y114.349 E.06003
G1 X86.551 Y113.817 E.047
G1 X84.975 Y112.729 E.06003
G1 X83.981 Y111.608 E.04699
G1 X83.091 Y109.913 E.06003
G1 X82.733 Y108.457 E.04699
G1 X82.733 Y71.543 E1.15743
G1 X83.091 Y70.087 E.04699
G1 X83.73 Y68.87 E.0431
M204 P1000
G1 X84.064 Y69.046 F9000
M204 P800
G1 F1200
G1 X84.315 Y68.567 E.01693
G1 X85.189 Y67.581 E.04133
G1 X86.765 Y66.493 E.06003
G1 X87.997 Y66.026 E.04134
G1 X89.898 Y65.795 E.06003
G1 X91.206 Y65.954 E.04133
G1 X92.997 Y66.633 E.06003
G1 X94.082 Y67.382 E.04133
G1 X95.351 Y68.815 E.06003
G1 X95.964 Y69.982 E.04133
G1 X96.422 Y71.841 E.06003
G1 X96.502 Y72.5 E.02082
M73 P2 R59
G1 X96.502 Y107.5 E1.0974
G1 X96.422 Y108.159 E.02082
G1 X95.964 Y110.018 E.06003
G1 X95.351 Y111.185 E.04133
G1 X94.082 Y112.618 E.06003
G1 X92.997 Y113.367 E.04133
G1 X91.206 Y114.046 E.06003
G1 X89.898 Y114.205 E.04133
G1 X87.997 Y113.974 E.06003
G1 X86.765 Y113.507 E.04134
G1 X85.189 Y112.419 E.06003
G1 X84.315 Y111.433 E.04133
G1 X83.425 Y109.737 E.06003
G1 X83.11 Y108.457 E.04134
G1 X83.11 Y71.543 E1.15743
G1 X83.425 Y70.263 E.04134
G1 X84.036 Y69.099 E.04122
M204 P1000
G1 X84.37 Y69.274 F9000
M204 P800
G1 F1200
G1 X84.649 Y68.743 E.01881
G1 X85.403 Y67.891 E.03567
G1 X86.979 Y66.804 E.06003
G1 X88.043 Y66.4 E.03568
G1 X89.943 Y66.169 E.06003
G1 X91.073 Y66.307 E.03567
G1 X92.863 Y66.985 E.06003
G1 X93.799 Y67.632 E.03568
G1 X95.069 Y69.065 E.06003
G1 X95.598 Y70.072 E.03567
G1 X96.056 Y71.931 E.06003
G1 X96.125 Y72.5 E.01797
G1 X96.125 Y107.5 E1.0974
G1 X96.056 Y108.069 E.01797
G1 X95.598 Y109.928 E.06003
G1 X95.069 Y110.935 E.03567
G1 X93.799 Y112.368 E.06003
G1 X92.863 Y113.015 E.03568
G1 X91.073 Y113.693 E.06003
G1 X89.943 Y113.831 E.03567
G1 X88.043 Y113.6 E.06003
G1 X86.979 Y113.196 E.03568
G1 X85.403 Y112.109 E.06003
G1 X84.649 Y111.257 E.03567
G1 X83.759 Y109.562 E.06003
G1 X83.487 Y108.457 E.03568
G1 X83.487 Y71.543 E1.15743
G1 X83.759 Y70.438 E.03568
G1 X84.342 Y69.327 E.03934
M204 P1000
G1 E-2.24 F4200
;WIPE_START
G1 F7200
G1 X84.649 Y68.743 E-.36575
G1 X85.303 Y68.005 E-.54625
;WIPE_END
G1 E-.048 F4200
G1 Z.4 F720
G1 X88.465 Y103.91 F9000
G1 Z.2 F720
G1 E3.2 F2400
M204 P800
;TYPE:Perimeter
G1 F1200
G1 X88.988 Y103.976 E.01654
G1 X89.561 Y103.981 E.01796
G1 X89.561 Y104.117 E.00426
G1 X91.56 Y104.875 E.06703
G1 X92.572 Y106.018 E.04786
G1 X92.937 Y107.5 E.04786
G1 X92.572 Y108.982 E.04786
G1 X91.56 Y110.125 E.04786
G1 X90.132 Y110.666 E.04787
G1 X88.617 Y110.482 E.04786
G1 X87.361 Y109.615 E.04786
G1 X86.651 Y108.263 E.04786
G1 X86.651 Y106.737 E.04786
G1 X87.363 Y105.381 E.04801
G1 X87.883 Y105.011 E.02003
G1 X88.525 Y104.446 E.0268
G1 X88.393 Y103.888 E.01796
G1 X88.407 Y103.892 E.00046
M204 P1000
G1 X87.949 Y103.359 F9000
M204 P800
;TYPE:External perimeter
G1 F1200
G1 X88.544 Y103.54 E.01949
G1 X89.014 Y103.599 E.01485
G1 X89.938 Y103.608 E.02898
G1 X89.938 Y103.857 E.0078
G1 X91.78 Y104.556 E.06178
G1 X92.916 Y105.837 E.05369
G1 X93.325 Y107.5 E.05369
G1 X92.916 Y109.163 E.05369
G1 X91.78 Y110.444 E.05369
G1 X90.179 Y111.052 E.05369
G1 X88.479 Y110.845 E.05369
G1 X87.07 Y109.872 E.05369
G1 X86.274 Y108.356 E.05369
G1 X86.274 Y106.644 E.05369
G1 X87.071 Y105.126 E.05375
G1 X87.649 Y104.715 E.02224
G1 X88.106 Y104.312 E.0191
G1 X87.949 Y103.646 E.02146
G1 X87.949 Y103.419 E.00712
M204 P1000
G1 X88.263 Y103.606 F9000
G1 E-2.24 F4200
;WIPE_START
G1 F7200
G1 X88.544 Y103.54 E-.3364
G1 X89.014 Y103.599 E-.2624
G1 X89.579 Y103.605 E-.31321
;WIPE_END
G1 E-.048 F4200
G1 Z.4 F720
G1 X88.485 Y75.723 F9000
G1 Z.2 F720
G1 E3.2 F2400
M204 P800
;TYPE:Perimeter
G1 F1200
G1 X88.525 Y75.554 E.00542
G1 X87.883 Y74.989 E.0268
G1 X87.363 Y74.619 E.02003
G1 X86.651 Y73.263 E.04801
G1 X86.651 Y71.737 E.04786
G1 X87.361 Y70.385 E.04786
G1 X88.617 Y69.518 E.04786
G1 X90.132 Y69.334 E.04786
G1 X91.56 Y69.875 E.04787
G1 X92.572 Y71.018 E.04786
G1 X92.937 Y72.5 E.04786
G1 X92.572 Y73.982 E.04786
G1 X91.56 Y75.125 E.04786
G1 X89.561 Y75.883 E.06703
G1 X89.561 Y76.019 E.00426
G1 X88.988 Y76.024 E.01796
G1 X88.393 Y76.112 E.01885
G1 X88.471 Y75.781 E.01066
M204 P1000
G1 X87.949 Y76.641 F9000
M204 P800
;TYPE:External perimeter
G1 F1200
G1 X87.949 Y76.354 E.009
G1 X88.106 Y75.688 E.02146
G1 X87.649 Y75.285 E.0191
G1 X87.071 Y74.874 E.02224
G1 X86.274 Y73.356 E.05375
G1 X86.274 Y71.644 E.05369
G1 X87.07 Y70.128 E.05369
G1 X88.479 Y69.155 E.05369
G1 X90.179 Y68.948 E.05369
G1 X91.78 Y69.556 E.05369
G1 X92.916 Y70.837 E.05369
G1 X93.325 Y72.5 E.05369
G1 X92.916 Y74.163 E.05369
G1 X91.78 Y75.444 E.05369
G1 X89.938 Y76.143 E.06178
G1 X89.938 Y76.392 E.0078
G1 X89.014 Y76.401 E.02898
G1 X88.544 Y76.46 E.01485
G1 X88.006 Y76.623 E.01761
M204 P1000
G1 X88.074 Y76.382 F9000
G1 E-2.24 F4200
;WIPE_START
G1 F7200
G1 X87.949 Y76.354 E-.15272
G1 X88.106 Y75.688 E-.3792
G1 X87.649 Y75.285 E-.33757
G1 X87.586 Y75.241 E-.0425
;WIPE_END
G1 E-.048 F4200
G1 Z.4 F720
G1 X92.511 Y71.244 F9000
G1 Z.2 F720
G1 E3.2 F2400
M204 P800
;TYPE:Solid infill
;WIDTH:0.442029
G1 F1200
G1 X91.375 Y70.108 E.05334
G1 X90.465 Y69.763 E.03227
G1 X92.464 Y71.761 E.09379
G1 X92.644 Y72.506 E.02544
G1 X89.798 Y69.659 E.13361
G1 X89.294 Y69.72 E.01683
G1 X92.533 Y72.959 E.15199
G1 X92.421 Y73.412 E.01548
G1 X88.791 Y69.782 E.17037
G1 X88.72 Y69.79 E.00237
G1 X88.433 Y69.988 E.01157
G1 X92.303 Y73.859 E.18164
G1 X92.038 Y74.158 E.01327
G1 X88.099 Y70.219 E.18487
G1 X87.765 Y70.449 E.01347
G1 X91.773 Y74.457 E.1881
G1 X91.508 Y74.756 E.01327
G1 X87.493 Y70.741 E.18844
G1 X87.299 Y71.111 E.01387
G1 X91.161 Y74.974 E.18126
G1 X90.752 Y75.129 E.01452
G1 X87.104 Y71.482 E.17117
G1 X86.934 Y71.806 E.01218
G1 X86.934 Y71.875 E.00229
G1 X90.342 Y75.284 E.15997
G1 X89.933 Y75.439 E.01452
G1 X86.934 Y72.44 E.14076
G1 X86.934 Y73.004 E.01873
G1 X89.524 Y75.594 E.12155
G1 X89.278 Y75.688 E.00873
G1 X89.278 Y75.738 E.00169
G1 X89.105 Y75.74 E.00573
G1 X86.945 Y73.58 E.10138
M204 P1000
G1 E-2.24 F4200
;WIPE_START
G1 F7200
G1 X88.109 Y74.744 E-.912
;WIPE_END
G1 E-.048 F4200
G1 Z.4 F720
G1 X92.507 Y106.229 F9000
G1 Z.2 F720
G1 E3.2 F2400
M204 P800
;WIDTH:0.425937
G1 F1200
G1 X91.393 Y105.114 E.0502
G1 X90.52 Y104.784 E.02972
G1 X92.453 Y106.716 E.08703
G1 X92.63 Y107.435 E.02358
G1 X89.648 Y104.453 E.13431
G1 X89.278 Y104.312 E.0126
G1 X89.278 Y104.262 E.00162
G1 X88.904 Y104.25 E.01192
G1 X92.548 Y107.895 E.16416
G1 X92.441 Y108.33 E.01425
G1 X88.742 Y104.631 E.1666
G1 X88.454 Y104.884 E.01222
G1 X92.334 Y108.764 E.17475
G1 X92.314 Y108.847 E.00271
G1 X92.108 Y109.079 E.0099
G1 X88.166 Y105.138 E.17753
G1 X87.86 Y105.374 E.0123
G1 X91.853 Y109.367 E.17984
G1 X91.599 Y109.654 E.01222
G1 X87.559 Y105.614 E.18194
G1 X87.373 Y105.97 E.01278
G1 X91.317 Y109.914 E.17766
G1 X90.925 Y110.063 E.01338
G1 X87.187 Y106.325 E.16837
G1 X87 Y106.68 E.01278
G1 X90.532 Y110.212 E.15908
G1 X90.139 Y110.361 E.01338
G1 X86.934 Y107.155 E.14437
G1 X86.934 Y107.697 E.01725
G1 X89.547 Y110.31 E.11769
G1 X88.93 Y110.235 E.01978
G1 X86.764 Y108.069 E.09757
M204 P1000
M106 S84.15
;LAYER_CHANGE
;Z:0.35
;HEIGHT:0.15
;BEFORE_LAYER_CHANGE
G92 E0.0
;0.35


G1 E-2.24 F4200
;WIPE_START
G1 F7200
G1 X87.928 Y109.233 E-.912
;WIPE_END
G1 E-.048 F4200
G1 Z.4 F720
;AFTER_LAYER_CHANGE
;0.35
