; generated by PrusaSlicer 2.4.0-beta3 on 2021-12-07 at 13:15:55 UTC

; 

; external perimeters extrusion width = 0.45mm
; perimeters extrusion width = 0.45mm
; infill extrusion width = 0.45mm
; solid infill extrusion width = 0.45mm
; top infill extrusion width = 0.40mm
; first layer extrusion width = 0.42mm

M73 P0 R160
M201 X2500 Y2500 Z400 E5000 ; sets maximum accelerations, mm/sec^2
M203 X180 Y180 Z12 E80 ; sets maximum feedrates, mm/sec
M204 P1250 R1250 T2500 ; sets acceleration (P, T) and retract acceleration (R), mm/sec^2
M205 X8.00 Y8.00 Z2.00 E10.00 ; sets the jerk limits, mm/sec
M205 S0 T0 ; sets the minimum extruding and travel feed rate, mm/sec
M107
;TYPE:Custom
G90 ; use absolute coordinates
M83 ; extruder relative mode
M104 S170 ; set extruder temp for bed leveling
M140 S60 ; set bed temp
M109 R170 ; wait for bed leveling temp
M190 S60 ; wait for bed temp
M204 T1250 ; set travel acceleration
G28 ; home all without mesh bed level
G29 ; mesh bed leveling 
M204 T2500 ; restore travel acceleration
M104 S215 ; set extruder temp
G92 E0
G1 Y-2 X179 F2400
G1 Z3 F720
M109 S215 ; wait for extruder temp

; intro line
G1 X170 F1000
G1 Z0.2 F720
G1 X110 E8 F900
G1 X40 E10 F700
G92 E0

M221 S95 ; set flow
G21 ; set units to millimeters
G90 ; use absolute coordinates
M83 ; use relative distances for extrusion
M900 K0.2 ; Filament gcode LA 1.5
; ; Filament gcode LA 1.0
M107
;LAYER_CHANGE
;Z:0.2
;HEIGHT:0.2
;BEFORE_LAYER_CHANGE
G92 E0.0
;0.2


G1 E-3.2 F4200
G1 Z.2 F720
;AFTER_LAYER_CHANGE
;0.2
G1 Z.4
G1 X65.856 Y65.719 F9000
G1 Z.2 F720
G1 E3.2 F2400
M204 P800
;TYPE:Skirt/Brim
;WIDTH:0.42
G1 F1200
G1 X67.431 Y64.631 E.06003
G1 X69.676 Y63.78 E.07529
G1 X71.577 Y63.549 E.06003
G1 X72.77 Y63.547 E.0374
G1 X106.404 Y67.518 E1.06189
G1 X108.297 Y68.14 E.0625
G1 X109.799 Y69.451 E.0625
G1 X110.672 Y71.243 E.0625
G1 X110.832 Y72.5 E.03973
G1 X110.832 Y107.5 E1.0974
G1 X110.436 Y109.454 E.0625
G1 X109.31 Y111.099 E.0625
G1 X107.633 Y112.176 E.0625
G1 X106.404 Y112.482 E.03973
G1 X72.77 Y116.453 E1.06189
G1 X71.577 Y116.451 E.0374
G1 X69.676 Y116.22 E.06003
G1 X67.431 Y115.369 E.07529
G1 X65.856 Y114.281 E.06003
G1 X64.263 Y112.484 E.07528
G1 X63.374 Y110.789 E.06003
G1 X62.799 Y108.457 E.07529
G1 X62.799 Y71.543 E1.15743
G1 X63.374 Y69.211 E.07529
G1 X64.263 Y67.516 E.06003
G1 X65.816 Y65.764 E.07339
M204 P1000
G1 X66.07 Y66.029 F9000
M204 P800
G1 F1200
G1 X67.645 Y64.942 E.06003
G1 X69.722 Y64.154 E.06963
G1 X71.622 Y63.923 E.06003
G1 X72.725 Y63.922 E.03459
G1 X106.359 Y67.892 E1.06189
G1 X108.175 Y68.505 E.06008
G1 X109.588 Y69.799 E.06008
G1 X110.455 Y72.5 E.08893
M73 P0 R159
G1 X110.455 Y107.5 E1.0974
G1 X110.059 Y109.375 E.06008
G1 X108.94 Y110.93 E.06008
G1 X106.359 Y112.108 E.08893
G1 X72.725 Y116.078 E1.06189
G1 X71.622 Y116.077 E.03459
G1 X69.722 Y115.846 E.06003
G1 X67.645 Y115.058 E.06963
G1 X66.07 Y113.971 E.06003
G1 X64.597 Y112.309 E.06962
G1 X63.708 Y110.614 E.06003
G1 X63.176 Y108.457 E.06963
G1 X63.176 Y71.543 E1.15743
G1 X63.708 Y69.386 E.06963
G1 X64.597 Y67.691 E.06003
G1 X66.03 Y66.074 E.06774
M204 P1000
G1 X66.284 Y66.34 F9000
M204 P800
G1 F1200
G1 X67.86 Y65.252 E.06003
G1 X69.767 Y64.528 E.06397
G1 X71.668 Y64.298 E.06003
G1 X72.681 Y64.296 E.03177
G1 X106.315 Y68.267 E1.06189
G1 X108.049 Y68.87 E.05756
G1 X109.369 Y70.146 E.05756
G1 X110.078 Y72.5 E.07709
G1 X110.078 Y107.5 E1.0974
G1 X109.683 Y109.293 E.05756
G1 X108.57 Y110.753 E.05756
G1 X106.315 Y111.733 E.07709
G1 X72.681 Y115.704 E1.06189
G1 X71.668 Y115.702 E.03177
G1 X69.767 Y115.472 E.06003
G1 X67.86 Y114.748 E.06397
G1 X66.284 Y113.66 E.06003
G1 X64.931 Y112.134 E.06396
G1 X64.041 Y110.438 E.06003
G1 X63.553 Y108.457 E.06397
G1 X63.553 Y71.543 E1.15743
G1 X64.041 Y69.562 E.06397
G1 X64.931 Y67.866 E.06003
G1 X66.244 Y66.385 E.06208
M204 P1000
G1 X66.498 Y66.65 F9000
M204 P800
G1 F1200
G1 X68.074 Y65.562 E.06003
G1 X69.813 Y64.903 E.05831
G1 X71.713 Y64.672 E.06003
G1 X72.637 Y64.671 E.02896
G1 X106.271 Y68.641 E1.06189
G1 X107.919 Y69.234 E.05492
G1 X109.14 Y70.49 E.05492
G1 X109.701 Y72.5 E.06543
G1 X109.701 Y107.5 E1.0974
G1 X109.306 Y109.207 E.05492
G1 X108.202 Y110.566 E.05492
G1 X106.271 Y111.359 E.06543
G1 X72.637 Y115.329 E1.06189
G1 X71.713 Y115.328 E.02896
G1 X69.813 Y115.097 E.06003
G1 X68.074 Y114.438 E.05831
G1 X66.498 Y113.35 E.06003
G1 X65.265 Y111.958 E.0583
G1 X64.375 Y110.263 E.06003
G1 X63.93 Y108.457 E.05831
G1 X63.93 Y71.543 E1.15743
G1 X64.375 Y69.737 E.05831
G1 X65.265 Y68.042 E.06003
G1 X66.458 Y66.695 E.05642
M204 P1000
G1 X66.712 Y66.96 F9000
M204 P800
G1 F1200
G1 X68.288 Y65.873 E.06003
G1 X69.858 Y65.277 E.05266
G1 X71.759 Y65.046 E.06003
G1 X72.593 Y65.045 E.02615
G1 X106.227 Y69.016 E1.06189
G1 X107.785 Y69.597 E.05215
G1 X108.901 Y70.831 E.05215
G1 X109.324 Y72.5 E.054
G1 X109.324 Y107.5 E1.0974
G1 X108.929 Y109.116 E.05215
G1 X107.835 Y110.369 E.05215
G1 X106.227 Y110.984 E.054
G1 X72.593 Y114.955 E1.06189
G1 X71.759 Y114.954 E.02615
G1 X69.858 Y114.723 E.06003
G1 X68.288 Y114.127 E.05266
G1 X66.712 Y113.04 E.06003
G1 X65.599 Y111.783 E.05264
G1 X64.709 Y110.088 E.06003
G1 X64.307 Y108.457 E.05265
G1 X64.307 Y71.543 E1.15743
G1 X64.709 Y69.912 E.05265
G1 X65.599 Y68.217 E.06003
G1 X66.673 Y67.005 E.05076
M204 P1000
G1 X66.927 Y67.271 F9000
M204 P800
G1 F1200
G1 X68.502 Y66.183 E.06003
G1 X69.904 Y65.651 E.047
G1 X71.804 Y65.421 E.06003
G1 X72.549 Y65.42 E.02334
G1 X106.183 Y69.39 E1.06189
G1 X107.646 Y69.959 E.04923
G1 X108.649 Y71.167 E.04923
G1 X108.947 Y72.5 E.04282
G1 X108.947 Y107.5 E1.0974
G1 X108.553 Y109.02 E.04923
G1 X107.471 Y110.158 E.04923
G1 X106.183 Y110.61 E.04282
G1 X72.549 Y114.58 E1.06189
G1 X71.804 Y114.579 E.02334
G1 X69.904 Y114.349 E.06003
G1 X68.502 Y113.817 E.047
G1 X66.927 Y112.729 E.06003
G1 X65.933 Y111.608 E.04699
G1 X65.043 Y109.913 E.06003
G1 X64.684 Y108.457 E.04699
G1 X64.684 Y71.543 E1.15743
G1 X65.043 Y70.087 E.04699
G1 X65.933 Y68.392 E.06003
G1 X66.887 Y67.315 E.0451
M204 P1000
G1 X67.141 Y67.581 F9000
M204 P800
G1 F1200
G1 X68.716 Y66.493 E.06003
G1 X69.949 Y66.026 E.04134
G1 X71.85 Y65.795 E.06003
G1 X72.504 Y65.794 E.02053
G1 X106.138 Y69.765 E1.06189
G1 X107.5 Y70.321 E.04612
G1 X108.381 Y71.499 E.04612
G1 X108.57 Y72.5 E.03195
G1 X108.57 Y107.5 E1.0974
G1 X108.177 Y108.917 E.04612
G1 X107.111 Y109.931 E.04612
G1 X106.138 Y110.235 E.03195
G1 X72.504 Y114.206 E1.06189
G1 X71.85 Y114.205 E.02053
G1 X69.949 Y113.974 E.06003
G1 X68.716 Y113.507 E.04134
G1 X67.141 Y112.419 E.06003
G1 X66.267 Y111.433 E.04133
G1 X65.377 Y109.737 E.06003
G1 X65.061 Y108.457 E.04134
G1 X65.061 Y71.543 E1.15743
G1 X65.377 Y70.263 E.04134
G1 X66.267 Y68.567 E.06003
G1 X67.101 Y67.626 E.03945
M204 P1000
G1 X67.355 Y67.891 F9000
M204 P800
G1 F1200
G1 X68.931 Y66.804 E.06003
G1 X69.995 Y66.4 E.03568
G1 X71.895 Y66.169 E.06003
G1 X72.46 Y66.169 E.01772
G1 X106.094 Y70.139 E1.06189
G1 X107.346 Y70.681 E.04278
G1 X108.192 Y72.5 E.06289
G1 X108.192 Y107.5 E1.0974
G1 X107.801 Y108.807 E.04278
G1 X106.094 Y109.861 E.06289
G1 X72.46 Y113.831 E1.06189
G1 X71.895 Y113.831 E.01772
G1 X69.995 Y113.6 E.06003
G1 X68.931 Y113.196 E.03568
G1 X67.355 Y112.109 E.06003
G1 X66.601 Y111.257 E.03567
G1 X65.711 Y109.562 E.06003
G1 X65.439 Y108.457 E.03568
G1 X65.439 Y71.543 E1.15743
G1 X65.711 Y70.438 E.03568
G1 X66.601 Y68.743 E.06003
G1 X67.315 Y67.936 E.03379
M204 P1000
G1 E-2.24 F4200
;WIPE_START
G1 F7200
G1 X68.663 Y66.991 E-.912
;WIPE_END
G1 E-.048 F4200
G1 Z.4 F720
G1 X70.416 Y103.91 F9000
G1 Z.2 F720
G1 E3.2 F2400
M204 P800
;TYPE:Perimeter
G1 F1200
G1 X70.94 Y103.976 E.01654
G1 X71.512 Y103.981 E.01796
G1 X71.512 Y104.117 E.00426
G1 X73.511 Y104.875 E.06703
G1 X74.523 Y106.018 E.04786
G1 X74.889 Y107.5 E.04786
G1 X74.523 Y108.982 E.04786
G1 X73.511 Y110.125 E.04786
G1 X72.084 Y110.666 E.04787
G1 X70.568 Y110.482 E.04786
G1 X69.312 Y109.615 E.04786
G1 X68.603 Y108.263 E.04786
G1 X68.603 Y106.737 E.04786
G1 X69.314 Y105.381 E.04801
G1 X69.835 Y105.011 E.02003
G1 X70.476 Y104.446 E.0268
M73 P0 R158
G1 X70.345 Y103.888 E.01796
G1 X70.359 Y103.892 E.00046
M204 P1000
G1 X69.9 Y103.359 F9000
M204 P800
;TYPE:External perimeter
G1 F1200
G1 X70.495 Y103.54 E.01949
G1 X70.965 Y103.599 E.01485
G1 X71.889 Y103.608 E.02898
G1 X71.889 Y103.857 E.0078
G1 X73.732 Y104.556 E.06178
G1 X74.867 Y105.837 E.05369
G1 X75.277 Y107.5 E.05369
G1 X74.867 Y109.163 E.05369
G1 X73.732 Y110.444 E.05369
G1 X72.131 Y111.052 E.05369
G1 X70.431 Y110.845 E.05369
G1 X69.021 Y109.872 E.05369
G1 X68.226 Y108.356 E.05369
G1 X68.226 Y106.644 E.05369
G1 X69.022 Y105.126 E.05375
G1 X69.6 Y104.715 E.02224
G1 X70.057 Y104.312 E.0191
G1 X69.9 Y103.646 E.02146
G1 X69.9 Y103.419 E.00712
M204 P1000
G1 X70.215 Y103.606 F9000
G1 E-2.24 F4200
;WIPE_START
G1 F7200
G1 X70.495 Y103.54 E-.3364
G1 X70.965 Y103.599 E-.2624
G1 X71.53 Y103.605 E-.31321
;WIPE_END
G1 E-.048 F4200
G1 Z.4 F720
G1 X70.437 Y75.723 F9000
G1 Z.2 F720
G1 E3.2 F2400
M204 P800
;TYPE:Perimeter
G1 F1200
G1 X70.476 Y75.554 E.00542
G1 X69.835 Y74.989 E.0268
G1 X69.314 Y74.619 E.02003
G1 X68.603 Y73.263 E.04801
G1 X68.603 Y71.737 E.04786
G1 X69.312 Y70.385 E.04786
G1 X70.568 Y69.518 E.04786
G1 X72.084 Y69.334 E.04786
G1 X73.511 Y69.875 E.04787
G1 X74.523 Y71.018 E.04786
G1 X74.889 Y72.5 E.04786
G1 X74.523 Y73.982 E.04786
G1 X73.511 Y75.125 E.04786
G1 X71.512 Y75.883 E.06703
G1 X71.512 Y76.019 E.00426
G1 X70.94 Y76.024 E.01796
G1 X70.345 Y76.112 E.01885
G1 X70.423 Y75.781 E.01066
M204 P1000
G1 X69.9 Y76.641 F9000
M204 P800
;TYPE:External perimeter
G1 F1200
G1 X69.9 Y76.354 E.009
G1 X70.057 Y75.688 E.02146
G1 X69.6 Y75.285 E.0191
G1 X69.022 Y74.874 E.02224
G1 X68.226 Y73.356 E.05375
G1 X68.226 Y71.644 E.05369
G1 X69.021 Y70.128 E.05369
G1 X70.431 Y69.155 E.05369
G1 X72.131 Y68.948 E.05369
G1 X73.732 Y69.556 E.05369
G1 X74.867 Y70.837 E.05369
G1 X75.277 Y72.5 E.05369
G1 X74.867 Y74.163 E.05369
G1 X73.732 Y75.444 E.05369
G1 X71.889 Y76.143 E.06178
G1 X71.889 Y76.392 E.0078
G1 X70.965 Y76.401 E.02898
G1 X70.495 Y76.46 E.01485
G1 X69.958 Y76.624 E.01761
M204 P1000
G1 X70.025 Y76.382 F9000
G1 E-2.24 F4200
;WIPE_START
G1 F7200
G1 X69.9 Y76.354 E-.15272
G1 X70.057 Y75.688 E-.3792
G1 X69.6 Y75.285 E-.33757
G1 X69.538 Y75.241 E-.0425
;WIPE_END
G1 E-.048 F4200
G1 Z.4 F720
G1 X74.463 Y71.244 F9000
G1 Z.2 F720
G1 E3.2 F2400
M204 P800
;TYPE:Solid infill
;WIDTH:0.442029
G1 F1200
G1 X73.326 Y70.108 E.05334
G1 X72.417 Y69.763 E.03227
G1 X74.415 Y71.761 E.09379
G1 X74.596 Y72.506 E.02544
G1 X71.749 Y69.659 E.13361
G1 X71.246 Y69.72 E.01683
G1 X74.484 Y72.959 E.15199
G1 X74.373 Y73.412 E.01548
G1 X70.743 Y69.782 E.17037
G1 X70.672 Y69.79 E.00237
G1 X70.385 Y69.988 E.01157
G1 X74.255 Y73.859 E.18164
G1 X73.99 Y74.158 E.01327
G1 X70.051 Y70.219 E.18487
G1 X69.717 Y70.449 E.01347
G1 X73.725 Y74.457 E.1881
G1 X73.46 Y74.756 E.01327
G1 X69.445 Y70.741 E.18844
G1 X69.25 Y71.111 E.01387
G1 X73.112 Y74.974 E.18126
G1 X72.703 Y75.129 E.01452
G1 X69.056 Y71.482 E.17117
G1 X68.885 Y71.806 E.01218
G1 X68.885 Y71.875 E.00229
G1 X72.294 Y75.284 E.15997
G1 X71.885 Y75.439 E.01452
G1 X68.885 Y72.44 E.14076
G1 X68.885 Y73.004 E.01873
G1 X71.475 Y75.594 E.12155
G1 X71.23 Y75.688 E.00873
G1 X71.23 Y75.738 E.00169
G1 X71.057 Y75.74 E.00573
G1 X68.897 Y73.58 E.10138
M204 P1000
G1 E-2.24 F4200
;WIPE_START
G1 F7200
M73 P1 R158
G1 X70.06 Y74.744 E-.912
;WIPE_END
G1 E-.048 F4200
G1 Z.4 F720
G1 X74.459 Y106.229 F9000
G1 Z.2 F720
G1 E3.2 F2400
M204 P800
;WIDTH:0.425937
G1 F1200
G1 X73.344 Y105.114 E.0502
G1 X72.472 Y104.784 E.02972
G1 X74.404 Y106.716 E.08703
G1 X74.581 Y107.435 E.02358
G1 X71.599 Y104.453 E.13431
G1 X71.23 Y104.312 E.0126
G1 X71.23 Y104.262 E.00162
G1 X70.855 Y104.25 E.01192
G1 X74.5 Y107.895 E.16416
G1 X74.393 Y108.33 E.01425
G1 X70.694 Y104.631 E.1666
G1 X70.406 Y104.884 E.01222
G1 X74.286 Y108.764 E.17475
G1 X74.266 Y108.847 E.00271
G1 X74.059 Y109.079 E.0099
G1 X70.118 Y105.138 E.17753
G1 X69.812 Y105.374 E.0123
G1 X73.805 Y109.367 E.17984
G1 X73.551 Y109.654 E.01222
G1 X69.511 Y105.614 E.18194
G1 X69.325 Y105.97 E.01278
G1 X73.269 Y109.914 E.17766
G1 X72.876 Y110.063 E.01338
G1 X69.138 Y106.325 E.16837
G1 X68.952 Y106.68 E.01278
G1 X72.484 Y110.212 E.15908
G1 X72.091 Y110.361 E.01338
G1 X68.885 Y107.155 E.14437
G1 X68.885 Y107.697 E.01725
G1 X71.499 Y110.31 E.11769
G1 X70.882 Y110.235 E.01978
G1 X68.716 Y108.069 E.09757
M204 P1000
G1 E-2.24 F4200
;WIPE_START
G1 F7200
G1 X69.879 Y109.233 E-.912
;WIPE_END
G1 E-.048 F4200
G1 Z.4 F720
G1 X80.986 Y101.913 F9000
G1 Z.2 F720
G1 E3.2 F2400
M204 P800
;TYPE:Perimeter
;WIDTH:0.42
G1 F1200
G1 X80.986 Y98.386 E.11059
G1 X85.648 Y98.376 E.14617
G1 X86.114 Y98.324 E.01469
G1 X86.006 Y98.921 E.01904
G1 X85.962 Y99.476 E.01745
G1 X85.954 Y106.287 E.21355
G1 X104.117 Y106.286 E.56948
G1 X104.646 Y106.276 E.01659
G1 X105.1 Y106.225 E.01434
G1 X105.021 Y106.716 E.01561
G1 X83.236 Y106.713 E.68304
G1 X83.236 Y102.313 E.13796
G1 X80.986 Y102.313 E.07055
G1 X80.986 Y101.973 E.01066
M204 P1000
G1 X80.609 Y102.69 F9000
M204 P800
;TYPE:External perimeter
G1 F1200
G1 X80.609 Y98.01 E.14675
G1 X85.627 Y97.999 E.15732
G1 X86.147 Y97.94 E.0164
G1 X86.532 Y97.836 E.01251
G1 X86.532 Y97.988 E.00477
G1 X86.477 Y98.468 E.01516
G1 X86.381 Y98.972 E.01607
G1 X86.339 Y99.492 E.01634
G1 X86.331 Y105.91 E.20125
G1 X104.113 Y105.909 E.55752
G1 X104.621 Y105.899 E.01593
G1 X105.142 Y105.841 E.01646
G1 X105.532 Y105.736 E.01264
G1 X105.532 Y105.98 E.00765
G1 X105.437 Y106.465 E.01551
G1 X105.358 Y107.093 E.01985
G1 X82.859 Y107.09 E.70544
G1 X82.859 Y102.69 E.13796
G1 X80.669 Y102.69 E.06867
M204 P1000
G1 X80.92 Y102.438 F9000
G1 E-2.24 F4200
;WIPE_START
G1 F7200
G1 X80.648 Y101.044 E-.912
;WIPE_END
G1 E-.048 F4200
G1 Z.4 F720
G1 X80.986 Y81.213 F9000
G1 Z.2 F720
G1 E3.2 F2400
M204 P800
;TYPE:Perimeter
G1 F1200
G1 X80.986 Y77.687 E.11056
G1 X83.236 Y77.687 E.07055
G1 X83.236 Y73.287 E.13796
G1 X105.021 Y73.284 E.68304
G1 X105.1 Y73.775 E.01561
G1 X104.646 Y73.724 E.01434
G1 X104.117 Y73.714 E.01659
G1 X85.954 Y73.713 E.56948
G1 X85.962 Y80.524 E.21355
G1 X86.006 Y81.079 E.01745
G1 X86.128 Y81.801 E.02297
G1 X85.721 Y81.702 E.01314
G1 X85.169 Y81.633 E.01745
G1 X84.64 Y81.615 E.01658
G1 X80.986 Y81.613 E.11456
G1 X80.986 Y81.273 E.01066
M204 P1000
G1 X80.621 Y81.99 F9000
M204 P800
;TYPE:External perimeter
G1 F1200
G1 X80.609 Y77.31 E.14674
G1 X82.859 Y77.31 E.07055
G1 X82.859 Y72.91 E.13796
G1 X105.358 Y72.907 E.70544
G1 X105.437 Y73.535 E.01985
G1 X105.532 Y74.02 E.01551
G1 X105.532 Y74.264 E.00765
G1 X105.142 Y74.159 E.01264
G1 X104.621 Y74.101 E.01646
G1 X104.113 Y74.091 E.01593
G1 X86.331 Y74.09 E.55752
G1 X86.339 Y80.508 E.20125
G1 X86.381 Y81.028 E.01634
G1 X86.477 Y81.532 E.01607
G1 X86.532 Y82.012 E.01516
G1 X86.532 Y82.19 E.00558
G1 X86.132 Y82.19 E.01252
G1 X85.653 Y82.073 E.01548
G1 X85.139 Y82.009 E.01623
G1 X84.634 Y81.992 E.01585
G1 X80.681 Y81.99 E.12394
M204 P1000
G1 X80.821 Y81.644 F9000
G1 E-2.24 F4200
;WIPE_START
G1 F7200
G1 X80.656 Y80.345 E-.912
;WIPE_END
G1 E-.048 F4200
G1 Z.4 F720
G1 X85.046 Y73.4 F9000
G1 Z.2 F720
G1 E3.2 F2400
M204 P800
;TYPE:Solid infill
;WIDTH:0.422688
G1 F1200
G1 X85.671 Y74.026 E.02795
G1 X85.672 Y74.563 E.01698
G1 X84.678 Y73.57 E.04438
G1 X84.141 Y73.57 E.01696
G1 X85.673 Y75.101 E.06839
G1 X85.673 Y75.639 E.01698
G1 X83.604 Y73.57 E.09241
G1 X83.519 Y73.57 E.00269
G1 X83.519 Y74.022 E.01427
G1 X85.674 Y76.177 E.09623
G1 X85.675 Y76.714 E.01698
G1 X83.519 Y74.559 E.09626
G1 X83.519 Y75.096 E.01696
G1 X85.676 Y77.252 E.09629
G1 X85.676 Y77.79 E.01698
G1 X83.519 Y75.633 E.09632
G1 X83.519 Y76.17 E.01696
G1 X85.677 Y78.328 E.09635
G1 X85.678 Y78.865 E.01698
G1 X83.519 Y76.707 E.09638
G1 X83.519 Y77.244 E.01696
G1 X85.678 Y79.403 E.09641
G1 X85.679 Y79.941 E.01698
G1 X83.519 Y77.781 E.09644
G1 X83.519 Y77.97 E.00596
G1 X83.171 Y77.97 E.011
G1 X85.68 Y80.479 E.11203
G1 X85.721 Y81.057 E.01832
G1 X82.634 Y77.97 E.13787
G1 X82.097 Y77.97 E.01696
G1 X85.518 Y81.391 E.1528
G1 X85.191 Y81.351 E.01042
G1 X84.932 Y81.342 E.00819
G1 X81.56 Y77.97 E.15059
G1 X81.269 Y77.97 E.00917
G1 X81.269 Y78.217 E.00779
G1 X84.385 Y81.332 E.13914
G1 X83.848 Y81.332 E.01697
