; generated by Slic3r 1.3.0 on 2021-12-03 at 00:08:56

; external perimeters extrusion width = 0.55mm (4.37mm^3/s)
; perimeters extrusion width = 0.70mm (11.44mm^3/s)
; infill extrusion width = 0.62mm (13.45mm^3/s)
; solid infill extrusion width = 0.70mm (3.81mm^3/s)
; top infill extrusion width = 0.70mm (2.86mm^3/s)

M107
M104 S200 ; set temperature
G28 ; home all axes
G1 Z5 F5000 ; lift nozzle

; Filament gcode

M109 S200 ; set temperature and wait for it to be reached
G21 ; set units to millimeters
G90 ; use absolute coordinates
M82 ; use absolute distances for extrusion
G92 E0
G1 Z0.350 F7800.000
G1 E-2.00000 F2400.00000
G92 E0
G1 X92.648 Y78.253 F7800.000
G1 E2.00000 F2400.00000
G1 F1800
G1 X94.400 Y76.774 E2.07096
G1 X96.552 Y75.981 E2.14192
G1 X97.732 Y75.875 E2.17858
G1 X100.348 Y75.875 E2.25951
G1 X102.607 Y76.272 E2.33047
G1 X104.595 Y77.415 E2.40143
G1 X106.074 Y79.168 E2.47239
G1 X106.867 Y81.320 E2.54335
G1 X106.973 Y82.500 E2.58001
G1 X106.973 Y117.500 E3.66295
G1 X106.576 Y119.759 E3.73391
G1 X105.432 Y121.747 E3.80488
G1 X103.680 Y123.226 E3.87584
G1 X101.528 Y124.019 E3.94680
G1 X100.348 Y124.125 E3.98345
G1 X97.732 Y124.125 E4.06438
G1 X95.473 Y123.728 E4.13534
G1 X93.485 Y122.585 E4.20631
G1 X92.006 Y120.832 E4.27727
G1 X91.213 Y118.680 E4.34823
G1 X91.107 Y117.500 E4.38488
G1 X91.107 Y82.500 E5.46783
G1 X91.504 Y80.241 E5.53879
G1 X92.610 Y78.318 E5.60743
G1 E3.60743 F2400.00000
G92 E0
G1 X99.373 Y116.525 F7800.000
G1 E2.00000 F2400.00000
G1 F1800
G1 X98.707 Y116.525 E2.02060
G1 X98.707 Y114.175 E2.09332
G1 X99.373 Y114.175 E2.11392
G1 X99.373 Y116.450 E2.18432
G1 X99.998 Y117.150 F7800.000
G1 F1800
G1 X98.082 Y117.150 E2.24359
G1 X98.082 Y113.550 E2.35498
G1 X99.998 Y113.550 E2.41425
G1 X99.998 Y117.075 E2.52332
G1 X99.530 Y116.974 F7800.000
G1 E0.52332 F2400.00000
G92 E0
G1 X97.940 Y113.200 F7800.000
G1 E2.00000 F2400.00000
G1 F1800
G1 X97.940 Y86.800 E2.44506
G1 X99.373 Y85.825 F7800.000
G1 F1800
G1 X98.707 Y85.825 E2.46566
G1 X98.707 Y83.475 E2.53838
G1 X99.373 Y83.475 E2.55898
G1 X99.373 Y85.750 E2.62938
G1 X99.998 Y86.450 F7800.000
G1 F1800
G1 X98.082 Y86.450 E2.68865
G1 X98.082 Y82.850 E2.80003
G1 X99.998 Y82.850 E2.85931
G1 X99.998 Y86.375 E2.96837
G1 X99.530 Y86.274 F7800.000
G1 Z0.650 F7800.000
G1 E0.96837 F2400.00000
G92 E0
G1 X99.512 Y114.036 F7800.000
G1 E2.00000 F2400.00000
G1 F644.111
G1 X99.512 Y116.664 E2.07091
G1 X98.539 Y116.664 E2.09717
G1 X98.539 Y114.036 E2.16809
G1 X99.437 Y114.036 E2.19232
G1 X100.073 Y113.475 F7800.000
G1 F644.111
G1 X100.073 Y117.225 E2.26961
G1 X97.978 Y117.225 E2.31277
G1 X97.978 Y113.475 E2.39006
G1 X99.998 Y113.475 E2.43169
G1 X99.988 Y113.968 F7800.000
G1 X97.925 Y113.200 F7800.000
G1 F1288.22
G1 X97.925 Y86.800 E2.85760
G1 X99.512 Y85.964 F7800.000
G1 F644.111
G1 X98.539 Y85.964 E2.88386
G1 X98.539 Y83.336 E2.95477
G1 X99.512 Y83.336 E2.98103
G1 X99.512 Y85.889 E3.04992
G1 X100.073 Y86.525 F7800.000
G1 F644.111
G1 X97.978 Y86.525 E3.09309
G1 X97.978 Y82.775 E3.17038
G1 X100.073 Y82.775 E3.21355
G1 X100.073 Y86.450 E3.28929
G1 X99.604 Y86.352 F7800.000
G1 X99.025 Y85.647 F7800.000
G1 F858.814
G1 X99.025 Y83.653 E3.31241
G1 E1.31241 F2400.00000
G92 E0
G1 X99.025 Y114.353 F7800.000
G1 E2.00000 F2400.00000
G1 F858.814
G1 X99.025 Y116.347 E2.02312
G1 Z0.950 F7800.000
G1 X99.512 Y114.036 F7800.000
G1 F646.674
G1 X99.512 Y116.664 E2.09403
G1 X98.512 Y116.664 E2.12101
G1 X98.512 Y114.036 E2.19192
G1 X99.437 Y114.036 E2.21688
G1 X100.073 Y113.475 F7800.000
G1 F646.674
G1 X100.073 Y117.225 E2.29416
G1 X97.952 Y117.225 E2.33788
G1 X97.952 Y113.475 E2.41517
G1 X99.998 Y113.475 E2.45734
G1 X99.987 Y113.968 F7800.000
G1 X97.912 Y113.200 F7800.000
G1 F1293.35
G1 X97.912 Y86.800 E2.91318
G1 X99.512 Y85.964 F7800.000
G1 F646.674
G1 X98.512 Y85.964 E2.94016
G1 X98.512 Y83.336 E3.01107
G1 X99.512 Y83.336 E3.03805
G1 X99.512 Y85.889 E3.10694
G1 X100.073 Y86.525 F7800.000
G1 F646.674
G1 X97.952 Y86.525 E3.15066
G1 X97.952 Y82.775 E3.22795
G1 X100.073 Y82.775 E3.27167
G1 X100.073 Y86.450 E3.34741
G1 X99.603 Y86.353 F7800.000
G1 X99.012 Y85.647 F7800.000
G1 F862.232
G1 X99.012 Y83.653 E3.37279
G1 E1.37279 F2400.00000
G92 E0
G1 X99.012 Y114.353 F7800.000
G1 E2.00000 F2400.00000
G1 F862.232
G1 X99.012 Y116.347 E2.02538
M106 S255
G1 Z1.250 F7800.000
G1 X99.512 Y114.036 F7800.000
G1 F649.238
G1 X99.512 Y116.664 E2.09629
G1 X98.485 Y116.664 E2.12399
G1 X98.485 Y114.036 E2.19490
G1 X99.437 Y114.036 E2.22058
G1 X100.073 Y113.475 F7800.000
G1 F649.238
G1 X100.073 Y117.225 E2.29786
G1 X97.925 Y117.225 E2.34213
G1 X97.925 Y113.475 E2.41942
G1 X99.998 Y113.475 E2.46215
G1 X99.986 Y113.968 F7800.000
G1 X97.899 Y113.200 F7800.000
G1 F1298.48
G1 X97.899 Y86.800 E2.94791
G1 X99.512 Y85.964 F7800.000
G1 F649.238
G1 X98.485 Y85.964 E2.97560
G1 X98.485 Y83.336 E3.04652
G1 X99.512 Y83.336 E3.07421
G1 X99.512 Y85.889 E3.14311
G1 X100.073 Y86.525 F7800.000
G1 F649.238
G1 X97.925 Y86.525 E3.18738
G1 X97.925 Y82.775 E3.26466
G1 X100.073 Y82.775 E3.30893
G1 X100.073 Y86.450 E3.38468
G1 X99.603 Y86.353 F7800.000
G1 X98.999 Y85.647 F7800.000
G1 F865.651
G1 X98.999 Y83.653 E3.41231
G1 E1.41231 F2400.00000
G92 E0
G1 X98.999 Y114.353 F7800.000
G1 E2.00000 F2400.00000
G1 F865.651
G1 X98.999 Y116.347 E2.02763
G1 Z1.550 F7800.000
G1 X99.512 Y114.036 F7800.000
G1 F651.802
G1 X99.512 Y116.664 E2.09855
G1 X98.459 Y116.664 E2.12697
G1 X98.459 Y114.036 E2.19788
G1 X99.437 Y114.036 E2.22428
G1 X100.073 Y113.475 F7800.000
G1 F651.802
G1 X100.073 Y117.225 E2.30156
G1 X97.898 Y117.225 E2.34638
G1 X97.898 Y113.475 E2.42367
G1 X99.998 Y113.475 E2.46695
G1 X99.986 Y113.967 F7800.000
G1 X97.885 Y113.200 F7800.000
G1 F1303.6
G1 X97.885 Y86.800 E2.98263
G1 X99.512 Y85.964 F7800.000
G1 F651.802
G1 X98.459 Y85.964 E3.01105
G1 X98.459 Y83.336 E3.08196
G1 X99.512 Y83.336 E3.11038
G1 X99.512 Y85.889 E3.17927
G1 X100.073 Y86.525 F7800.000
G1 F651.802
G1 X97.898 Y86.525 E3.22409
G1 X97.898 Y82.775 E3.30138
G1 X100.073 Y82.775 E3.34620
G1 X100.073 Y86.450 E3.42194
G1 X99.603 Y86.354 F7800.000
G1 X98.985 Y85.647 F7800.000
G1 F869.069
G1 X98.985 Y83.653 E3.45184
G1 E1.45184 F2400.00000
G92 E0
G1 X98.985 Y114.353 F7800.000
G1 E2.00000 F2400.00000
G1 F869.069
G1 X98.985 Y116.347 E2.02989
G1 Z1.850 F7800.000
G1 X99.512 Y114.036 F7800.000
G1 F654.366
G1 X99.512 Y116.664 E2.10081
G1 X98.432 Y116.664 E2.12995
G1 X98.432 Y114.036 E2.20086
G1 X99.437 Y114.036 E2.22798
G1 X100.073 Y113.475 F7800.000
G1 F654.366
G1 X100.073 Y117.225 E2.30526
G1 X97.871 Y117.225 E2.35063
G1 X97.871 Y113.475 E2.42792
G1 X99.998 Y113.475 E2.47175
G1 X99.985 Y113.967 F7800.000
G1 X97.872 Y113.200 F7800.000
G1 F1308.73
G1 X97.872 Y86.800 E3.01736
G1 X99.512 Y85.964 F7800.000
G1 F654.366
G1 X98.432 Y85.964 E3.04649
G1 X98.432 Y83.336 E3.11741
G1 X99.512 Y83.336 E3.14655
G1 X99.512 Y85.889 E3.21544
G1 X100.073 Y86.525 F7800.000
G1 F654.366
G1 X97.871 Y86.525 E3.26081
G1 X97.871 Y82.775 E3.33810
G1 X100.073 Y82.775 E3.38347
G1 X100.073 Y86.450 E3.45921
G1 X99.602 Y86.355 F7800.000
G1 X98.972 Y85.647 F7800.000
G1 F872.488
G1 X98.972 Y83.653 E3.49136
G1 E1.49136 F2400.00000
G92 E0
G1 X98.972 Y114.353 F7800.000
G1 E2.00000 F2400.00000
G1 F872.488
G1 X98.972 Y116.347 E2.03215
G1 Z2.150 F7800.000
G1 X99.512 Y114.036 F7800.000
G1 F656.93
G1 X99.512 Y116.664 E2.10307
G1 X98.405 Y116.664 E2.13293
G1 X98.405 Y114.036 E2.20384
G1 X99.437 Y114.036 E2.23168
G1 X100.073 Y113.475 F7800.000
G1 F656.93
G1 X100.073 Y117.225 E2.30896
G1 X97.845 Y117.225 E2.35488
G1 X97.845 Y113.475 E2.43217
G1 X99.998 Y113.475 E2.47655
G1 X99.984 Y113.967 F7800.000
G1 X97.859 Y113.200 F7800.000
G1 F1313.86
G1 X97.859 Y86.800 E3.05208
G1 X99.512 Y85.964 F7800.000
G1 F656.93
G1 X98.405 Y85.964 E3.08194
G1 X98.405 Y83.336 E3.15285
G1 X99.512 Y83.336 E3.18271
G1 X99.512 Y85.889 E3.25160
G1 X100.073 Y86.525 F7800.000
G1 F656.93
G1 X97.845 Y86.525 E3.29752
G1 X97.845 Y82.775 E3.37481
G1 X100.073 Y82.775 E3.42073
G1 X100.073 Y86.450 E3.49648
G1 X99.602 Y86.356 F7800.000
G1 X98.959 Y85.647 F7800.000
G1 F875.906
G1 X98.959 Y83.653 E3.53089
G1 E1.53089 F2400.00000
G92 E0
G1 X98.959 Y114.353 F7800.000
G1 E2.00000 F2400.00000
G1 F875.906
G1 X98.959 Y116.347 E2.03441
G1 Z2.450 F7800.000
G1 X99.512 Y114.036 F7800.000
G1 F659.494
G1 X99.512 Y116.664 E2.10533
G1 X98.379 Y116.664 E2.13591
G1 X98.379 Y114.036 E2.20682
G1 X99.437 Y114.036 E2.23538
G1 X100.073 Y113.475 F7800.000
G1 F659.494
G1 X100.073 Y117.225 E2.31266
G1 X97.818 Y117.225 E2.35914
G1 X97.818 Y113.475 E2.43642
G1 X99.998 Y113.475 E2.48135
G1 X99.983 Y113.967 F7800.000
G1 X97.845 Y113.200 F7800.000
G1 F1318.99
G1 X97.845 Y86.800 E3.08680
G1 X99.512 Y85.964 F7800.000
G1 F659.494
G1 X98.379 Y85.964 E3.11738
G1 X98.379 Y83.336 E3.18830
G1 X99.512 Y83.336 E3.21888
G1 X99.512 Y85.889 E3.28777
G1 X100.073 Y86.525 F7800.000
G1 F659.494
G1 X97.818 Y86.525 E3.33424
G1 X97.818 Y82.775 E3.41153
G1 X100.073 Y82.775 E3.45800
G1 X100.073 Y86.450 E3.53374
G1 X99.602 Y86.357 F7800.000
G1 X98.945 Y85.647 F7800.000
G1 F879.325
G1 X98.945 Y83.653 E3.57041
G1 E1.57041 F2400.00000
G92 E0
G1 X98.945 Y114.353 F7800.000
G1 E2.00000 F2400.00000
G1 F879.325
G1 X98.945 Y116.347 E2.03667
G1 Z2.750 F7800.000
G1 X99.512 Y114.036 F7800.000
G1 F662.057
G1 X99.512 Y116.664 E2.10759
G1 X98.352 Y116.664 E2.13888
G1 X98.352 Y114.036 E2.20980
G1 X99.437 Y114.036 E2.23908
G1 X100.073 Y113.475 F7800.000
G1 F662.057
G1 X100.073 Y117.225 E2.31636
G1 X97.791 Y117.225 E2.36339
G1 X97.791 Y113.475 E2.44067
G1 X99.998 Y113.475 E2.48615
G1 X99.982 Y113.967 F7800.000
G1 X97.832 Y113.200 F7800.000
G1 F1324.11
G1 X97.832 Y86.800 E3.12153
G1 X99.512 Y85.964 F7800.000
G1 F662.057
G1 X98.352 Y85.964 E3.15283
G1 X98.352 Y83.336 E3.22374
G1 X99.512 Y83.336 E3.25504
G1 X99.512 Y85.889 E3.32393
G1 X100.073 Y86.525 F7800.000
G1 F662.057
G1 X97.791 Y86.525 E3.37095
G1 X97.791 Y82.775 E3.44824
G1 X100.073 Y82.775 E3.49526
G1 X100.073 Y86.450 E3.57101
G1 X99.602 Y86.358 F7800.000
G1 X98.932 Y85.647 F7800.000
G1 F882.743
G1 X98.932 Y83.653 E3.60994
G1 E1.60994 F2400.00000
G92 E0
G1 X98.932 Y114.353 F7800.000
G1 E2.00000 F2400.00000
G1 F882.743
G1 X98.932 Y116.347 E2.03893
G1 Z3.050 F7800.000
G1 X99.512 Y114.036 F7800.000
G1 F664.621
G1 X99.512 Y116.664 E2.10985
G1 X98.325 Y116.664 E2.14186
G1 X98.325 Y114.036 E2.21278
G1 X99.437 Y114.036 E2.24278
G1 X100.073 Y113.475 F7800.000
G1 F664.621
G1 X100.073 Y117.225 E2.32006
G1 X97.765 Y117.225 E2.36764
G1 X97.765 Y113.475 E2.44492
G1 X99.998 Y113.475 E2.49095
G1 X99.981 Y113.967 F7800.000
G1 X97.819 Y113.200 F7800.000
G1 F1329.24
G1 X97.819 Y86.800 E3.15625
G1 X99.512 Y85.964 F7800.000
G1 F664.621
G1 X98.325 Y85.964 E3.18827
G1 X98.325 Y83.336 E3.25918
G1 X99.512 Y83.336 E3.29120
G1 X99.512 Y85.889 E3.36010
G1 X100.073 Y86.525 F7800.000
G1 F664.621
G1 X97.765 Y86.525 E3.40767
G1 X97.765 Y82.775 E3.48496
G1 X100.073 Y82.775 E3.53253
G1 X100.073 Y86.450 E3.60827
G1 X99.601 Y86.358 F7800.000
G1 X98.919 Y85.647 F7800.000
G1 F886.161
G1 X98.919 Y83.653 E3.64946
G1 E1.64946 F2400.00000
G92 E0
G1 X98.919 Y114.353 F7800.000
G1 E2.00000 F2400.00000
G1 F886.161
G1 X98.919 Y116.347 E2.04119
G1 Z3.350 F7800.000
G1 X99.512 Y114.036 F7800.000
G1 F667.185
G1 X99.512 Y116.664 E2.11210
G1 X98.299 Y116.664 E2.14484
G1 X98.299 Y114.036 E2.21576
G1 X99.437 Y114.036 E2.24648
G1 X100.073 Y113.475 F7800.000
G1 F667.185
G1 X100.073 Y117.225 E2.32376
G1 X97.738 Y117.225 E2.37189
G1 X97.738 Y113.475 E2.44918
G1 X99.998 Y113.475 E2.49575
G1 X99.980 Y113.966 F7800.000
G1 X97.805 Y113.200 F7800.000
G1 F1334.37
G1 X97.805 Y86.800 E3.19098
G1 X99.512 Y85.964 F7800.000
G1 F667.185
G1 X98.299 Y85.964 E3.22372
G1 X98.299 Y83.336 E3.29463
G1 X99.512 Y83.336 E3.32737
G1 X99.512 Y85.889 E3.39626
G1 X100.073 Y86.525 F7800.000
G1 F667.185
G1 X97.738 Y86.525 E3.44438
G1 X97.738 Y82.775 E3.52167
G1 X100.073 Y82.775 E3.56980
G1 X100.073 Y86.450 E3.64554
G1 X99.601 Y86.359 F7800.000
G1 X98.905 Y85.647 F7800.000
G1 F889.58
G1 X98.905 Y83.653 E3.68899
G1 E1.68899 F2400.00000
G92 E0
G1 X98.905 Y114.353 F7800.000
G1 E2.00000 F2400.00000
G1 F889.58
G1 X98.905 Y116.347 E2.04345
G1 Z3.650 F7800.000
G1 X99.512 Y114.036 F7800.000
G1 F669.749
G1 X99.512 Y116.664 E2.11436
G1 X98.272 Y116.664 E2.14782
G1 X98.272 Y114.036 E2.21874
G1 X99.437 Y114.036 E2.25018
G1 X100.073 Y113.475 F7800.000
G1 F669.749
G1 X100.073 Y117.225 E2.32746
G1 X97.711 Y117.225 E2.37614
G1 X97.711 Y113.475 E2.45343
G1 X99.998 Y113.475 E2.50055
G1 X99.980 Y113.966 F7800.000
G1 X97.792 Y113.200 F7800.000
G1 F1339.5
G1 X97.792 Y86.800 E3.22570
G1 X99.512 Y85.964 F7800.000
G1 F669.749
G1 X98.272 Y85.964 E3.25916
G1 X98.272 Y83.336 E3.33008
G1 X99.512 Y83.336 E3.36354
G1 X99.512 Y85.889 E3.43243
G1 X100.073 Y86.525 F7800.000
G1 F669.749
G1 X97.711 Y86.525 E3.48110
G1 X97.711 Y82.775 E3.55839
G1 X100.073 Y82.775 E3.60706
G1 X100.073 Y86.450 E3.68280
G1 X99.601 Y86.360 F7800.000
G1 X98.892 Y85.647 F7800.000
G1 F892.998
G1 X98.892 Y83.653 E3.72851
G1 E1.72851 F2400.00000
G92 E0
G1 X98.892 Y114.353 F7800.000
G1 E2.00000 F2400.00000
G1 F892.998
G1 X98.892 Y116.347 E2.04571
G1 Z3.950 F7800.000
G1 X99.512 Y114.036 F7800.000
G1 F672.313
G1 X99.512 Y116.664 E2.11662
G1 X98.245 Y116.664 E2.15080
G1 X98.245 Y114.036 E2.22172
G1 X99.437 Y114.036 E2.25388
G1 X100.073 Y113.475 F7800.000
G1 F672.313
G1 X100.073 Y117.225 E2.33116
G1 X97.684 Y117.225 E2.38039
G1 X97.684 Y113.475 E2.45768
G1 X99.998 Y113.475 E2.50535
G1 X99.979 Y113.966 F7800.000
G1 X97.779 Y113.200 F7800.000
G1 F1344.63
G1 X97.779 Y86.800 E3.26042
G1 X99.512 Y85.964 F7800.000
G1 F672.313
G1 X98.245 Y85.964 E3.29460
G1 X98.245 Y83.336 E3.36552
G1 X99.512 Y83.336 E3.39970
G1 X99.512 Y85.889 E3.46859
G1 X100.073 Y86.525 F7800.000
G1 F672.313
G1 X97.684 Y86.525 E3.51781
G1 X97.684 Y82.775 E3.59510
G1 X100.073 Y82.775 E3.64433
G1 X100.073 Y86.450 E3.72007
G1 X99.600 Y86.361 F7800.000
G1 X98.879 Y85.647 F7800.000
G1 F896.417
G1 X98.879 Y83.653 E3.76804
G1 E1.76804 F2400.00000
G92 E0
G1 X98.879 Y114.353 F7800.000
G1 E2.00000 F2400.00000
G1 F896.417
G1 X98.879 Y116.347 E2.04797
G1 Z4.250 F7800.000
G1 X99.512 Y114.036 F7800.000
G1 F674.876
G1 X99.512 Y116.664 E2.11888
G1 X98.218 Y116.664 E2.15378
G1 X98.218 Y114.036 E2.22470
G1 X99.437 Y114.036 E2.25758
G1 X100.073 Y113.475 F7800.000
G1 F674.876
G1 X100.073 Y117.225 E2.33486
G1 X97.658 Y117.225 E2.38464
G1 X97.658 Y113.475 E2.46193
G1 X99.998 Y113.475 E2.51015
G1 X99.978 Y113.966 F7800.000
G1 X97.765 Y113.200 F7800.000
G1 F1349.75
G1 X97.765 Y86.800 E3.29515
G1 X99.512 Y85.964 F7800.000
G1 F674.876
G1 X98.218 Y85.964 E3.33005
G1 X98.218 Y83.336 E3.40096
G1 X99.512 Y83.336 E3.43586
G1 X99.512 Y85.889 E3.50476
G1 X100.073 Y86.525 F7800.000
G1 F674.876
G1 X97.658 Y86.525 E3.55453
G1 X97.658 Y82.775 E3.63182
G1 X100.073 Y82.775 E3.68159
G1 X100.073 Y86.450 E3.75734
G1 X99.600 Y86.362 F7800.000
G1 X98.865 Y85.647 F7800.000
G1 F899.835
G1 X98.865 Y83.653 E3.80756
G1 E1.80756 F2400.00000
G92 E0
G1 X98.865 Y114.353 F7800.000
G1 E2.00000 F2400.00000
G1 F899.835
G1 X98.865 Y116.347 E2.05023
G1 Z4.550 F7800.000
G1 X99.512 Y114.036 F7800.000
G1 F677.44
G1 X99.512 Y116.664 E2.12114
G1 X98.192 Y116.664 E2.15676
G1 X98.192 Y114.036 E2.22768
G1 X99.437 Y114.036 E2.26128
G1 X100.073 Y113.475 F7800.000
G1 F677.44
G1 X100.073 Y117.225 E2.33856
G1 X97.631 Y117.225 E2.38889
G1 X97.631 Y113.475 E2.46618
G1 X99.998 Y113.475 E2.51496
G1 X99.977 Y113.966 F7800.000
G1 X97.752 Y113.200 F7800.000
G1 F1354.88
G1 X97.752 Y86.800 E3.32987
G1 X99.512 Y85.964 F7800.000
G1 F677.44
G1 X98.192 Y85.964 E3.36549
G1 X98.192 Y83.336 E3.43641
G1 X99.512 Y83.336 E3.47203
G1 X99.512 Y85.889 E3.54092
G1 X100.073 Y86.525 F7800.000
G1 F677.44
G1 X97.631 Y86.525 E3.59124
G1 X97.631 Y82.775 E3.66853
G1 X100.073 Y82.775 E3.71886
G1 X100.073 Y86.450 E3.79460
G1 X99.600 Y86.362 F7800.000
G1 X98.852 Y85.647 F7800.000
G1 F903.253
G1 X98.852 Y83.653 E3.84709
G1 E1.84709 F2400.00000
G92 E0
G1 X98.852 Y114.353 F7800.000
G1 E2.00000 F2400.00000
G1 F903.253
G1 X98.852 Y116.347 E2.05249
G1 Z4.850 F7800.000
G1 X99.512 Y114.036 F7800.000
G1 F680.004
G1 X99.512 Y116.664 E2.12340
