; generated by Slic3r 1.3.0 on 2021-12-03 at 00:05:35

; external perimeters extrusion width = 0.55mm (4.37mm^3/s)
; perimeters extrusion width = 0.70mm (11.44mm^3/s)
; infill extrusion width = 0.62mm (13.45mm^3/s)
; solid infill extrusion width = 0.70mm (3.81mm^3/s)
; top infill extrusion width = 0.70mm (2.86mm^3/s)

M107
M104 S200 ; set temperature
G28 ; home all axes
G1 Z5 F5000 ; lift nozzle

; Filament gcode

M109 S200 ; set temperature and wait for it to be reached
G21 ; set units to millimeters
G90 ; use absolute coordinates
M82 ; use absolute distances for extrusion
G92 E0
G1 Z0.350 F7800.000
G1 E-2.00000 F2400.00000
G92 E0
G1 X84.341 Y78.253 F7800.000
G1 E2.00000 F2400.00000
G1 F1800
G1 X86.093 Y76.774 E2.07096
G1 X88.245 Y75.981 E2.14192
G1 X89.425 Y75.875 E2.17858
G1 X109.748 Y75.875 E2.80740
G1 X112.007 Y76.272 E2.87836
G1 X113.995 Y77.415 E2.94933
G1 X115.474 Y79.168 E3.02029
G1 X116.267 Y81.320 E3.09125
G1 X116.373 Y82.500 E3.12790
G1 X116.373 Y117.500 E4.21085
G1 X115.976 Y119.759 E4.28181
G1 X114.833 Y121.747 E4.35277
G1 X113.080 Y123.226 E4.42373
G1 X110.928 Y124.019 E4.49470
G1 X109.748 Y124.125 E4.53135
G1 X89.425 Y124.125 E5.16017
G1 X87.166 Y123.728 E5.23113
G1 X85.178 Y122.585 E5.30210
G1 X83.699 Y120.832 E5.37306
G1 X82.906 Y118.680 E5.44402
G1 X82.800 Y117.500 E5.48067
G1 X82.800 Y82.500 E6.56362
G1 X83.197 Y80.241 E6.63458
G1 X84.303 Y78.318 E6.70322
G1 E4.70322 F2400.00000
G92 E0
G1 X108.775 Y115.850 F7800.000
G1 E2.00000 F2400.00000
G1 F1800
G1 X91.721 Y115.850 E2.52766
G1 X91.721 Y84.150 E3.50850
G1 X108.775 Y84.150 E4.03617
G1 X108.775 Y115.775 E5.01469
G1 X108.857 Y116.343 F7800.000
G1 E3.01469 F2400.00000
G92 E0
G1 X91.097 Y116.525 F7800.000
G1 E2.00000 F2400.00000
G1 F1800
G1 X90.400 Y116.525 E2.02155
G1 X90.400 Y83.475 E3.04417
G1 X91.097 Y83.475 E3.06572
G1 X91.097 Y116.450 E4.08602
G1 X89.775 Y117.150 F7800.000
G1 F1800
G1 X89.775 Y82.850 E5.14730
G1 X109.398 Y82.850 E5.75447
G1 X109.398 Y117.150 E6.81576
G1 X89.850 Y117.150 E7.42060
G1 X89.861 Y116.657 F7800.000
G1 X91.409 Y116.500 F7800.000
G1 F1800
G1 X109.086 Y116.500 E7.94576
G1 E5.94576 F2400.00000
G92 E0
G1 X109.086 Y83.500 F7800.000
G1 E2.00000 F2400.00000
G1 F1800
G1 X91.409 Y83.500 E2.52516
G1 Z0.650 F7800.000
G1 E0.52516 F2400.00000
G92 E0
G1 X92.660 Y115.775 F7800.000
G1 E2.00000 F2400.00000
G1 F1800
G1 X92.660 Y115.250 E2.01082

G1 F3600
G1 X92.660 Y84.750 E2.85804

G1 F1800
G1 X92.660 Y84.225 E2.86886
G1 X107.837 Y84.225 E3.18166
G1 X107.837 Y84.750 E3.19248

G1 F3600
G1 X107.837 Y115.250 E4.03970

G1 F1800
G1 X107.837 Y115.775 E4.05052
G1 X92.735 Y115.775 E4.36178
G1 X92.160 Y115.781 F7800.000
G1 X108.397 Y116.664 F7800.000
G1 F3600
G1 X108.397 Y83.336 E5.26087
G1 X108.913 Y83.336 E5.27477
G1 X108.913 Y116.664 E6.17387
G1 X108.472 Y116.664 E6.18575
G1 X91.464 Y116.029 F7800.000
G1 F3600
G1 X90.033 Y116.029 E6.22435
G1 X90.033 Y83.971 E7.08915
G1 X91.464 Y83.971 E7.12774
G1 X91.464 Y115.954 E7.99052
G1 X92.099 Y116.664 F7800.000
G1 F3600
G1 X89.397 Y116.664 E8.06341
G1 X89.397 Y83.336 E8.96251
G1 X92.099 Y83.336 E9.03540
G1 X92.099 Y116.589 E9.93247
G1 X109.473 Y117.225 F7800.000
G1 F1800
G1 X89.175 Y117.225 E10.35082

G1 F3600
G1 X88.837 Y117.225 E10.36022
G1 X88.837 Y82.775 E11.31717
G1 X89.175 Y82.775 E11.32657

G1 F1800
G1 X109.473 Y82.775 E11.74492
G1 X109.473 Y117.150 E12.45340
G1 X109.003 Y117.055 F7800.000
G1 X108.117 Y116.500 F7800.000
G1 F1200
G1 X92.380 Y116.500 E13.00443
G1 X90.748 Y115.711 F7800.000
G1 F1200
G1 X90.748 Y84.289 E13.97897
G1 X92.380 Y83.500 F7800.000
G1 F1200
G1 X108.117 Y83.500 E14.53000
G1 Z0.950 F7800.000
G1 E12.53000 F2400.00000
G92 E0
G1 X107.289 Y115.775 F7800.000
G1 E2.00000 F2400.00000
G1 F1800
G1 X93.208 Y115.775 E2.29020
G1 X93.208 Y115.250 E2.30102

G1 F3600
G1 X93.208 Y84.750 E3.14824

G1 F1800
G1 X93.208 Y84.225 E3.15906
G1 X107.289 Y84.225 E3.44927
G1 X107.289 Y84.750 E3.46009

G1 F3600
G1 X107.289 Y115.250 E4.30731

G1 F1800
G1 X107.289 Y115.700 E4.31658
G1 X107.039 Y116.208 F7800.000
G1 X107.849 Y116.664 F7800.000
G1 F3600
G1 X107.849 Y83.336 E5.21568
G1 X108.913 Y83.336 E5.24437
G1 X108.913 Y116.664 E6.14346
G1 X107.924 Y116.664 E6.17013
G1 X92.012 Y116.029 F7800.000
G1 F3600
G1 X89.485 Y116.029 E6.23831
G1 X89.485 Y83.971 E7.10311
G1 X92.012 Y83.971 E7.17128
G1 X92.012 Y115.954 E8.03406
G1 X92.648 Y116.664 F7800.000
G1 F3600
G1 X88.849 Y116.664 E8.13653
G1 X88.849 Y83.336 E9.03562
G1 X92.648 Y83.336 E9.13809
G1 X92.648 Y116.589 E10.03516
G1 X109.473 Y117.225 F7800.000
G1 F1800
G1 X88.312 Y117.225 E10.47131

G1 F3600
G1 X88.289 Y117.225 E10.47195
G1 X88.289 Y82.775 E11.42890
G1 X88.312 Y82.775 E11.42954

G1 F1800
G1 X109.473 Y82.775 E11.86569
G1 X109.473 Y117.150 E12.57417
G1 X109.002 Y117.058 F7800.000
G1 X108.381 Y116.347 F7800.000
G1 F1200
G1 X108.381 Y83.653 E13.07864
G1 X107.569 Y83.500 F7800.000
G1 F1200
G1 X92.928 Y83.500 E13.59128
G1 X89.873 Y84.854 F7800.000
G1 F1200
G1 X90.368 Y84.360 E13.61049
G1 X91.283 Y84.360 E13.63564
G1 X89.873 Y85.770 E13.69043
G1 X89.873 Y86.685 E13.71558
G1 X91.624 Y84.935 E13.78359
G1 X91.624 Y85.850 E13.80875
G1 X89.873 Y87.601 E13.87676
G1 X89.873 Y88.516 E13.90191
G1 X91.624 Y86.766 E13.96992
G1 X91.624 Y87.681 E13.99507
G1 X89.873 Y89.432 E14.06308
G1 X89.873 Y90.347 E14.08823
G1 X91.624 Y88.597 E14.15624
G1 X91.624 Y89.512 E14.18139
G1 X89.873 Y91.263 E14.24940
G1 X89.873 Y92.178 E14.27456
G1 X91.624 Y90.428 E14.34257
G1 X91.624 Y91.343 E14.36772
G1 X89.873 Y93.094 E14.43573
G1 X89.873 Y94.009 E14.46088
G1 X91.624 Y92.259 E14.52889
G1 X91.624 Y93.174 E14.55404
G1 X89.873 Y94.925 E14.62205
G1 X89.873 Y95.840 E14.64721
G1 X91.624 Y94.090 E14.71522
G1 X91.624 Y95.005 E14.74037
G1 X89.873 Y96.756 E14.80838
G1 X89.873 Y97.671 E14.83353
G1 X91.624 Y95.921 E14.90154
G1 X91.624 Y96.836 E14.92669
G1 X89.873 Y98.586 E14.99470
G1 X89.873 Y99.502 E15.01985
G1 X91.624 Y97.752 E15.08786
G1 X91.624 Y98.667 E15.11302
G1 X89.873 Y100.417 E15.18103
G1 X89.873 Y101.333 E15.20618
G1 X91.624 Y99.583 E15.27419
G1 X91.624 Y100.498 E15.29934
G1 X89.873 Y102.248 E15.36735
G1 X89.873 Y103.164 E15.39250
G1 X91.624 Y101.414 E15.46051
G1 X91.624 Y102.329 E15.48567
G1 X89.873 Y104.079 E15.55368
G1 X89.873 Y104.995 E15.57883
G1 X91.624 Y103.245 E15.64684
G1 X91.624 Y104.160 E15.67199
G1 X89.873 Y105.910 E15.74000
G1 X89.873 Y106.826 E15.76515
G1 X91.624 Y105.075 E15.83316
G1 X91.624 Y105.991 E15.85831
G1 X89.873 Y107.741 E15.92632
G1 X89.873 Y108.657 E15.95148
G1 X91.624 Y106.906 E16.01949
G1 X91.624 Y107.822 E16.04464
G1 X89.873 Y109.572 E16.11265
G1 X89.873 Y110.488 E16.13780
G1 X91.624 Y108.737 E16.20581
G1 X91.624 Y109.653 E16.23096
G1 X89.873 Y111.403 E16.29897
G1 X89.873 Y112.319 E16.32413
G1 X91.624 Y110.568 E16.39214
G1 X91.624 Y111.484 E16.41729
G1 X89.873 Y113.234 E16.48530
G1 X89.873 Y114.150 E16.51045
G1 X91.624 Y112.399 E16.57846
G1 X91.624 Y113.315 E16.60361
G1 X89.873 Y115.065 E16.67162
G1 X89.873 Y115.640 E16.68742
G1 X90.213 Y115.640 E16.69677
G1 X91.624 Y114.230 E16.75156
G1 X91.624 Y115.146 E16.77671
G1 X91.129 Y115.640 E16.79593
G1 X92.928 Y116.500 F7800.000
G1 F1200
G1 X107.569 Y116.500 E17.30857
M106 S204
G1 Z1.250 F7800.000
G1 X106.850 Y115.775 F7800.000
G1 F1800
G1 X93.646 Y115.775 E17.58071
G1 X93.646 Y84.225 E18.23097
G1 X106.850 Y84.225 E18.50311
G1 X106.850 Y115.700 E19.15182
G1 X106.916 Y116.271 F7800.000
G1 X92.450 Y116.029 F7800.000
G1 F3600
G1 X89.047 Y116.029 E19.24363
G1 X89.047 Y83.971 E20.10843
G1 X92.450 Y83.971 E20.20024
G1 X92.450 Y115.954 E21.06302
G1 X93.086 Y116.664 F7800.000
G1 F3600
G1 X88.411 Y116.664 E21.18913
G1 X88.411 Y83.336 E22.08822
G1 X93.086 Y83.336 E22.21433
G1 X93.086 Y116.589 E23.11140
G1 X107.411 Y116.664 F7800.000
G1 F3600
G1 X107.411 Y83.336 E24.01049
G1 X108.913 Y83.336 E24.05100
G1 X108.913 Y116.664 E24.95010
G1 X107.486 Y116.664 E24.98859
G1 X109.473 Y117.225 F7800.000
G1 F1800
G1 X87.850 Y117.225 E25.43424
G1 X87.850 Y82.775 E26.14427
G1 X109.473 Y82.775 E26.58993
G1 X109.473 Y117.150 E27.29841
G1 X109.001 Y117.060 F7800.000
G1 X108.162 Y116.347 F7800.000
G1 F1200
G1 X108.162 Y83.653 E28.41080
G1 X107.131 Y83.500 F7800.000
G1 F1200
G1 X93.366 Y83.500 E28.89276
G1 X92.062 Y84.854 F7800.000
G1 F1200
G1 X91.567 Y84.360 E28.91195
G1 X90.653 Y84.360 E28.93705
G1 X92.062 Y85.769 E28.99172
G1 X92.062 Y86.683 E29.01682
G1 X89.738 Y84.360 E29.10698
G1 X89.435 Y84.360 E29.11530
G1 X89.435 Y84.971 E29.13207
G1 X92.062 Y87.597 E29.23401
G1 X92.062 Y88.512 E29.25910
G1 X89.435 Y85.885 E29.36104
G1 X89.435 Y86.800 E29.38613
G1 X92.062 Y89.426 E29.48806
G1 X92.062 Y90.341 E29.51315
G1 X89.435 Y87.714 E29.61509
G1 X89.435 Y88.628 E29.64018
G1 X92.062 Y91.255 E29.74212
G1 X92.062 Y92.169 E29.76721
G1 X89.435 Y89.543 E29.86914
G1 X89.435 Y90.457 E29.89424
G1 X92.062 Y93.084 E29.99617
G1 X92.062 Y93.998 E30.02126
G1 X89.435 Y91.372 E30.12320
G1 X89.435 Y92.286 E30.14829
G1 X92.062 Y94.913 E30.25023
G1 X92.062 Y95.827 E30.27532
G1 X89.435 Y93.200 E30.37725
G1 X89.435 Y94.115 E30.40235
G1 X92.062 Y96.741 E30.50428
G1 X92.062 Y97.656 E30.52937
G1 X89.435 Y95.029 E30.63131
G1 X89.435 Y95.943 E30.65640
G1 X92.062 Y98.570 E30.75833
G1 X92.062 Y99.485 E30.78343
G1 X89.435 Y96.858 E30.88536
G1 X89.435 Y97.772 E30.91045
G1 X92.062 Y100.399 E31.01239
G1 X92.062 Y101.313 E31.03748
G1 X89.435 Y98.687 E31.13942
G1 X89.435 Y99.601 E31.16451
G1 X92.062 Y102.228 E31.26644
G1 X92.062 Y103.142 E31.29154
G1 X89.435 Y100.515 E31.39347
G1 X89.435 Y101.430 E31.41856
G1 X92.062 Y104.056 E31.52050
G1 X92.062 Y104.971 E31.54559
G1 X89.435 Y102.344 E31.64753
G1 X89.435 Y103.259 E31.67262
G1 X92.062 Y105.885 E31.77455
G1 X92.062 Y106.800 E31.79965
G1 X89.435 Y104.173 E31.90158
G1 X89.435 Y105.087 E31.92667
G1 X92.062 Y107.714 E32.02861
G1 X92.062 Y108.628 E32.05370
G1 X89.435 Y106.002 E32.15563
G1 X89.435 Y106.916 E32.18073
G1 X92.062 Y109.543 E32.28266
G1 X92.062 Y110.457 E32.30775
G1 X89.435 Y107.831 E32.40969
G1 X89.435 Y108.745 E32.43478
G1 X92.062 Y111.372 E32.53672
G1 X92.062 Y112.286 E32.56181
G1 X89.435 Y109.659 E32.66374
G1 X89.435 Y110.574 E32.68884
G1 X92.062 Y113.200 E32.79077
G1 X92.062 Y114.115 E32.81586
G1 X89.435 Y111.488 E32.91780
G1 X89.435 Y112.403 E32.94289
G1 X92.062 Y115.029 E33.04483
G1 X92.062 Y115.640 E33.06160
G1 X91.758 Y115.640 E33.06992
G1 X89.435 Y113.317 E33.16008
G1 X89.435 Y114.231 E33.18518
G1 X90.844 Y115.640 E33.23985
G1 X89.930 Y115.640 E33.26495
G1 X89.435 Y115.146 E33.28414
G1 X93.366 Y116.500 F7800.000
G1 F1200
G1 X107.131 Y116.500 E33.76610
M106 S226.95
G1 Z1.550 F7800.000
G1 X106.474 Y115.775 F7800.000
G1 F1800
G1 X94.023 Y115.775 E34.02272
G1 X94.023 Y84.225 E34.67297
G1 X106.474 Y84.225 E34.92959
G1 X106.474 Y115.700 E35.57830
G1 X106.536 Y116.271 F7800.000
G1 X92.827 Y116.029 F7800.000
G1 F3600
G1 X88.670 Y116.029 E35.69043
G1 X88.670 Y83.971 E36.55523
G1 X92.827 Y83.971 E36.66737
G1 X92.827 Y115.954 E37.53014
G1 X93.462 Y116.664 F7800.000
G1 F3600
G1 X88.034 Y116.664 E37.67657
G1 X88.034 Y83.336 E38.57566
G1 X93.462 Y83.336 E38.72209
G1 X93.462 Y116.589 E39.61916
G1 X107.670 Y116.029 F7800.000
G1 F3600
G1 X107.670 Y83.971 E40.48396
G1 X108.277 Y83.971 E40.50034
G1 X108.277 Y116.029 E41.36514
G1 X107.745 Y116.029 E41.37949
G1 X107.034 Y116.664 F7800.000
G1 F3600
G1 X107.034 Y83.336 E42.27859
G1 X108.913 Y83.336 E42.32926
G1 X108.913 Y116.664 E43.22835
G1 X107.109 Y116.664 E43.27700
G1 X109.473 Y117.225 F7800.000
G1 F1800
G1 X87.474 Y117.225 E43.73042
G1 X87.474 Y82.775 E44.44045
G1 X109.473 Y82.775 E44.89386
G1 X109.473 Y117.150 E45.60234
G1 X109.001 Y117.061 F7800.000
G1 X106.754 Y116.500 F7800.000
G1 F1200
G1 X93.743 Y116.500 E46.05793
G1 X92.546 Y115.056 F7800.000
G1 F4800
G1 X90.831 Y115.516 E46.10019
G1 X89.035 Y112.821 F7800.000
G1 F4800
G1 X91.878 Y115.663 E46.19585
G1 X92.461 Y115.663 E46.20972
G1 X92.461 Y104.354 E46.47881
G1 X89.035 Y100.928 E46.59408
G1 X89.035 Y89.035 E46.87704
G1 X92.461 Y92.461 E46.99232
G1 X92.546 Y88.938 F7800.000
G1 F4800
G1 X88.950 Y89.902 E47.08090
G1 X92.314 Y96.195 F7800.000
G1 F4800
G1 X89.183 Y107.879 E47.36871
G1 X88.950 Y107.314 F7800.000
G1 F4800
G1 X92.546 Y106.350 E47.45729
G1 X88.950 Y98.608 F7800.000
G1 F4800
G1 X92.546 Y97.644 E47.54587
G1 X93.743 Y83.500 F7800.000
G1 F1200
G1 X106.754 Y83.500 E48.00145
M106 S221.85
G1 Z1.850 F7800.000
G1 E46.00145 F2400.00000
G92 E0
G1 X106.169 Y115.775 F7800.000
G1 E2.00000 F2400.00000
G1 F1800
G1 X94.328 Y115.775 E2.24405
G1 X94.328 Y84.225 E2.89431
G1 X106.169 Y84.225 E3.13836
G1 X106.169 Y115.700 E3.78707
G1 X106.229 Y116.271 F7800.000
G1 X93.131 Y116.029 F7800.000
G1 F3600
G1 X88.365 Y116.029 E3.91565
G1 X88.365 Y83.971 E4.78045
G1 X93.131 Y83.971 E4.90903
G1 X93.131 Y115.954 E5.77180
G1 X93.767 Y116.664 F7800.000
G1 F3600
G1 X87.730 Y116.664 E5.93467
G1 X87.730 Y83.336 E6.83377
G1 X93.767 Y83.336 E6.99664
G1 X93.767 Y116.589 E7.89371
G1 X107.365 Y116.029 F7800.000
G1 F3600
G1 X107.365 Y83.971 E8.75851
G1 X108.277 Y83.971 E8.78311
G1 X108.277 Y116.029 E9.64791
G1 X107.440 Y116.029 E9.67048
G1 X106.730 Y116.664 F7800.000
G1 F3600
G1 X106.730 Y83.336 E10.56958
G1 X108.913 Y83.336 E10.62847
G1 X108.913 Y116.664 E11.52757
G1 X106.805 Y116.664 E11.58444
G1 X109.473 Y117.225 F7800.000
G1 F1800
G1 X87.169 Y117.225 E12.04414
G1 X87.169 Y82.775 E12.75416
G1 X109.473 Y82.775 E13.21386
G1 X109.473 Y117.150 E13.92234
G1 X109.001 Y117.062 F7800.000
G1 X107.821 Y115.711 F7800.000
G1 F1200
G1 X107.821 Y84.289 E14.20489
G1 X106.449 Y83.500 F7800.000
G1 F1200
G1 X94.047 Y83.500 E14.63914
G1 X92.851 Y88.857 F7800.000
G1 F4800
G1 X88.646 Y89.984 E14.74273
G1 X92.766 Y92.766 F7800.000
G1 F4800
G1 X88.731 Y88.731 E14.87851
G1 X88.731 Y100.623 E15.16147
G1 X92.766 Y104.658 E15.29726
G1 X92.766 Y115.663 E15.55910
G1 X91.878 Y115.663 E15.58022
G1 X88.731 Y112.516 E15.68613
G1 X88.878 Y109.016 F7800.000
G1 F4800
G1 X92.618 Y95.057 E16.02998
G1 X92.851 Y97.563 F7800.000
G1 F4800
G1 X88.646 Y98.689 E16.13357
G1 X92.851 Y106.269 F7800.000
G1 F4800
G1 X88.646 Y107.395 E16.23717
G1 X90.831 Y115.516 F7800.000
G1 F4800
G1 X92.851 Y114.974 E16.28693
G1 X94.047 Y116.500 F7800.000
G1 F1200
G1 X106.449 Y116.500 E16.72118
G1 Z2.150 F7800.000
G1 X105.883 Y115.775 F7800.000
G1 F1800
G1 X94.614 Y115.775 E16.95344
G1 X94.614 Y84.225 E17.60369
G1 X105.883 Y84.225 E17.83595
G1 X105.883 Y115.700 E18.48466
G1 X105.940 Y116.272 F7800.000
G1 X93.418 Y116.029 F7800.000
G1 F3600
G1 X88.079 Y116.029 E18.62867
G1 X88.079 Y83.971 E19.49347
G1 X93.418 Y83.971 E19.63748
G1 X93.418 Y115.954 E20.50026
G1 X94.053 Y116.664 F7800.000
G1 F3600
G1 X87.444 Y116.664 E20.67856
G1 X87.444 Y83.336 E21.57766
G1 X94.053 Y83.336 E21.75596
G1 X94.053 Y116.589 E22.65303
G1 X107.079 Y116.029 F7800.000
G1 F3600
G1 X107.079 Y83.971 E23.51783
G1 X108.277 Y83.971 E23.55015
G1 X108.277 Y116.029 E24.41495
G1 X107.154 Y116.029 E24.44524
G1 X106.444 Y116.664 F7800.000
G1 F3600
G1 X106.444 Y83.336 E25.34434
G1 X108.913 Y83.336 E25.41095
G1 X108.913 Y116.664 E26.31004
G1 X106.519 Y116.664 E26.37463
G1 X109.473 Y117.225 F7800.000
G1 F1800
G1 X86.883 Y117.225 E26.84022
G1 X86.883 Y82.775 E27.55025
G1 X109.473 Y82.775 E28.01584
G1 X109.473 Y117.150 E28.72432
G1 X109.000 Y117.063 F7800.000
G1 X107.678 Y115.711 F7800.000
G1 F1200
G1 X107.678 Y84.289 E29.38836
G1 X106.163 Y83.500 F7800.000
G1 F1200
G1 X94.333 Y83.500 E29.80257
G1 X93.137 Y88.780 F7800.000
G1 F4800
G1 X88.360 Y90.060 E29.92025
G1 X93.052 Y93.052 F7800.000
G1 F4800
G1 X88.445 Y88.445 E30.07528
G1 X88.445 Y100.337 E30.35825
G1 X93.052 Y104.945 E30.51328
G1 X93.052 Y115.663 E30.76831
G1 X91.878 Y115.663 E30.79624
G1 X88.445 Y112.230 E30.91178
G1 X88.592 Y110.084 F7800.000
G1 F4800
G1 X92.905 Y93.990 E31.30822
G1 X93.137 Y97.486 F7800.000
G1 F4800
G1 X88.360 Y98.766 E31.42591
G1 X88.360 Y107.472 F7800.000
G1 F4800
G1 X93.137 Y106.192 E31.54359
G1 X93.137 Y114.898 F7800.000
G1 F4800
G1 X90.831 Y115.516 E31.60040
G1 X94.333 Y116.500 F7800.000
G1 F1200
G1 X106.163 Y116.500 E32.01461
G1 Z2.450 F7800.000
G1 X105.634 Y115.775 F7800.000
G1 F1800
G1 X94.863 Y115.775 E32.23662
G1 X94.863 Y84.225 E32.88687
